;FLAVOR:Marlin
;TIME:6666
;Filament used: 0m
;Layer height: 0.4
;MINX:2.14748e+06
;MINY:2.14748e+06
;MINZ:2.14748e+06
;MAXX:-2.14748e+06
;MAXY:-2.14748e+06
;MAXZ:-2.14748e+06
;TARGET_MACHINE.NAME:Pather

;Generated with Cura_SteamEngine 5.9.1
M104 S215
M105
M109 S215
M82 ;absolute extrusion mode
G28 ;Home
G1 Z15.0 F6000 ;Move the platform down 15mm
;Prime the extruder
G92 E0
G1 F200 E3
G92 E0
G92 E0
G92 E0
G1 F1500 E-6.5
;LAYER_COUNT:25
;LAYER:0
M106 S105.2
M204 S3000
M205 X20 Y20
;MESH:stl/cat_0.0214592x.stl
G0 F3600 X57.771 Y58.92 Z0.3
;TYPE:WALL-OUTER
G1 F1500 E0
G1 F1800 X59.015 Y59.068 E0.01178
G1 X59.716 Y59.12 E0.01839
G1 X60.501 Y59.088 E0.02578
G1 X61.083 Y59.018 E0.0313
G1 X61.668 Y58.665 E0.03772
G1 X61.9 Y58.431 E0.04082
G1 X62.211 Y58.319 E0.04393
G1 X62.197 Y58.474 E0.04539
G1 X62.002 Y58.915 E0.04993
G1 X61.918 Y58.968 E0.05086
G1 X61.697 Y59.313 E0.05472
G1 X61.492 Y59.398 E0.0568
G1 X61.304 Y59.534 E0.05899
G1 X60.858 Y59.575 E0.0632
G1 X60.114 Y59.576 E0.0702
G1 X59.319 Y59.548 E0.07768
G1 X58.326 Y59.632 E0.08705
G1 X57.456 Y59.743 E0.0953
G1 X57.237 Y59.889 E0.09778
G1 X56.431 Y60.028 E0.10547
G1 X56.249 Y60.028 E0.10718
G1 X55.053 Y60.156 E0.11849
G1 X54.637 Y60.284 E0.12259
G1 X54.232 Y60.307 E0.1264
G1 X53.933 Y60.272 E0.12923
G1 X53.79 Y59.892 E0.13305
G1 X53.6 Y59.747 E0.1353
G1 X53.393 Y59.666 E0.13739
G1 X53.456 Y59.435 E0.13964
G1 X53.732 Y59.214 E0.14297
G1 X53.768 Y59.029 E0.14474
G1 X53.624 Y58.74 E0.14778
G1 X53.448 Y58.562 E0.15013
G1 X53.328 Y58.147 E0.1542
G1 X53.232 Y58.031 E0.15561
G1 X53.232 Y57.594 E0.15972
G1 X53.271 Y57.54 E0.16035
G1 X53.234 Y57.163 E0.16391
G1 X53.276 Y56.897 E0.16644
G1 X53.16 Y56.203 E0.17306
G1 X53.118 Y56.122 E0.17392
G1 X52.976 Y55.627 E0.17876
G1 X52.953 Y55.119 E0.18355
G1 X52.952 Y54.228 E0.19193
G1 X53.187 Y53.649 E0.1978
G1 X53.252 Y53.145 E0.20258
G1 X53.236 Y53.003 E0.20393
G1 X53.292 Y52.907 E0.20497
G1 X53.459 Y52.257 E0.21128
G1 X53.851 Y51.824 E0.21678
G1 X54.142 Y51.249 E0.22284
G1 X54.193 Y51.069 E0.2246
G1 X54.485 Y50.59 E0.22987
G1 X54.64 Y50.894 E0.23308
G1 X54.72 Y51.402 E0.23792
G1 X54.805 Y51.55 E0.23953
G1 X55.026 Y51.732 E0.24222
G1 X55.378 Y51.914 E0.24595
G1 X55.685 Y51.986 E0.24891
G1 X55.95 Y51.92 E0.25148
G1 X56.239 Y51.765 E0.25456
G1 X56.619 Y51.665 E0.25826
G1 X56.493 Y52.059 E0.26215
G1 X56.265 Y52.391 E0.26594
G1 X56.1 Y52.882 E0.27081
G1 X56.051 Y53.529 E0.27691
G1 X55.96 Y53.65 E0.27834
G1 X55.929 Y53.984 E0.28149
G1 X56.042 Y54.208 E0.28385
G1 X56.337 Y54.374 E0.28703
G1 X56.528 Y54.547 E0.28946
G1 X56.951 Y55.157 E0.29644
G1 X57.113 Y55.547 E0.30041
G1 X57.264 Y56.034 E0.30521
G1 X57.384 Y56.381 E0.30866
G1 X57.364 Y56.512 E0.30991
G1 X57.471 Y57.084 E0.31538
G1 X57.452 Y57.502 E0.31932
G1 X57.515 Y57.733 E0.32157
G1 X57.496 Y58.409 E0.32793
G1 X57.561 Y58.759 E0.33128
G1 X57.771 Y58.92 E0.33377
G0 F3600 X57.969 Y58.943
G0 X57.942 Y59.26
G0 X57.811 Y59.12
;TYPE:SKIN
G1 F1935.5 X59.042 Y59.233 E0.34458
G1 F2307.7 X59.711 Y59.271 E0.34949
G1 F2368.4 X60.508 Y59.249 E0.35519
G1 F1978 X61.171 Y59.174 E0.3609
G1 F1782.2 X61.451 Y59.006 E0.36401
G1 F2195.1 X62.012 Y58.538 E0.36964
G1 F2903.2 X61.89 Y58.815 E0.3714
G1 F2195.1 X61.575 Y59.168 E0.37505
G1 F1782.2 X61.253 Y59.358 E0.37861
G1 F1875 X60.842 Y59.401 E0.38234
G1 F2117.6 X60.118 Y59.418 E0.38813
G1 F2352.9 X59.306 Y59.393 E0.39397
G1 F2057.1 X58.36 Y59.444 E0.40177
G1 F1800 X57.403 Y59.562 E0.41084
G1 X57.162 Y59.717 E0.41353
G1 X56.419 Y59.848 E0.42063
G1 X56.232 Y59.848 E0.42239
G1 X55.033 Y59.976 E0.43373
G1 X54.605 Y60.103 E0.43793
G1 X54.059 Y60.096 E0.44306
G1 X53.949 Y59.806 E0.44598
G1 X53.716 Y59.606 E0.44887
G1 X53.607 Y59.561 E0.44998
G1 X53.857 Y59.341 E0.45311
G1 X53.944 Y59.025 E0.45619
G1 X53.764 Y58.626 E0.46031
G1 X53.617 Y58.475 E0.46229
G1 X53.485 Y58.056 E0.46642
G1 X53.412 Y57.964 E0.46753
G1 X53.412 Y57.641 E0.47056
G1 X53.456 Y57.531 E0.47168
G1 X53.417 Y57.166 E0.47513
G1 X53.456 Y56.874 E0.4779
G1 X53.328 Y56.147 E0.48484
G1 X53.282 Y56.049 E0.48586
G1 X53.132 Y55.525 E0.49099
G1 X53.132 Y54.264 E0.50285
G1 X53.362 Y53.678 E0.50877
G1 X53.45 Y52.991 E0.51528
G1 X53.623 Y52.342 E0.5216
G1 X53.999 Y51.928 E0.52686
G1 X54.472 Y50.974 E0.53688
G1 X54.532 Y51.429 E0.54119
G1 X54.7 Y51.7 E0.54419
G1 X54.958 Y51.902 E0.54727
G1 X55.294 Y52.074 E0.55082
G1 X55.636 Y52.158 E0.55414
G1 X55.998 Y52.091 E0.5576
G1 X56.339 Y51.944 E0.56109
G1 X56.08 Y52.36 E0.5657
G1 X55.916 Y52.869 E0.57073
G1 X55.877 Y53.453 E0.57623
G1 X55.79 Y53.592 E0.57778
G1 X55.754 Y54.033 E0.58194
G1 X55.887 Y54.31 E0.58483
G1 X56.231 Y54.521 E0.58862
G1 X56.384 Y54.663 E0.59059
G1 X56.846 Y55.32 E0.59814
G1 X57.197 Y56.396 E0.60879
G1 X57.184 Y56.525 E0.61001
G1 X57.287 Y57.092 E0.61543
G1 X57.273 Y57.53 E0.61955
G1 X57.331 Y57.752 E0.62171
G1 X57.317 Y58.42 E0.62799
G1 X57.407 Y58.855 E0.63217
G1 X57.811 Y59.12 E0.63671
G0 F3600 X57.8 Y59.248
G0 X54.425 Y59.607
G0 X54.241 Y59.898
M104 S210
G1 F1800 X54.116 Y59.689 E0.639
G1 X53.936 Y59.533 E0.64124
G1 X54.04 Y59.414 E0.64273
G1 X54.529 Y59.903 E0.64923
G1 X54.757 Y59.848 E0.65144
G1 X54.105 Y59.196 E0.66011
G1 X54.144 Y59.068 E0.66137
G1 X54.124 Y58.932 E0.66266
G1 X54.976 Y59.784 E0.67399
G1 X55.231 Y59.756 E0.67641
G1 X53.761 Y58.286 E0.69596
G1 X53.611 Y57.854 E0.70026
G1 X55.485 Y59.728 E0.72519
G1 X55.74 Y59.7 E0.7276
G1 X53.643 Y57.602 E0.7555
G1 X53.632 Y57.309 E0.75826
G1 X55.994 Y59.671 E0.78967
G1 X56.254 Y59.648 E0.79213
G1 X53.635 Y57.03 E0.82696
G1 X53.637 Y56.748 E0.82961
G1 X56.516 Y59.627 E0.8679
G1 X56.757 Y59.586 E0.8702
G1 X53.578 Y56.407 E0.91249
G1 X53.498 Y56.044 E0.91598
G1 X56.998 Y59.543 E0.96253
G1 X57.196 Y59.458 E0.96456
G1 X53.371 Y55.634 E1.01543
G1 X53.332 Y55.312 E1.01848
G1 X57.383 Y59.363 E1.07236
G1 X57.766 Y59.316 E1.07599
G1 X57.356 Y59.053 E1.08057
G1 X53.332 Y55.029 E1.13409
G1 X53.332 Y54.746 E1.13676
G1 X57.143 Y58.558 E1.18745
G1 X57.122 Y58.254 E1.19032
G1 X53.332 Y54.463 E1.24074
G1 X53.365 Y54.214 E1.2431
G1 X57.128 Y57.976 E1.29314
G1 X57.107 Y57.672 E1.29601
G1 X53.445 Y54.011 E1.34471
G1 X53.525 Y53.808 E1.34676
G1 X57.078 Y57.361 E1.39402
G1 X57.083 Y57.083 E1.39664
G1 X53.576 Y53.576 E1.44329
G1 X53.607 Y53.324 E1.44567
G1 X57.02 Y56.737 E1.49107
G1 X56.993 Y56.427 E1.494
G1 X53.638 Y53.073 E1.53861
G1 X53.695 Y52.846 E1.54082
G1 X56.862 Y56.013 E1.58294
G1 X56.726 Y55.594 E1.58708
G1 X53.754 Y52.623 E1.62661
G1 X53.827 Y52.413 E1.6287
G1 X55.632 Y54.217 E1.6527
G0 F3600 X55.313 Y54.353
G0 X55.74 Y54.449
G1 F1800 X55.546 Y54.036 E1.65699
G1 X55.566 Y53.869 E1.65857
G1 X53.962 Y52.265 E1.67991
G1 X54.097 Y52.117 E1.68179
G1 X55.595 Y53.615 E1.70172
G1 X55.608 Y53.499 E1.70282
G1 X55.669 Y53.406 E1.70386
G1 X54.214 Y51.951 E1.72322
G1 X54.307 Y51.761 E1.7252
G1 X55.697 Y53.152 E1.7437
G1 X55.715 Y52.887 E1.7462
G1 X54.952 Y52.124 E1.75635
G1 X55.215 Y52.258 E1.75912
G1 X55.409 Y52.298 E1.76099
G1 X55.774 Y52.663 E1.76584
G1 X55.842 Y52.448 E1.76796
G1 X55.743 Y52.349 E1.76928
G1 X55.884 Y52.315 E1.77064
G0 F3600 X55.676 Y54.028
G0 X56.163 Y54.749
G1 F1800 X56.287 Y54.873 E1.77229
G0 F3600 X56.02 Y55.056
G0 X56.945 Y59.098
G0 X57.356 Y59.053
G1 F1800 X57.635 Y59.332 E1.776
G0 F3600 X56.94 Y59.119
;MESH:NONMESH
G0 F600 X56.94 Y59.119 Z0.7
G0 F3600 X56.893 Y59.128
G0 X57.771 Y58.92
;TIME_ELAPSED:10.295398
;LAYER:1
M106 S255
;TYPE:WALL-OUTER
;MESH:stl/cat_0.0214592x.stl
G1 F1800 X59.015 Y59.068 E1.79171
G1 X59.716 Y59.12 E1.80053
G1 X60.501 Y59.088 E1.81038
G1 X61.083 Y59.018 E1.81773
G1 X61.668 Y58.665 E1.8263
G1 X61.9 Y58.431 E1.83043
G1 X62.211 Y58.319 E1.83458
G1 X62.197 Y58.474 E1.83653
G1 X62.002 Y58.915 E1.84258
G1 X61.918 Y58.968 E1.84382
G1 X61.697 Y59.313 E1.84896
G1 X61.492 Y59.398 E1.85174
G1 X61.304 Y59.534 E1.85465
G1 X60.858 Y59.575 E1.86027
G1 X60.114 Y59.576 E1.8696
G1 X59.319 Y59.548 E1.87957
G1 X58.326 Y59.632 E1.89207
G1 X57.456 Y59.743 E1.90307
G1 X57.237 Y59.889 E1.90637
G1 X56.431 Y60.028 E1.91663
G1 X56.249 Y60.028 E1.91891
G1 X55.053 Y60.156 E1.93399
G1 X54.637 Y60.284 E1.93945
G1 X54.232 Y60.307 E1.94454
G1 X53.933 Y60.272 E1.94831
G1 X53.79 Y59.892 E1.95341
G1 X53.6 Y59.747 E1.9564
G1 X53.393 Y59.666 E1.95919
G1 X53.456 Y59.435 E1.96219
G1 X53.732 Y59.214 E1.96663
G1 X53.768 Y59.029 E1.96899
G1 X53.624 Y58.74 E1.97304
G1 X53.448 Y58.562 E1.97618
G1 X53.328 Y58.147 E1.9816
G1 X53.232 Y58.031 E1.98348
G1 X53.232 Y57.594 E1.98896
G1 X53.271 Y57.54 E1.9898
G1 X53.234 Y57.163 E1.99455
G1 X53.276 Y56.897 E1.99793
G1 X53.16 Y56.203 E2.00675
G1 X53.118 Y56.122 E2.0079
G1 X52.976 Y55.627 E2.01435
G1 X52.953 Y55.119 E2.02073
G1 X52.952 Y54.228 E2.0319
G1 X53.187 Y53.649 E2.03974
G1 X53.252 Y53.145 E2.04611
G1 X53.236 Y53.003 E2.0479
G1 X53.292 Y52.907 E2.0493
G1 X53.459 Y52.257 E2.05771
G1 X53.851 Y51.824 E2.06504
G1 X54.142 Y51.249 E2.07312
G1 X54.193 Y51.069 E2.07547
G1 X54.485 Y50.59 E2.0825
G1 X54.64 Y50.894 E2.08678
G1 X54.72 Y51.402 E2.09323
G1 X54.805 Y51.55 E2.09537
G1 X55.026 Y51.732 E2.09896
G1 X55.378 Y51.914 E2.10393
G1 X55.685 Y51.986 E2.10788
G1 X55.95 Y51.92 E2.11131
G1 X56.239 Y51.765 E2.11542
G1 X56.619 Y51.665 E2.12035
G1 X56.493 Y52.059 E2.12554
G1 X56.265 Y52.391 E2.13059
G1 X56.1 Y52.882 E2.13708
G1 X56.051 Y53.529 E2.14522
G1 X55.96 Y53.65 E2.14712
G1 X55.929 Y53.984 E2.15132
G1 X56.042 Y54.208 E2.15447
G1 X56.337 Y54.374 E2.15872
G1 X56.528 Y54.547 E2.16195
G1 X56.951 Y55.157 E2.17126
G1 X57.113 Y55.547 E2.17655
G1 X57.264 Y56.034 E2.18295
G1 X57.384 Y56.381 E2.18755
G1 X57.364 Y56.512 E2.18921
G1 X57.471 Y57.084 E2.19651
G1 X57.452 Y57.502 E2.20176
G1 X57.515 Y57.733 E2.20476
G1 X57.496 Y58.409 E2.21324
G1 X57.561 Y58.759 E2.2177
G1 X57.771 Y58.92 E2.22102
M204 S4000
M205 X25 Y25
G0 F5400 X57.969 Y58.943
G0 X57.942 Y59.26
G0 X57.811 Y59.12
M204 S3000
M205 X20 Y20
;TYPE:SKIN
G1 F1935.5 X59.042 Y59.233 E2.23544
G1 F2307.7 X59.711 Y59.271 E2.24199
G1 F2368.4 X60.508 Y59.249 E2.24959
G1 F1978 X61.171 Y59.174 E2.25721
G1 F1782.2 X61.451 Y59.006 E2.26134
G1 F2195.1 X62.012 Y58.538 E2.26886
G1 F2903.2 X61.89 Y58.815 E2.27121
G1 F2195.1 X61.575 Y59.168 E2.27607
G1 F1782.2 X61.253 Y59.358 E2.28081
G1 F1875 X60.842 Y59.401 E2.28578
G1 F2117.6 X60.118 Y59.418 E2.2935
G1 F2352.9 X59.306 Y59.393 E2.3013
G1 F2057.1 X58.36 Y59.444 E2.31169
G1 F1800 X57.403 Y59.562 E2.32379
G1 X57.162 Y59.717 E2.32738
G1 X56.419 Y59.848 E2.33684
G1 X56.232 Y59.848 E2.33918
G1 X55.033 Y59.976 E2.35431
G1 X54.605 Y60.103 E2.3599
G1 X54.059 Y60.096 E2.36675
G1 X53.949 Y59.806 E2.37064
G1 X53.716 Y59.606 E2.37449
G1 X53.607 Y59.561 E2.37597
G1 X53.857 Y59.341 E2.38015
G1 X53.944 Y59.025 E2.38426
G1 X53.764 Y58.626 E2.38975
G1 X53.617 Y58.475 E2.39239
G1 X53.485 Y58.056 E2.3979
G1 X53.412 Y57.964 E2.39937
G1 X53.412 Y57.641 E2.40342
G1 X53.456 Y57.531 E2.40491
G1 X53.417 Y57.166 E2.40951
G1 X53.456 Y56.874 E2.41321
G1 X53.328 Y56.147 E2.42246
G1 X53.282 Y56.049 E2.42382
G1 X53.132 Y55.525 E2.43065
G1 X53.132 Y54.264 E2.44647
G1 X53.362 Y53.678 E2.45436
G1 X53.45 Y52.991 E2.46305
G1 X53.623 Y52.342 E2.47147
G1 X53.999 Y51.928 E2.47848
G1 X54.472 Y50.974 E2.49184
G1 X54.532 Y51.429 E2.49759
G1 X54.7 Y51.7 E2.50159
G1 X54.958 Y51.902 E2.5057
G1 X55.294 Y52.074 E2.51043
G1 X55.636 Y52.158 E2.51485
G1 X55.998 Y52.091 E2.51947
G1 X56.339 Y51.944 E2.52412
G1 X56.08 Y52.36 E2.53027
G1 X55.916 Y52.869 E2.53698
G1 X55.877 Y53.453 E2.54432
G1 X55.79 Y53.592 E2.54637
G1 X55.754 Y54.033 E2.55192
G1 X55.887 Y54.31 E2.55577
G1 X56.231 Y54.521 E2.56083
G1 X56.384 Y54.663 E2.56345
G1 X56.846 Y55.32 E2.57352
G1 X57.197 Y56.396 E2.58772
G1 X57.184 Y56.525 E2.58934
G1 X57.287 Y57.092 E2.59657
G1 X57.273 Y57.53 E2.60207
G1 X57.331 Y57.752 E2.60494
G1 X57.317 Y58.42 E2.61332
G1 X57.407 Y58.855 E2.61889
G1 X57.811 Y59.12 E2.62495
M204 S4000
M205 X25 Y25
G0 F5400 X57.8 Y59.248
G0 X58.658 Y59.287
M204 S3000
M205 X20 Y20
G1 F1800 X58.611 Y59.335 E2.62579
M204 S4000
M205 X25 Y25
G0 F5400 X58.609 Y59.303
G0 X58.396 Y59.267
M204 S3000
M205 X20 Y20
G1 F1800 X58.314 Y59.349 E2.62725
M204 S4000
M205 X25 Y25
G0 F5400 X58.313 Y59.328
G0 X58.133 Y59.246
M204 S3000
M205 X20 Y20
G1 F1800 X57.991 Y59.389 E2.62978
M204 S4000
M205 X25 Y25
G0 F5400 X57.99 Y59.365
G0 X57.872 Y59.225
M204 S3000
M205 X20 Y20
G1 F1800 X57.667 Y59.429 E2.6334
M204 S4000
M205 X25 Y25
G0 F5400 X57.665 Y59.403
G0 X57.432 Y59.382
M204 S3000
M205 X20 Y20
G1 F1800 X57.676 Y59.138 E2.63773
M204 S4000
M205 X25 Y25
G0 F5400 X57.628 Y59.2
G0 X57.503 Y59.028
M204 S3000
M205 X20 Y20
G1 F1800 X57.38 Y59.152 E2.63992
G1 X57.379 Y59.152
G1 X56.863 Y59.668 E2.64907
M204 S4000
M205 X25 Y25
G0 F5400 X56.792 Y59.247
G0 X56.52 Y59.729
M204 S3000
M205 X20 Y20
G1 F1800 X57.327 Y58.921 E2.66339
M204 S4000
M205 X25 Y25
G0 F5400 X57.061 Y59.266
G0 X57.275 Y58.691
M204 S3000
M205 X20 Y20
G1 F1800 X56.218 Y59.748 E2.68214
M204 S4000
M205 X25 Y25
G0 F5400 X56.174 Y59.324
G0 X55.9 Y59.783
M204 S3000
M205 X20 Y20
G1 F1800 X57.223 Y58.46 E2.7056
M204 S4000
M205 X25 Y25
G0 F5400 X56.795 Y58.523
G0 X57.223 Y58.177
M204 S3000
M205 X20 Y20
G1 F1800 X55.582 Y59.818 E2.7347
M204 S4000
M205 X25 Y25
G0 F5400 X55.537 Y59.393
G0 X55.264 Y59.853
M204 S3000
M205 X20 Y20
G1 F1800 X57.228 Y57.889 E2.76953
M204 S4000
M205 X25 Y25
G0 F5400 X56.803 Y57.875
G0 X57.199 Y57.635
M204 S3000
M205 X20 Y20
G1 F1800 X54.935 Y59.899 E2.80969
G1 X54.907 Y59.927
M204 S4000
M205 X25 Y25
G0 F5400 X54.773 Y59.501
G0 X54.548 Y60.003
M204 S3000
M205 X20 Y20
G1 F1800 X57.177 Y57.375 E2.8563
M204 S4000
M205 X25 Y25
G0 F5400 X56.751 Y57.352
G0 X57.184 Y57.084
M204 S3000
M205 X20 Y20
G1 F1800 X54.27 Y59.999 E2.90799
M204 S4000
M205 X25 Y25
G0 F5400 X54.425 Y59.607
G0 X54.089 Y59.896
M204 S3000
M205 X20 Y20
G1 F1800 X57.141 Y56.845 E2.96211
M204 S4000
M205 X25 Y25
G0 F5400 X56.722 Y56.922
G0 X57.097 Y56.606
M204 S3000
M205 X20 Y20
G1 F1800 X53.99 Y59.713 E3.01721
M204 S4000
M205 X25 Y25
G0 F5400 X54.425 Y59.552
G0 X53.838 Y59.582
M204 S3000
M205 X20 Y20
G1 F1800 X57.074 Y56.346 E3.0746
M204 S4000
M205 X25 Y25
G0 F5400 X56.66 Y56.446
G0 X57.005 Y56.132
M204 S3000
M205 X20 Y20
G1 F1800 X54.027 Y59.11 E3.12741
M204 S4000
M205 X25 Y25
G0 F5400 X54.464 Y59.185
G0 X53.989 Y58.865
M204 S3000
M205 X20 Y20
G1 F1800 X56.936 Y55.919 E3.17967
M204 S4000
M205 X25 Y25
G0 F5400 X56.525 Y56.044
G0 X56.866 Y55.705
M204 S3000
M205 X20 Y20
G1 F1800 X53.898 Y58.674 E3.23231
M204 S4000
M205 X25 Y25
G0 F5400 X54.281 Y58.466
G0 X53.784 Y58.505
M204 S3000
M205 X20 Y20
G1 F1800 X56.797 Y55.492 E3.28575
M204 S4000
M205 X25 Y25
G0 F5400 X56.393 Y55.66
G0 X56.709 Y55.297
M204 S3000
M205 X20 Y20
G1 F1800 X53.676 Y58.329 E3.33953
M204 S4000
M205 X25 Y25
G0 F5400 X54.095 Y58.18
G0 X53.607 Y58.116
M204 S3000
M205 X20 Y20
G1 F1800 X56.591 Y55.132 E3.39245
M204 S4000
M205 X25 Y25
G0 F5400 X56.239 Y55.374
G0 X56.474 Y54.966
M204 S3000
M205 X20 Y20
G1 F1800 X53.512 Y57.928 E3.44498
M204 S4000
M205 X25 Y25
G0 F5400 X53.959 Y57.834
G0 X53.524 Y57.633
M204 S3000
M205 X20 Y20
G1 F1800 X56.358 Y54.799 E3.49524
M204 S4000
M205 X25 Y25
G0 F5400 X56.008 Y55.039
G0 X56.214 Y54.661
M204 S3000
M205 X20 Y20
G1 F1800 X53.534 Y57.34 E3.54276
M204 S4000
M205 X25 Y25
G0 F5400 X53.965 Y57.287
G0 X53.531 Y57.061
M204 S3000
M205 X20 Y20
G1 F1800 X56.047 Y54.544 E3.58739
M204 S4000
M205 X25 Y25
G0 F5400 X55.839 Y54.906
G0 X55.881 Y54.427
M204 S3000
M205 X20 Y20
G1 F1800 X53.539 Y56.769 E3.62893
M204 S4000
M205 X25 Y25
G0 F5400 X53.962 Y56.703
G0 X53.498 Y56.528
M204 S3000
M205 X20 Y20
