;FLAVOR:Marlin
;TIME:6666
;Filament used: 0m
;Layer height: 0.4
;MINX:2.14748e+06
;MINY:2.14748e+06
;MINZ:2.14748e+06
;MAXX:-2.14748e+06
;MAXY:-2.14748e+06
;MAXZ:-2.14748e+06
;TARGET_MACHINE.NAME:Pather

;Generated with Cura_SteamEngine 5.9.1
M104 S215
M105
M109 S215
M82 ;absolute extrusion mode
G28 ;Home
G1 Z15.0 F6000 ;Move the platform down 15mm
;Prime the extruder
G92 E0
G1 F200 E3
G92 E0
G92 E0
G92 E0
G1 F1500 E-6.5
;LAYER_COUNT:25
;LAYER:0
M107
M204 S3000
M205 X20 Y20
;MESH:stl/cat_0.0215054x.stl
G0 F3600 X57.715 Y58.883 Z0.3
;TYPE:WALL-OUTER
G1 F1500 E0
G1 F1800 X58.359 Y58.905 E0.0003
G1 X59.151 Y59.001 E0.00068
G1 X59.699 Y59.037 E0.00094
G1 X60.664 Y59.037 E0.00139
G1 X61.054 Y58.949 E0.00158
G1 X61.507 Y58.689 E0.00182
G1 X61.658 Y58.629 E0.0019
G1 X61.939 Y58.325 E0.00209
G1 X62.235 Y58.198 E0.00225
G1 X62.339 Y58.279 E0.00231
G1 X62.358 Y58.49 E0.00241
G1 X62.1 Y58.984 E0.00267
G1 X62.016 Y59.048 E0.00272
G1 X61.78 Y59.411 E0.00292
G1 X61.566 Y59.499 E0.00303
G1 X61.543 Y59.564 E0.00306
G1 X61.414 Y59.627 E0.00313
G1 X61.035 Y59.691 E0.00331
G1 X60.197 Y59.691 E0.00371
G1 X59.973 Y59.671 E0.00381
G1 X59.027 Y59.691 E0.00426
G1 X58.474 Y59.755 E0.00452
G1 X57.755 Y59.823 E0.00486
G1 X57.418 Y59.907 E0.00502
G1 X57.372 Y59.995 E0.00507
G1 X56.455 Y60.143 E0.00551
G1 X56.272 Y60.143 E0.00559
G1 X55.683 Y60.215 E0.00587
G1 X55.487 Y60.251 E0.00596
G1 X54.967 Y60.295 E0.00621
G1 X54.495 Y60.422 E0.00644
G1 X53.862 Y60.375 E0.00674
G1 X53.877 Y60.273 E0.00679
G1 X53.657 Y59.909 E0.00699
G1 X53.317 Y59.76 E0.00716
G1 X53.294 Y59.675 E0.0072
G1 X53.337 Y59.463 E0.0073
G1 X53.701 Y59.139 E0.00753
G1 X53.529 Y58.769 E0.00773
G1 X53.401 Y58.661 E0.0078
G1 X53.209 Y58.126 E0.00807
G1 X53.122 Y58.062 E0.00812
G1 X53.165 Y57.934 E0.00819
G1 X53.146 Y57.613 E0.00834
G1 X53.185 Y57.446 E0.00842
G1 X53.146 Y57.205 E0.00853
G1 X53.21 Y56.923 E0.00867
G1 X53.141 Y56.722 E0.00877
G1 X53.037 Y56.163 E0.00904
G1 X52.865 Y55.579 E0.00932
G1 X52.865 Y54.217 E0.00996
G1 X52.929 Y53.958 E0.01009
G1 X53.121 Y53.591 E0.01028
G1 X53.145 Y52.99 E0.01057
G1 X53.229 Y52.839 E0.01065
G1 X53.229 Y52.753 E0.01069
G1 X53.377 Y52.239 E0.01094
G1 X53.528 Y52 E0.01107
G1 X53.788 Y51.764 E0.01124
G1 X53.981 Y51.423 E0.01142
G1 X54.241 Y50.775 E0.01175
G1 X54.456 Y50.477 E0.01192
G1 X54.515 Y50.458 E0.01195
G1 X54.576 Y50.496 E0.01199
G1 X54.729 Y50.821 E0.01215
G1 X54.779 Y50.833 E0.01218
G1 X54.748 Y50.92 E0.01222
G1 X54.811 Y51.377 E0.01244
G1 X54.895 Y51.527 E0.01252
G1 X55.437 Y51.833 E0.01281
G1 X55.694 Y51.897 E0.01294
G1 X55.894 Y51.853 E0.01303
G1 X56.222 Y51.677 E0.01321
G1 X56.681 Y51.55 E0.01343
G1 X56.746 Y51.657 E0.01349
G1 X56.599 Y52.081 E0.0137
G1 X56.424 Y52.384 E0.01387
G1 X56.361 Y52.423 E0.0139
G1 X56.211 Y52.922 E0.01415
G1 X56.168 Y53.484 E0.01441
G1 X56.228 Y53.547 E0.01445
G1 X56.105 Y53.627 E0.01452
G1 X56.035 Y53.781 E0.0146
G1 X56.06 Y54.068 E0.01474
G1 X56.312 Y54.236 E0.01488
G1 X56.812 Y54.716 E0.01521
G1 X57.107 Y55.243 E0.01549
G1 X57.283 Y55.678 E0.01571
G1 X57.327 Y56.001 E0.01586
G1 X57.498 Y56.365 E0.01605
G1 X57.475 Y56.515 E0.01612
G1 X57.582 Y57.089 E0.0164
G1 X57.563 Y57.543 E0.01661
G1 X57.626 Y57.741 E0.01671
G1 X57.607 Y57.927 E0.0168
G1 X57.607 Y58.688 E0.01716
G1 X57.715 Y58.883 E0.01726
G0 F3600 X57.915 Y58.889
G0 X57.719 Y58.867
;TYPE:SKIN
G1 F1800 X58.355 Y58.893 E0.01756
G1 X59.147 Y58.989 E0.01793
G1 X59.703 Y59.025 E0.0182
G1 X60.656 Y59.025 E0.01865
G1 X61.054 Y58.937 E0.01884
G1 X61.495 Y58.681 E0.01908
G1 X61.65 Y58.621 E0.01915
G1 X61.931 Y58.313 E0.01935
G1 X62.235 Y58.186 E0.01951
G1 X62.347 Y58.271 E0.01957
G1 X62.366 Y58.49 E0.01968
G1 X62.104 Y58.988 E0.01994
G1 X62.024 Y59.052 E0.01999
G1 X61.784 Y59.419 E0.02019
G1 X61.574 Y59.503 E0.0203
G1 X61.548 Y59.568 E0.02033
G1 X61.414 Y59.635 E0.0204
G1 X61.039 Y59.699 E0.02058
G1 X60.201 Y59.699 E0.02098
G1 X59.969 Y59.679 E0.02109
G1 X59.023 Y59.699 E0.02153
G1 X57.75 Y59.835 E0.02213
G1 X57.426 Y59.911 E0.02229
G1 X57.376 Y60.003 E0.02234
G1 X56.459 Y60.15 E0.02278
G1 X56.268 Y60.151 E0.02287
G1 X55.687 Y60.222 E0.02314
G1 X55.491 Y60.259 E0.02323
G1 X54.967 Y60.303 E0.02348
G1 X54.499 Y60.43 E0.02371
G1 X53.85 Y60.383 E0.02402
G1 X53.865 Y60.269 E0.02407
G1 X53.649 Y59.917 E0.02426
G1 X53.305 Y59.764 E0.02444
G1 X53.282 Y59.675 E0.02448
G1 X53.329 Y59.459 E0.02459
G1 X53.686 Y59.124 E0.02482
G1 X53.521 Y58.777 E0.025
G1 X53.393 Y58.665 E0.02508
G1 X53.197 Y58.13 E0.02535
G1 X53.11 Y58.066 E0.0254
G1 X53.153 Y57.938 E0.02546
G1 X53.134 Y57.613 E0.02561
G1 X53.173 Y57.45 E0.02569
G1 X53.134 Y57.205 E0.02581
G1 X53.197 Y56.922 E0.02595
G1 X53.129 Y56.718 E0.02605
G1 X53.025 Y56.159 E0.02632
G1 X52.853 Y55.579 E0.0266
G1 X52.853 Y54.217 E0.02724
G1 X52.921 Y53.95 E0.02737
G1 X53.109 Y53.587 E0.02756
G1 X53.161 Y52.945 E0.02786
G1 X53.365 Y52.235 E0.02821
G1 X53.52 Y51.992 E0.02835
G1 X53.78 Y51.756 E0.02851
G1 X53.969 Y51.427 E0.02869
G1 X54.233 Y50.763 E0.02903
G1 X54.448 Y50.469 E0.0292
G1 X54.515 Y50.446 E0.02923
G1 X54.584 Y50.488 E0.02927
G1 X54.727 Y50.818 E0.02944
G1 X54.8 Y50.881 E0.02948
G1 X54.759 Y50.922 E0.02951
G1 X54.819 Y51.375 E0.02973
G1 X54.903 Y51.519 E0.02981
G1 X55.437 Y51.821 E0.03009
G1 X55.686 Y51.885 E0.03021
G1 X55.894 Y51.841 E0.03031
G1 X56.222 Y51.665 E0.03049
G1 X56.685 Y51.538 E0.03072
G1 X56.758 Y51.657 E0.03078
G1 X56.607 Y52.077 E0.03099
G1 X56.369 Y52.431 E0.03119
G1 X56.219 Y52.918 E0.03143
G1 X56.18 Y53.48 E0.0317
G1 X56.24 Y53.546 E0.03174
G1 X56.113 Y53.627 E0.03181
G1 X56.043 Y53.777 E0.03189
G1 X56.068 Y54.06 E0.03202
G1 X56.316 Y54.224 E0.03216
G1 X56.819 Y54.708 E0.03249
G1 X57.111 Y55.231 E0.03277
G1 X57.291 Y55.674 E0.03299
G1 X57.335 Y55.997 E0.03315
G1 X57.506 Y56.365 E0.03334
G1 X57.483 Y56.511 E0.03341
G1 X57.59 Y57.085 E0.03368
G1 X57.571 Y57.539 E0.0339
G1 X57.634 Y57.741 E0.034
G1 X57.615 Y57.931 E0.03409
G1 X57.615 Y58.68 E0.03444
G1 X57.719 Y58.867 E0.03454
G1 F1500 E-6.46546
G0 F3600 X58.266 Y58.246
G0 X58.189 Y56.263
G0 X57.294 Y55.767
G0 X57.296 Y55.783
G1 F1500 E0.03454
G1 F1800 X53.522 Y52.008 E0.03705
G1 X57.294 Y55.767 E0.03955
G1 X57.296 Y55.783 E0.03956
G0 F3600 X57.335 Y56.02
G1 F1800 X53.445 Y52.129 E0.04215
G1 X57.325 Y55.996 E0.04472
G1 X57.325 Y55.999 E0.04473
G1 X57.335 Y56.02 E0.04474
G1 F1500 E-6.45526
G0 F3600 X57.978 Y55.81
G0 X57.418 Y54.424
G0 X56.116 Y53.613
G1 F1500 E0.04474
G1 F1800 X53.956 Y51.467 E0.04617
G1 X53.961 Y51.458 E0.04617
G1 X56.116 Y53.613 E0.04761
G1 F1500 E-6.45239
G0 F3600 X56.854 Y53.229
G0 X57.479 Y51.582
G0 X55.486 Y51.11
G0 X54.799 Y51.306
G1 F1500 E0.04761
G1 F1800 X54.249 Y50.755 E0.04797
G1 X54.797 Y51.29 E0.04833
G1 X54.799 Y51.306 E0.04834
G0 F3600 X54.781 Y51.175
G1 F1800 X54.297 Y50.69 E0.04866
G1 X54.779 Y51.158 E0.04898
G1 X54.781 Y51.175 E0.04899
G0 F3600 X54.777 Y51.142
G1 F1800 X54.309 Y50.674 E0.0493
G1 X54.775 Y51.126 E0.0496
G1 X54.777 Y51.142 E0.04961
G0 F3600 X54.763 Y51.044
G1 F1800 X54.345 Y50.625 E0.04989
G1 X54.76 Y51.027 E0.05016
G1 X54.763 Y51.044 E0.05017
G0 F3600 X54.765 Y50.905
G1 F1800 X54.398 Y50.552 E0.05041
G1 X54.404 Y50.543 E0.05041
G1 X54.765 Y50.905 E0.05065
G1 F1500 E-6.44935
G0 F3600 X55.486 Y51.11
G0 X56.994 Y50.784
G0 X62.974 Y57.938
G0 X62.852 Y59
G0 X62.252 Y58.688
G1 F1500 E0.05065
G1 F1800 X62.247 Y58.697 E0.05066
G1 X61.905 Y58.355 E0.05089
G1 X62.252 Y58.688 E0.05111
G0 F3600 X62.174 Y58.836
G1 F1800 X62.169 Y58.845 E0.05112
G1 X61.797 Y58.473 E0.05136
G1 X62.174 Y58.836 E0.05161
G0 F3600 X61.993 Y59.123
G1 F1800 X61.537 Y58.681 E0.05191
G1 X61.547 Y58.676 E0.05191
G1 X61.993 Y59.123 E0.05221
G0 F3600 X61.945 Y59.188
G1 F1800 X61.462 Y58.718 E0.05253
G1 X61.471 Y58.713 E0.05253
G1 X61.945 Y59.188 E0.05285
G0 F3600 X61.897 Y59.253
G1 F1800 X61.39 Y58.759 E0.05318
G1 X61.399 Y58.754 E0.05319
G1 X61.897 Y59.253 E0.05352
G0 F3600 X61.812 Y59.366
G1 F1800 X61.263 Y58.831 E0.05388
G1 X61.272 Y58.826 E0.05388
G1 X61.812 Y59.366 E0.05424
G1 F1500 E-6.44576
G0 F3600 X62.098 Y60.005
G0 X54.558 Y61.1
G0 X53.862 Y60.373
G1 F1500 E0.05424
G1 F1800 X53.898 Y60.375 E0.05426
G1 X53.866 Y60.329 E0.05429
G1 X53.928 Y60.377 E0.05432
G1 X53.869 Y60.303 E0.05437
G1 X53.959 Y60.38 E0.05442
G1 X53.872 Y60.278 E0.05449
G1 X53.99 Y60.382 E0.05456
G1 X53.853 Y60.231 E0.05466
G1 X54.02 Y60.384 E0.05476
G1 X53.807 Y60.157 E0.05491
G1 X54.051 Y60.386 E0.05507
G1 X53.761 Y60.083 E0.05526
G1 X54.081 Y60.388 E0.05547
G1 X53.716 Y60.009 E0.05572
G1 X54.096 Y60.39 E0.05597
G1 X54.111 Y60.39 E0.05598
G1 X53.693 Y59.973 E0.05626
G1 X53.67 Y59.935 E0.05628
G1 X54.127 Y60.392 E0.05658
G1 X54.142 Y60.393 E0.05659
G1 X53.316 Y59.567 E0.05714
G1 X53.318 Y59.555 E0.05714
G1 X54.157 Y60.394 E0.0577
G1 X54.173 Y60.395 E0.05771
G1 X53.321 Y59.543 E0.05828
G1 X53.324 Y59.532 E0.05828
G1 X54.188 Y60.396 E0.05886
G1 X54.203 Y60.398 E0.05886
G1 X53.326 Y59.52 E0.05945
G1 X53.329 Y59.509 E0.05945
G1 X54.219 Y60.399 E0.06004
G1 X54.234 Y60.4 E0.06005
G1 X53.331 Y59.497 E0.06065
G1 X53.334 Y59.486 E0.06066
G1 X54.249 Y60.401 E0.06127
G1 X54.264 Y60.402 E0.06127
G1 X53.336 Y59.474 E0.06189
G1 X53.341 Y59.464 E0.06189
G1 X54.28 Y60.403 E0.06252
G1 X54.294 Y60.404 E0.06253
G1 X53.348 Y59.457 E0.06316
G1 X53.355 Y59.45 E0.06316
G1 X54.31 Y60.405 E0.06379
G1 X54.326 Y60.407 E0.0638
G1 X53.362 Y59.443 E0.06444
G1 X53.369 Y59.436 E0.06445
G1 X54.34 Y60.407 E0.06509
G1 X54.356 Y60.409 E0.0651
G1 X53.377 Y59.429 E0.06575
G1 X53.384 Y59.422 E0.06576
G1 X54.371 Y60.41 E0.06641
G1 X54.386 Y60.411 E0.06642
G1 X53.391 Y59.415 E0.06708
G1 X53.398 Y59.408 E0.06709
G1 X54.402 Y60.412 E0.06776
G1 X54.417 Y60.413 E0.06776
G1 X53.406 Y59.402 E0.06844
G1 X53.413 Y59.395 E0.06844
G1 X54.432 Y60.414 E0.06912
G1 X54.447 Y60.415 E0.06912
G1 X53.42 Y59.388 E0.06981
G1 X53.427 Y59.381 E0.06981
G1 X54.463 Y60.417 E0.0705
G1 X54.478 Y60.417 E0.07051
G1 X53.435 Y59.374 E0.0712
G1 X53.442 Y59.367 E0.07121
G1 X54.493 Y60.419 E0.07191
G1 X54.506 Y60.417 E0.07191
G1 X53.449 Y59.36 E0.07262
G1 X53.456 Y59.353 E0.07262
G1 X54.517 Y60.414 E0.07333
G1 X54.528 Y60.411 E0.07333
G1 X53.464 Y59.347 E0.07404
G1 X53.471 Y59.34 E0.07404
G1 X54.539 Y60.408 E0.07475
G1 X54.55 Y60.405 E0.07476
G1 X53.478 Y59.333 E0.07547
G1 X53.485 Y59.326 E0.07548
G1 X54.561 Y60.402 E0.07619
G1 X54.572 Y60.399 E0.0762
G1 X53.493 Y59.319 E0.07692
G1 X53.5 Y59.312 E0.07692
G1 X54.584 Y60.396 E0.07764
G1 X54.594 Y60.393 E0.07765
G1 X53.507 Y59.305 E0.07837
G1 X53.514 Y59.298 E0.07837
G1 X54.606 Y60.39 E0.0791
G1 X54.617 Y60.387 E0.07911
G1 X53.522 Y59.292 E0.07983
G1 X53.529 Y59.285 E0.07984
G1 X54.628 Y60.384 E0.08057
G1 X54.639 Y60.381 E0.08057
G1 X53.536 Y59.277 E0.08131
G1 X53.543 Y59.27 E0.08131
G1 X54.65 Y60.378 E0.08205
G1 X54.661 Y60.375 E0.08205
G1 X53.551 Y59.264 E0.08279
G1 X53.558 Y59.257 E0.0828
G1 X54.673 Y60.372 E0.08354
G1 X54.683 Y60.369 E0.08354
G1 X53.565 Y59.25 E0.08429
G1 X53.572 Y59.243 E0.08429
G1 X54.695 Y60.366 E0.08504
G1 X54.706 Y60.363 E0.08505
G1 X53.58 Y59.236 E0.08579
G1 X53.587 Y59.229 E0.0858
G1 X54.717 Y60.36 E0.08655
G1 X54.728 Y60.357 E0.08656
G1 X53.594 Y59.222 E0.08731
G1 X53.601 Y59.215 E0.08732
G1 X54.739 Y60.354 E0.08807
G1 X54.751 Y60.351 E0.08808
G1 X53.609 Y59.209 E0.08884
G1 X53.616 Y59.202 E0.08884
G1 X54.761 Y60.347 E0.0896
G1 X54.772 Y60.344 E0.08961
G1 X53.623 Y59.195 E0.09037
G1 X53.63 Y59.188 E0.09038
G1 X54.784 Y60.342 E0.09115
G1 X54.795 Y60.339 E0.09115
G1 X53.637 Y59.181 E0.09192
G1 X53.645 Y59.174 E0.09193
G1 X54.806 Y60.335 E0.0927
G1 X54.817 Y60.332 E0.0927
G1 X53.652 Y59.167 E0.09348
G1 X53.659 Y59.16 E0.09348
G1 X54.828 Y60.33 E0.09426
G1 X54.84 Y60.327 E0.09427
G1 X53.666 Y59.153 E0.09505
G1 X53.674 Y59.147 E0.09505
G1 X54.85 Y60.323 E0.09583
G1 X54.862 Y60.32 E0.09584
G1 X53.681 Y59.14 E0.09663
G1 X53.688 Y59.133 E0.09663
G1 X54.873 Y60.318 E0.09742
G1 X54.884 Y60.315 E0.09742
G1 X53.697 Y59.123 E0.09821
G1 X53.688 Y59.104 E0.09822
G1 X54.895 Y60.311 E0.09903
G1 X54.906 Y60.308 E0.09903
G1 X53.675 Y59.077 E0.09985
G1 X53.662 Y59.05 E0.09987
G1 X54.917 Y60.306 E0.1007
G1 X54.929 Y60.303 E0.10071
G1 X53.649 Y59.023 E0.10156
G1 X53.636 Y58.996 E0.10157
G1 X54.939 Y60.299 E0.10244
G1 X54.951 Y60.296 E0.10244
G1 X53.623 Y58.969 E0.10333
G1 X53.611 Y58.942 E0.10334
G1 X54.962 Y60.294 E0.10424
G1 X54.974 Y60.291 E0.10425
G1 X53.598 Y58.915 E0.10516
G1 X53.585 Y58.889 E0.10517
G1 X54.987 Y60.291 E0.10611
G1 X55 Y60.289 E0.10611
G1 X53.572 Y58.861 E0.10706
G1 X53.559 Y58.834 E0.10708
G1 X55.014 Y60.289 E0.10804
G1 X55.026 Y60.287 E0.10805
G1 X53.546 Y58.807 E0.10903
G1 X53.534 Y58.78 E0.10905
G1 X55.04 Y60.287 E0.11005
G1 X55.053 Y60.285 E0.11006
G1 X53.387 Y58.619 E0.11116
G1 X53.379 Y58.597 E0.11117
G1 X55.066 Y60.284 E0.1123
G1 X55.079 Y60.283 E0.1123
G1 X53.37 Y58.575 E0.11344
G1 X53.362 Y58.552 E0.11345
G1 X55.092 Y60.282 E0.1146
G1 X55.105 Y60.281 E0.11461
G1 X53.354 Y58.53 E0.11577
G1 X53.346 Y58.507 E0.11578
G1 X55.118 Y60.279 E0.11696
G1 X55.131 Y60.279 E0.11697
G1 X53.337 Y58.485 E0.11816
G1 X53.329 Y58.462 E0.11817
G1 X55.144 Y60.277 E0.11938
G1 X55.157 Y60.277 E0.11939
G1 X53.321 Y58.44 E0.12061
G1 X53.312 Y58.418 E0.12062
G1 X55.17 Y60.275 E0.12185
G1 X55.183 Y60.274 E0.12186
G1 X53.304 Y58.395 E0.12311
G1 X53.296 Y58.373 E0.12312
G1 X55.196 Y60.273 E0.12438
G1 X55.209 Y60.272 E0.12439
G1 X53.288 Y58.35 E0.12567
G1 X53.279 Y58.328 E0.12568
G1 X55.222 Y60.271 E0.12697
G1 X55.235 Y60.27 E0.12698
G1 X53.271 Y58.306 E0.12828
G1 X53.263 Y58.283 E0.1283
G1 X55.248 Y60.269 E0.12962
G1 X55.261 Y60.267 E0.12962
G1 X53.254 Y58.261 E0.13096
G1 X53.246 Y58.238 E0.13097
G1 X55.275 Y60.267 E0.13232
G1 X55.287 Y60.265 E0.13232
G1 X53.238 Y58.216 E0.13369
G1 X53.23 Y58.193 E0.1337
G1 X55.301 Y60.265 E0.13507
G1 X55.313 Y60.263 E0.13508
G1 X53.221 Y58.171 E0.13647
G1 X53.213 Y58.149 E0.13648
G1 X55.327 Y60.262 E0.13789
G1 X55.34 Y60.261 E0.13789
G1 X53.203 Y58.122 E0.13932
G0 F3600 X53.138 Y58.074
G1 F1800 X53.192 Y58.114 E0.13935
G1 X53.13 Y58.037 E0.13939
G1 X55.353 Y60.26 E0.14087
G1 X55.366 Y60.259 E0.14088
G1 X53.133 Y58.027 E0.14236
G1 X53.137 Y58.016 E0.14237
G1 X55.378 Y60.258 E0.14386
G1 X55.392 Y60.257 E0.14387
G1 X53.14 Y58.005 E0.14536
G1 X53.144 Y57.995 E0.14537
G1 X55.405 Y60.255 E0.14687
G1 X55.418 Y60.255 E0.14688
G1 X53.148 Y57.984 E0.14839
G1 X53.151 Y57.974 E0.14839
G1 X55.431 Y60.253 E0.14991
G1 X55.444 Y60.253 E0.14992
G1 X53.155 Y57.963 E0.15144
G1 X53.158 Y57.952 E0.15144
G1 X55.457 Y60.251 E0.15297
G1 X55.47 Y60.25 E0.15298
G1 X53.162 Y57.941 E0.15451
G1 X53.161 Y57.927 E0.15452
G1 X55.483 Y60.249 E0.15606
G1 X55.496 Y60.248 E0.15607
G1 X53.16 Y57.912 E0.15762
G1 X53.16 Y57.897 E0.15763
G1 X55.507 Y60.245 E0.15919
G1 X55.519 Y60.243 E0.1592
G1 X53.159 Y57.882 E0.16077
G1 X53.158 Y57.867 E0.16078
G1 X55.531 Y60.241 E0.16235
G1 X55.543 Y60.238 E0.16236
G1 X53.157 Y57.852 E0.16395
G1 X53.156 Y57.837 E0.16395
G1 X55.555 Y60.236 E0.16555
G1 X55.567 Y60.234 E0.16555
G1 X53.155 Y57.822 E0.16716
G1 X53.155 Y57.807 E0.16717
G1 X55.579 Y60.232 E0.16878
G1 X55.591 Y60.229 E0.16878
G1 X53.154 Y57.793 E0.1704
G1 X53.153 Y57.778 E0.17041
G1 X55.603 Y60.227 E0.17204
G1 X55.615 Y60.225 E0.17205
G1 X53.152 Y57.762 E0.17368
G1 X53.151 Y57.747 E0.17369
G1 X55.627 Y60.223 E0.17534
G1 X55.639 Y60.221 E0.17534
G1 X53.15 Y57.732 E0.177
G1 X53.15 Y57.718 E0.17701
G1 X55.651 Y60.219 E0.17867
G1 X55.662 Y60.216 E0.17867
G1 X53.149 Y57.703 E0.18035
G1 X53.148 Y57.687 E0.18035
G1 X55.674 Y60.214 E0.18203
G1 X55.686 Y60.212 E0.18204
G1 X53.147 Y57.672 E0.18373
