;FLAVOR:Marlin
;TIME:6666
;Filament used: 0m
;Layer height: 0.4
;MINX:2.14748e+06
;MINY:2.14748e+06
;MINZ:2.14748e+06
;MAXX:-2.14748e+06
;MAXY:-2.14748e+06
;MAXZ:-2.14748e+06
;TARGET_MACHINE.NAME:Pather

;Generated with Cura_SteamEngine 5.9.1
M104 S215
M105
M109 S215
M82 ;absolute extrusion mode
G28 ;Home
G1 Z15.0 F6000 ;Move the platform down 15mm
;Prime the extruder
G92 E0
G1 F200 E3
G92 E0
G92 E0
G92 E0
G1 F1500 E-6.5
;LAYER_COUNT:25
;LAYER:0
M107
M204 S3000
M205 X20 Y20
;MESH:stl/cat_0.0215983x.stl
G0 F3600 X57.769 Y58.901 Z0.3
;TYPE:WALL-OUTER
G1 F1500 E0
G1 F1800 X58.375 Y58.945 E0.00029
G1 X59.207 Y59.045 E0.00068
G1 X59.763 Y59.073 E0.00094
G1 X60.692 Y59.073 E0.00138
G1 X61.19 Y58.945 E0.00162
G1 X61.579 Y58.709 E0.00183
G1 X61.987 Y58.365 E0.00209
G1 X62.205 Y58.277 E0.0022
G1 X62.305 Y58.277 E0.00224
G1 X62.411 Y58.426 E0.00233
G1 X62.411 Y58.506 E0.00237
G1 X62.195 Y58.921 E0.00259
G1 X61.832 Y59.456 E0.00289
G1 X61.402 Y59.691 E0.00312
G1 X61.051 Y59.735 E0.00329
G1 X60.241 Y59.735 E0.00367
G1 X60.017 Y59.711 E0.00377
G1 X59.087 Y59.735 E0.00421
G1 X58.503 Y59.799 E0.00449
G1 X58.292 Y59.799 E0.00459
G1 X57.547 Y59.895 E0.00494
G1 X57.29 Y60.055 E0.00508
G1 X56.483 Y60.187 E0.00547
G1 X56.304 Y60.187 E0.00555
G1 X54.903 Y60.359 E0.00622
G1 X54.491 Y60.466 E0.00642
G1 X53.97 Y60.427 E0.00666
G1 X53.869 Y60.464 E0.00671
G1 X53.869 Y60.277 E0.0068
G1 X53.677 Y59.953 E0.00698
G1 X53.352 Y59.8 E0.00715
G1 X53.31 Y59.715 E0.00719
G1 X53.373 Y59.507 E0.00729
G1 X53.524 Y59.328 E0.0074
G1 X53.675 Y59.245 E0.00748
G1 X53.697 Y59.178 E0.00752
G1 X53.565 Y58.85 E0.00768
G1 X53.413 Y58.697 E0.00778
G1 X53.221 Y58.162 E0.00805
G1 X53.138 Y58.094 E0.0081
G1 X53.177 Y57.97 E0.00816
G1 X53.158 Y57.649 E0.00831
G1 X53.201 Y57.474 E0.0084
G1 X53.178 Y57.403 E0.00843
G1 X53.205 Y56.881 E0.00868
G1 X53.029 Y56.106 E0.00905
G1 X52.897 Y55.639 E0.00928
G1 X52.878 Y54.894 E0.00963
G1 X52.877 Y54.253 E0.00993
G1 X52.961 Y53.938 E0.01009
G1 X53.137 Y53.611 E0.01026
G1 X53.157 Y53.07 E0.01052
G1 X53.245 Y52.85 E0.01063
G1 X53.329 Y52.402 E0.01084
G1 X53.437 Y52.159 E0.01097
G1 X53.608 Y51.928 E0.0111
G1 X53.804 Y51.772 E0.01122
G1 X54.085 Y51.231 E0.01151
G1 X54.169 Y50.935 E0.01165
G1 X54.475 Y50.501 E0.0119
G1 X54.596 Y50.501 E0.01196
G1 X54.683 Y50.738 E0.01208
G1 X54.809 Y50.873 E0.01216
G1 X54.768 Y50.924 E0.01219
G1 X54.767 Y51.08 E0.01227
G1 X54.855 Y51.362 E0.01241
G1 X54.983 Y51.555 E0.01252
G1 X55.329 Y51.773 E0.01271
G1 X55.786 Y51.905 E0.01293
G1 X56.462 Y51.601 E0.01328
G1 X56.713 Y51.558 E0.0134
G1 X56.774 Y51.665 E0.01346
G1 X56.627 Y52.089 E0.01367
G1 X56.387 Y52.437 E0.01387
G1 X56.235 Y52.934 E0.01411
G1 X56.191 Y53.502 E0.01438
G1 X56.233 Y53.582 E0.01442
G1 X56.129 Y53.643 E0.01448
G1 X56.063 Y53.798 E0.01456
G1 X56.063 Y53.996 E0.01465
G1 X56.151 Y54.151 E0.01474
G1 X56.648 Y54.52 E0.01503
G1 X56.839 Y54.731 E0.01516
G1 X57.179 Y55.338 E0.01549
G1 X57.443 Y56.198 E0.01591
G1 X57.511 Y56.326 E0.01598
G1 X57.511 Y56.544 E0.01608
G1 X57.618 Y57.121 E0.01636
G1 X57.599 Y57.535 E0.01655
G1 X57.658 Y57.769 E0.01667
G1 X57.639 Y57.971 E0.01676
G1 X57.639 Y58.7 E0.0171
G1 X57.683 Y58.854 E0.01718
G1 X57.769 Y58.901 E0.01723
G0 F3600 X57.968 Y58.915
G0 X57.769 Y58.889
;TYPE:SKIN
G1 F1800 X58.371 Y58.933 E0.01751
G1 X59.199 Y59.033 E0.0179
G1 X59.763 Y59.061 E0.01817
G1 X60.692 Y59.061 E0.0186
G1 X61.182 Y58.937 E0.01884
G1 X61.519 Y58.745 E0.01902
G1 X61.979 Y58.353 E0.01931
G1 X62.305 Y58.262 E0.01947
G1 X62.419 Y58.422 E0.01956
G1 X62.419 Y58.506 E0.0196
G1 X62.199 Y58.925 E0.01982
G1 X61.84 Y59.46 E0.02012
G1 X61.402 Y59.699 E0.02036
G1 X61.043 Y59.743 E0.02053
G1 X60.245 Y59.743 E0.0209
G1 X60.021 Y59.719 E0.02101
G1 X59.083 Y59.743 E0.02145
G1 X58.495 Y59.807 E0.02173
G1 X58.292 Y59.807 E0.02183
G1 X57.551 Y59.903 E0.02218
G1 X57.29 Y60.063 E0.02232
G1 X56.487 Y60.195 E0.0227
G1 X56.3 Y60.195 E0.02279
G1 X54.903 Y60.367 E0.02345
G1 X54.487 Y60.474 E0.02366
G1 X53.966 Y60.435 E0.0239
G1 X53.858 Y60.476 E0.02396
G1 X53.857 Y60.273 E0.02405
G1 X53.673 Y59.961 E0.02422
G1 X53.344 Y59.804 E0.02439
G1 X53.298 Y59.715 E0.02444
G1 X53.365 Y59.499 E0.02455
G1 X53.516 Y59.32 E0.02466
G1 X53.667 Y59.237 E0.02474
G1 X53.685 Y59.17 E0.02477
G1 X53.557 Y58.854 E0.02493
G1 X53.401 Y58.697 E0.02503
G1 X53.213 Y58.166 E0.0253
G1 X53.126 Y58.094 E0.02535
G1 X53.165 Y57.97 E0.02541
G1 X53.146 Y57.649 E0.02556
G1 X53.189 Y57.478 E0.02565
G1 X53.166 Y57.403 E0.02568
G1 X53.193 Y56.885 E0.02593
G1 X53.013 Y56.082 E0.02632
G1 X52.885 Y55.643 E0.02653
G1 X52.865 Y54.918 E0.02687
G1 X52.865 Y54.249 E0.02719
G1 X52.949 Y53.938 E0.02734
G1 X53.125 Y53.611 E0.02751
G1 X53.145 Y53.07 E0.02777
G1 X53.233 Y52.842 E0.02788
G1 X53.317 Y52.398 E0.02809
G1 X53.429 Y52.155 E0.02822
G1 X53.6 Y51.92 E0.02836
G1 X53.796 Y51.764 E0.02847
G1 X54.073 Y51.227 E0.02876
G1 X54.157 Y50.931 E0.0289
G1 X54.471 Y50.489 E0.02916
G1 X54.604 Y50.489 E0.02922
G1 X54.691 Y50.73 E0.02934
G1 X54.821 Y50.873 E0.02943
G1 X54.78 Y50.924 E0.02946
G1 X54.775 Y51.075 E0.02953
G1 X54.863 Y51.354 E0.02967
G1 X54.987 Y51.543 E0.02978
G1 X55.329 Y51.761 E0.02997
G1 X55.79 Y51.893 E0.03019
G1 X56.462 Y51.589 E0.03054
G1 X56.713 Y51.546 E0.03066
G1 X56.786 Y51.665 E0.03073
G1 X56.635 Y52.085 E0.03094
G1 X56.395 Y52.437 E0.03114
G1 X56.243 Y52.93 E0.03138
G1 X56.199 Y53.498 E0.03165
G1 X56.245 Y53.585 E0.03169
G1 X56.133 Y53.647 E0.03175
G1 X56.071 Y53.798 E0.03183
G1 X56.071 Y53.992 E0.03192
G1 X56.155 Y54.143 E0.032
G1 X56.656 Y54.516 E0.0323
G1 X56.843 Y54.723 E0.03243
G1 X57.183 Y55.33 E0.03276
G1 X57.447 Y56.186 E0.03318
G1 X57.519 Y56.322 E0.03325
G1 X57.519 Y56.54 E0.03335
G1 X57.626 Y57.113 E0.03363
G1 X57.607 Y57.535 E0.03382
G1 X57.666 Y57.769 E0.03394
G1 X57.647 Y57.975 E0.03403
G1 X57.647 Y58.696 E0.03437
G1 X57.691 Y58.846 E0.03445
G1 X57.769 Y58.889 E0.03449
G1 F1500 E-6.46551
G0 F3600 X58.3 Y58.281
G0 X58.179 Y56.17
G0 X57.508 Y51.588
G0 X55.058 Y49.84
G0 X53.56 Y50.639
G0 X52.688 Y52.195
G0 X52.209 Y54.168
G0 X52.222 Y55.364
G0 X52.887 Y55.347
G1 F1500 E0.03449
G1 F1800 X52.886 Y55.333 E0.0345
G1 X57.484 Y59.931 E0.03755
G1 X52.887 Y55.347 E0.04061
G1 F1500 E-6.45939
G0 F3600 X52.222 Y55.364
G0 X52.209 Y54.168
G0 X52.688 Y52.195
G0 X53.56 Y50.639
G0 X55.058 Y49.84
G0 X57.05 Y50.833
G0 X57.349 Y52.047
G0 X56.899 Y53.061
G0 X56.24 Y52.903
G1 F1500 E0.04061
G1 F1800 X56.238 Y52.914 E0.04061
G1 X54.205 Y50.881 E0.04196
G1 X56.24 Y52.903 E0.04331
G0 F3600 X56.417 Y52.387
G1 F1800 X55.881 Y51.865 E0.04367
G1 X55.891 Y51.861 E0.04367
G1 X56.417 Y52.387 E0.04402
G0 F3600 X56.474 Y52.303
G1 F1800 X55.979 Y51.821 E0.04434
G1 X55.988 Y51.816 E0.04435
G1 X56.474 Y52.303 E0.04467
G1 F1500 E-6.45533
G0 F3600 X57.032 Y52.685
G0 X57.508 Y51.588
G0 X55.478 Y51.093
G0 X54.841 Y51.32
G1 F1500 E0.04467
G1 F1800 X54.287 Y50.765 E0.04504
G1 X54.834 Y51.298 E0.0454
G1 X54.841 Y51.32 E0.04541
G0 F3600 X54.765 Y51.004
G1 F1800 X54.765 Y51.018 E0.04542
G1 X54.381 Y50.633 E0.04567
G1 X54.765 Y51.004 E0.04593
G1 F1500 E-6.45407
G0 F3600 X55.478 Y51.093
G0 X55.058 Y49.84
G0 X53.668 Y50.487
G0 X53.573 Y51.974
G1 F1500 E0.04593
G1 F1800 X57.275 Y55.663 E0.04838
G1 X57.281 Y55.683 E0.04839
G1 X53.573 Y51.974 E0.05086
G1 F1500 E-6.44914
G0 F3600 X53.032 Y51.582
G0 X53.56 Y50.639
G0 X55.058 Y49.84
G0 X57.05 Y50.833
G0 X62.65 Y57.612
G0 X63.082 Y58.586
G0 X62.292 Y58.728
G1 F1500 E0.05086
G1 F1800 X62.287 Y58.737 E0.05086
G1 X61.945 Y58.395 E0.05109
G1 X62.292 Y58.728 E0.05132
G0 F3600 X62.189 Y58.923
G1 F1800 X61.784 Y58.531 E0.05158
G1 X61.792 Y58.525 E0.05159
G1 X62.189 Y58.923 E0.05185
G0 F3600 X62.167 Y58.956
G1 F1800 X61.769 Y58.545 E0.05212
G1 X61.762 Y58.551 E0.05213
G1 X62.167 Y58.956 E0.05239
G0 F3600 X62.133 Y59.007
G1 F1800 X61.723 Y58.584 E0.05267
G1 X61.716 Y58.59 E0.05268
G1 X62.133 Y59.007 E0.05295
G0 F3600 X62.099 Y59.058
G1 F1800 X61.677 Y58.623 E0.05324
G1 X61.67 Y58.629 E0.05324
G1 X62.099 Y59.058 E0.05353
G0 F3600 X61.935 Y59.304
G1 F1800 X61.443 Y58.799 E0.05386
G1 X61.435 Y58.804 E0.05386
G1 X61.935 Y59.304 E0.0542
G0 F3600 X61.9 Y59.355
G1 F1800 X61.894 Y59.363 E0.0542
G1 X61.372 Y58.84 E0.05455
G1 X61.9 Y59.355 E0.0549
G0 F3600 X61.849 Y59.431
G1 F1800 X61.291 Y58.886 E0.05526
G1 X61.3 Y58.881 E0.05527
G1 X61.849 Y59.431 E0.05563
G1 F1500 E-6.44437
G0 F3600 X62.179 Y60.03
G0 X54.55 Y61.146
G0 X53.87 Y60.46
G1 F1500 E0.05563
G1 F1800 X53.867 Y60.415 E0.05565
G1 X53.911 Y60.444 E0.05568
G1 X53.867 Y60.386 E0.05571
G1 X53.932 Y60.437 E0.05575
G1 X53.867 Y60.358 E0.0558
G1 X53.952 Y60.429 E0.05585
G1 X53.866 Y60.329 E0.05591
G1 X53.977 Y60.426 E0.05598
G1 X53.866 Y60.301 E0.05606
G1 X54.007 Y60.428 E0.05615
G1 X53.866 Y60.272 E0.05625
G1 X54.038 Y60.43 E0.05636
G1 X53.828 Y60.206 E0.0565
G1 X54.069 Y60.433 E0.05666
G1 X53.788 Y60.138 E0.05685
G1 X54.099 Y60.435 E0.05705
G1 X53.748 Y60.069 E0.05729
G1 X54.114 Y60.436 E0.05754
G1 X54.13 Y60.437 E0.05754
G1 X53.728 Y60.035 E0.05781
G1 X53.708 Y60.002 E0.05783
G1 X54.145 Y60.439 E0.05812
G1 X54.16 Y60.439 E0.05813
G1 X53.681 Y59.954 E0.05845
G0 F3600 X53.37 Y59.804
G1 F1800 X53.339 Y59.774 E0.05847
G0 F3600 X53.35 Y59.795
G1 F1800 X53.396 Y59.817 E0.05849
G1 X53.308 Y59.714 E0.05856
G1 X53.451 Y59.843 E0.05865
G1 X53.314 Y59.693 E0.05874
G1 X53.505 Y59.869 E0.05886
G1 X53.321 Y59.671 E0.05899
G1 X53.561 Y59.896 E0.05915
G1 X53.328 Y59.649 E0.0593
G1 X53.615 Y59.922 E0.05949
G1 X53.334 Y59.627 E0.05968
G1 X53.669 Y59.949 E0.0599
G1 X53.341 Y59.606 E0.06012
G1 X54.176 Y60.441 E0.06068
G1 X54.191 Y60.441 E0.06069
G1 X53.344 Y59.595 E0.06125
G1 X53.348 Y59.584 E0.06126
G1 X54.206 Y60.443 E0.06183
G1 X54.222 Y60.444 E0.06183
G1 X53.351 Y59.574 E0.06241
G1 X53.355 Y59.563 E0.06242
G1 X54.237 Y60.445 E0.063
G1 X54.252 Y60.446 E0.06301
G1 X53.358 Y59.552 E0.06361
G1 X53.361 Y59.541 E0.06361
G1 X54.268 Y60.448 E0.06422
G1 X54.282 Y60.448 E0.06422
G1 X53.365 Y59.531 E0.06483
G1 X53.367 Y59.519 E0.06484
G1 X54.298 Y60.45 E0.06546
G1 X54.313 Y60.451 E0.06546
G1 X53.371 Y59.509 E0.06609
G1 X53.376 Y59.5 E0.06609
G1 X54.328 Y60.452 E0.06673
G1 X54.344 Y60.453 E0.06674
G1 X53.382 Y59.492 E0.06737
G1 X53.389 Y59.484 E0.06738
G1 X54.359 Y60.454 E0.06802
G1 X54.374 Y60.456 E0.06803
G1 X53.396 Y59.477 E0.06868
G1 X53.402 Y59.469 E0.06869
G1 X54.389 Y60.456 E0.06934
G1 X54.405 Y60.458 E0.06935
G1 X53.408 Y59.461 E0.07001
G1 X53.415 Y59.454 E0.07002
G1 X54.42 Y60.459 E0.07069
G1 X54.435 Y60.46 E0.07069
G1 X53.421 Y59.446 E0.07137
G1 X53.428 Y59.439 E0.07137
G1 X54.451 Y60.461 E0.07205
G1 X54.466 Y60.462 E0.07206
G1 X53.435 Y59.431 E0.07275
G1 X53.441 Y59.423 E0.07275
G1 X54.481 Y60.463 E0.07344
G1 X54.494 Y60.462 E0.07345
G1 X53.447 Y59.415 E0.07415
G1 X53.454 Y59.408 E0.07415
G1 X54.505 Y60.459 E0.07485
G1 X54.516 Y60.456 E0.07485
G1 X53.46 Y59.4 E0.07556
G1 X53.467 Y59.393 E0.07556
G1 X54.527 Y60.453 E0.07627
G1 X54.538 Y60.45 E0.07627
G1 X53.474 Y59.385 E0.07698
G1 X53.48 Y59.377 E0.07698
G1 X54.55 Y60.447 E0.0777
G1 X54.561 Y60.444 E0.0777
G1 X53.486 Y59.369 E0.07842
G1 X53.493 Y59.362 E0.07842
G1 X54.572 Y60.441 E0.07914
G1 X54.584 Y60.439 E0.07914
G1 X53.499 Y59.354 E0.07987
G1 X53.506 Y59.347 E0.07987
G1 X54.595 Y60.436 E0.08059
G1 X54.606 Y60.433 E0.0806
G1 X53.512 Y59.339 E0.08133
G1 X53.519 Y59.331 E0.08133
G1 X54.618 Y60.43 E0.08206
G1 X54.629 Y60.427 E0.08207
G1 X53.527 Y59.326 E0.0828
G1 X53.536 Y59.32 E0.08281
G1 X54.64 Y60.424 E0.08354
G1 X54.651 Y60.421 E0.08355
G1 X53.545 Y59.315 E0.08428
G1 X53.554 Y59.31 E0.08429
G1 X54.662 Y60.418 E0.08502
G1 X54.673 Y60.415 E0.08503
G1 X53.563 Y59.305 E0.08577
G1 X53.573 Y59.3 E0.08577
G1 X54.685 Y60.412 E0.08651
G1 X54.696 Y60.41 E0.08652
G1 X53.581 Y59.294 E0.08726
G1 X53.59 Y59.289 E0.08726
G1 X54.707 Y60.407 E0.08801
G1 X54.719 Y60.404 E0.08801
G1 X53.599 Y59.285 E0.08876
G1 X53.609 Y59.28 E0.08876
G1 X54.73 Y60.401 E0.08951
G1 X54.741 Y60.398 E0.08951
G1 X53.618 Y59.275 E0.09026
G1 X53.626 Y59.269 E0.09026
G1 X54.753 Y60.395 E0.09101
G1 X54.763 Y60.392 E0.09102
G1 X53.635 Y59.264 E0.09177
G1 X53.645 Y59.259 E0.09177
G1 X54.775 Y60.389 E0.09253
G1 X54.786 Y60.386 E0.09253
G1 X53.654 Y59.254 E0.09328
G1 X53.663 Y59.249 E0.09329
G1 X54.797 Y60.383 E0.09404
G1 X54.809 Y60.381 E0.09405
G1 X53.672 Y59.244 E0.0948
G1 X53.679 Y59.236 E0.09481
G1 X54.82 Y60.378 E0.09557
G1 X54.831 Y60.375 E0.09557
G1 X53.681 Y59.224 E0.09634
G1 X53.684 Y59.213 E0.09634
G1 X54.842 Y60.372 E0.09712
G1 X54.854 Y60.369 E0.09712
G1 X53.686 Y59.202 E0.0979
G1 X53.689 Y59.19 E0.0979
G1 X54.865 Y60.366 E0.09869
G1 X54.876 Y60.364 E0.09869
G1 X53.692 Y59.179 E0.09948
G1 X53.695 Y59.168 E0.09948
G1 X54.887 Y60.36 E0.10028
G1 X54.898 Y60.357 E0.10028
G1 X53.685 Y59.144 E0.10109
G1 X53.675 Y59.12 E0.1011
G1 X54.911 Y60.356 E0.10192
G1 X54.924 Y60.354 E0.10193
G1 X53.666 Y59.096 E0.10277
G1 X53.656 Y59.072 E0.10278
G1 X54.936 Y60.352 E0.10363
G1 X54.949 Y60.351 E0.10364
G1 X53.646 Y59.048 E0.1045
G1 X53.637 Y59.025 E0.10451
G1 X54.961 Y60.349 E0.10539
G1 X54.974 Y60.348 E0.1054
G1 X53.627 Y59.001 E0.1063
G1 X53.617 Y58.977 E0.10631
G1 X54.987 Y60.347 E0.10722
G1 X54.999 Y60.344 E0.10723
G1 X53.608 Y58.954 E0.10815
G1 X53.598 Y58.93 E0.10816
G1 X55.011 Y60.343 E0.1091
G1 X55.024 Y60.342 E0.10911
G1 X53.588 Y58.906 E0.11006
G1 X53.579 Y58.882 E0.11008
G1 X55.037 Y60.34 E0.11104
G1 X55.05 Y60.339 E0.11105
G1 X53.406 Y58.681 E0.11215
G1 X55.062 Y60.337 E0.11325
G1 X55.074 Y60.335 E0.11326
G1 X53.398 Y58.659 E0.11437
G1 X53.39 Y58.637 E0.11438
G1 X55.087 Y60.334 E0.11551
G1 X55.1 Y60.332 E0.11552
G1 X53.382 Y58.615 E0.11666
G1 X53.375 Y58.594 E0.11667
G1 X55.113 Y60.331 E0.11782
G1 X55.125 Y60.33 E0.11783
G1 X53.367 Y58.572 E0.119
G1 X53.36 Y58.55 E0.11901
G1 X55.137 Y60.328 E0.12019
G1 X55.15 Y60.326 E0.1202
G1 X53.352 Y58.528 E0.12139
G1 X53.344 Y58.506 E0.12141
G1 X55.163 Y60.325 E0.12262
G1 X55.176 Y60.323 E0.12262
G1 X53.336 Y58.484 E0.12384
G1 X53.329 Y58.462 E0.12386
G1 X55.188 Y60.322 E0.12509
G1 X55.2 Y60.32 E0.1251
G1 X53.321 Y58.44 E0.12635
G1 X53.313 Y58.418 E0.12636
G1 X55.213 Y60.318 E0.12762
G1 X55.226 Y60.317 E0.12763
G1 X53.305 Y58.396 E0.12891
G1 X53.297 Y58.374 E0.12892
G1 X55.238 Y60.316 E0.13021
G1 X55.251 Y60.314 E0.13021
G1 X53.29 Y58.353 E0.13152
G1 X53.283 Y58.331 E0.13153
G1 X55.263 Y60.312 E0.13285
G1 X55.276 Y60.311 E0.13285
G1 X53.275 Y58.309 E0.13418
G1 X53.267 Y58.288 E0.13419
G1 X55.289 Y60.309 E0.13554
G1 X55.301 Y60.308 E0.13554
G1 X53.259 Y58.266 E0.1369
G1 X53.252 Y58.244 E0.13691
G1 X55.314 Y60.306 E0.13828
G1 X55.327 Y60.305 E0.13829
G1 X53.244 Y58.222 E0.13968
G1 X53.236 Y58.2 E0.13969
G1 X55.339 Y60.303 E0.14109
G1 X55.352 Y60.301 E0.14109
G1 X53.228 Y58.178 E0.1425
G1 X53.223 Y58.161 E0.14251
G0 F3600 X53.138 Y58.091
G1 F1800 X53.142 Y58.078 E0.14252
G1 X55.364 Y60.3 E0.144
G1 X55.377 Y60.299 E0.144
G1 X53.145 Y58.067 E0.14549
G1 X53.149 Y58.056 E0.14549
G1 X55.39 Y60.297 E0.14698
G1 X55.402 Y60.295 E0.14699
G1 X53.152 Y58.045 E0.14849
G1 X53.155 Y58.034 E0.14849
G1 X55.415 Y60.294 E0.14999
G1 X55.427 Y60.292 E0.15
G1 X53.159 Y58.024 E0.15151
G1 X53.162 Y58.013 E0.15151
G1 X55.44 Y60.291 E0.15303
G1 X55.453 Y60.289 E0.15303
G1 X53.165 Y58.002 E0.15456
G1 X53.169 Y57.991 E0.15456
G1 X55.465 Y60.287 E0.15609
G1 X55.477 Y60.286 E0.15609
G1 X53.172 Y57.981 E0.15763
G1 X53.174 Y57.969 E0.15763
G1 X55.49 Y60.284 E0.15917
G1 X55.503 Y60.283 E0.15918
G1 X53.174 Y57.954 E0.16073
G1 X53.173 Y57.939 E0.16073
G1 X55.516 Y60.282 E0.16229
G1 X55.528 Y60.279 E0.1623
G1 X53.172 Y57.923 E0.16387
