;FLAVOR:Marlin
;TIME:6666
;Filament used: 0m
;Layer height: 0.4
;MINX:2.14748e+06
;MINY:2.14748e+06
;MINZ:2.14748e+06
;MAXX:-2.14748e+06
;MAXY:-2.14748e+06
;MAXZ:-2.14748e+06
;TARGET_MACHINE.NAME:Pather

;Generated with Cura_SteamEngine 5.9.1
M104 S215
M105
M109 S215
M82 ;absolute extrusion mode
G28 ;Home
G1 Z15.0 F6000 ;Move the platform down 15mm
;Prime the extruder
G92 E0
G1 F200 E3
G92 E0
G92 E0
G92 E0
G1 F1500 E-6.5
;LAYER_COUNT:25
;LAYER:0
M107
M204 S3000
M205 X20 Y20
;MESH:stl/cat_0.0218818x.stl
G0 F3600 X58.069 Y58.997 Z0.3
;TYPE:WALL-OUTER
G1 F1500 E0
G1 F1800 X58.555 Y59.085 E0.00023
G1 X59.607 Y59.173 E0.00073
G1 X60.128 Y59.173 E0.00097
G1 X60.745 Y59.149 E0.00126
G1 X61.25 Y59.041 E0.00151
G1 X61.839 Y58.757 E0.00181
G1 X62.215 Y58.449 E0.00204
G1 X62.362 Y58.385 E0.00212
G1 X62.469 Y58.385 E0.00217
G1 X62.531 Y58.47 E0.00222
G1 X62.531 Y58.643 E0.0023
G1 X62.427 Y58.917 E0.00244
G1 X62.16 Y59.36 E0.00268
G1 X61.92 Y59.6 E0.00284
G1 X61.55 Y59.819 E0.00304
G1 X61.058 Y59.862 E0.00327
G1 X60.31 Y59.863 E0.00363
G1 X59.545 Y59.839 E0.00399
G1 X58.331 Y59.951 E0.00456
G1 X57.759 Y60.031 E0.00483
G1 X57.07 Y60.231 E0.00517
G1 X55.163 Y60.475 E0.00607
G1 X54.615 Y60.583 E0.00634
G1 X53.921 Y60.583 E0.00666
G1 X53.941 Y60.547 E0.00668
G1 X53.725 Y60.085 E0.00692
G1 X53.461 Y59.908 E0.00707
G1 X53.394 Y59.737 E0.00716
G1 X53.457 Y59.587 E0.00723
G1 X53.7 Y59.324 E0.0074
G1 X53.725 Y59.214 E0.00745
G1 X53.613 Y58.969 E0.00758
G1 X53.417 Y58.749 E0.00772
G1 X53.222 Y58.207 E0.00799
G1 X53.241 Y57.573 E0.00829
G1 X53.198 Y57.309 E0.00841
G1 X53.245 Y57.025 E0.00855
G1 X53.153 Y56.495 E0.0088
G1 X53.001 Y55.907 E0.00909
G1 X52.913 Y55.011 E0.00951
G1 X52.913 Y54.289 E0.00985
G1 X53.153 Y53.634 E0.01018
G1 X53.201 Y53.069 E0.01045
G1 X53.437 Y52.255 E0.01085
G1 X53.896 Y51.728 E0.01117
G1 X54.121 Y51.267 E0.01141
G1 X54.225 Y50.943 E0.01158
G1 X54.511 Y50.617 E0.01178
G1 X54.657 Y50.617 E0.01185
G1 X54.897 Y50.857 E0.01201
G1 X54.851 Y50.937 E0.01205
G1 X54.895 Y51.379 E0.01226
G1 X54.983 Y51.511 E0.01233
G1 X55.229 Y51.689 E0.01248
G1 X55.641 Y51.885 E0.01269
G1 X55.997 Y51.861 E0.01286
G1 X56.673 Y51.602 E0.0132
G1 X56.843 Y51.664 E0.01328
G1 X56.843 Y51.747 E0.01332
G1 X56.667 Y52.185 E0.01355
G1 X56.471 Y52.493 E0.01372
G1 X56.319 Y52.97 E0.01395
G1 X56.275 Y53.455 E0.01418
G1 X56.337 Y53.586 E0.01425
G1 X56.208 Y53.692 E0.01433
G1 X56.143 Y53.866 E0.01442
G1 X56.163 Y54.005 E0.01448
G1 X56.319 Y54.247 E0.01462
G1 X56.88 Y54.708 E0.01496
G1 X57.275 Y55.43 E0.01535
G1 X57.499 Y56.13 E0.01569
G1 X57.583 Y56.362 E0.01581
G1 X57.695 Y57.137 E0.01618
G1 X57.695 Y57.632 E0.01641
G1 X57.739 Y57.913 E0.01654
G1 X57.739 Y58.576 E0.01685
G1 X57.829 Y58.841 E0.01699
G1 X58.069 Y58.997 E0.01712
G0 F3600 X58.265 Y59.032
G0 X58.069 Y58.985
;TYPE:SKIN
G1 F1800 X58.555 Y59.073 E0.01735
G1 X59.588 Y59.16 E0.01784
G1 X60.124 Y59.161 E0.01809
G1 X60.741 Y59.137 E0.01838
G1 X61.246 Y59.029 E0.01863
G1 X61.831 Y58.749 E0.01893
G1 X62.211 Y58.441 E0.01916
G1 X62.469 Y58.37 E0.01929
G1 X62.539 Y58.466 E0.01934
G1 X62.539 Y58.643 E0.01943
G1 X62.435 Y58.913 E0.01956
G1 X62.164 Y59.364 E0.01981
G1 X61.924 Y59.608 E0.01997
G1 X61.55 Y59.827 E0.02017
G1 X61.067 Y59.87 E0.0204
G1 X60.314 Y59.871 E0.02076
G1 X59.549 Y59.847 E0.02112
G1 X58.327 Y59.959 E0.02169
G1 X57.755 Y60.039 E0.02196
G1 X57.074 Y60.239 E0.0223
G1 X55.163 Y60.483 E0.0232
G1 X54.615 Y60.591 E0.02347
G1 X53.904 Y60.591 E0.0238
G1 X53.929 Y60.539 E0.02383
G1 X53.717 Y60.093 E0.02406
G1 X53.453 Y59.912 E0.02421
G1 X53.382 Y59.737 E0.0243
G1 X53.449 Y59.579 E0.02438
G1 X53.688 Y59.32 E0.02455
G1 X53.713 Y59.21 E0.0246
G1 X53.601 Y58.973 E0.02472
G1 X53.405 Y58.749 E0.02486
G1 X53.21 Y58.207 E0.02513
G1 X53.229 Y57.577 E0.02543
G1 X53.186 Y57.309 E0.02556
G1 X53.233 Y57.025 E0.02569
G1 X53.141 Y56.491 E0.02595
G1 X52.989 Y55.903 E0.02623
G1 X52.901 Y55.015 E0.02665
G1 X52.901 Y54.285 E0.027
G1 X53.141 Y53.63 E0.02732
G1 X53.189 Y53.061 E0.02759
G1 X53.425 Y52.251 E0.02799
G1 X53.888 Y51.724 E0.02832
G1 X54.109 Y51.263 E0.02856
G1 X54.213 Y50.939 E0.02872
G1 X54.507 Y50.605 E0.02893
G1 X54.657 Y50.605 E0.029
G1 X54.909 Y50.857 E0.02917
G1 X54.863 Y50.933 E0.02921
G1 X54.903 Y51.375 E0.02942
G1 X54.987 Y51.503 E0.02949
G1 X55.233 Y51.681 E0.02963
G1 X55.637 Y51.873 E0.02984
G1 X55.993 Y51.849 E0.03001
G1 X56.673 Y51.59 E0.03035
G1 X56.853 Y51.656 E0.03044
G1 X56.675 Y52.189 E0.03071
G1 X56.479 Y52.497 E0.03088
G1 X56.327 Y52.966 E0.03111
G1 X56.283 Y53.455 E0.03134
G1 X56.349 Y53.586 E0.03141
G1 X56.212 Y53.696 E0.03149
G1 X56.151 Y53.862 E0.03158
G1 X56.171 Y54.001 E0.03164
G1 X56.323 Y54.235 E0.03177
G1 X56.884 Y54.7 E0.03212
G1 X57.283 Y55.434 E0.03251
G1 X57.507 Y56.13 E0.03285
G1 X57.591 Y56.35 E0.03296
G1 X57.703 Y57.141 E0.03334
G1 X57.703 Y57.632 E0.03357
G1 X57.747 Y57.905 E0.0337
G1 X57.747 Y58.576 E0.03402
G1 X57.833 Y58.829 E0.03414
G1 X58.069 Y58.985 E0.03427
G1 F1500 E-6.46573
G0 F3600 X58.401 Y58.387
G0 X58.366 Y57.087
G0 X57.506 Y51.209
G0 X55.529 Y51.094
G0 X54.888 Y50.872
G0 X54.894 Y50.864
G1 F1500 E0.03427
G1 F1800 X54.888 Y50.872 E0.03428
G1 X54.884 Y50.881 E0.03428
G1 X54.888 Y50.872 E0.03429
G1 X54.631 Y50.615 E0.03446
G1 X54.645 Y50.615 E0.03447
G1 X54.894 Y50.864 E0.03463
G0 F3600 X54.296 Y50.859
G1 F1800 X56.342 Y52.891 E0.03599
G1 X56.338 Y52.901 E0.03599
G1 X54.296 Y50.859 E0.03735
G1 F1500 E-6.46265
G0 F3600 X53.624 Y50.637
G0 X52.895 Y51.868
G0 X53.432 Y52.258
G1 F1500 E0.03735
G1 F1800 X57.588 Y56.4 E0.04011
G1 X57.59 Y56.417 E0.04012
G1 X53.432 Y52.258 E0.04288
G1 F1500 E-6.45712
G0 F3600 X52.895 Y51.868
G0 X53.635 Y50.606
G0 X54.935 Y49.952
G0 X57.506 Y51.209
G0 X57.084 Y52.779
G0 X56.557 Y52.357
G1 F1500 E0.04288
G1 F1800 X56.032 Y51.846 E0.04323
G1 X56.042 Y51.842 E0.04323
G1 X56.557 Y52.357 E0.04358
G1 F1500 E-6.45642
G0 F3600 X57.123 Y52.719
G0 X62.803 Y57.721
G0 X63.202 Y58.666
G0 X62.422 Y58.915
G1 F1500 E0.04358
G1 F1800 X62.417 Y58.924 E0.04358
G1 X62.066 Y58.572 E0.04381
G1 X62.422 Y58.915 E0.04405
G0 F3600 X62.406 Y58.942
G1 F1800 X62.042 Y58.592 E0.04428
G1 X62.05 Y58.585 E0.04429
G1 X62.406 Y58.942 E0.04453
G0 F3600 X62.385 Y58.977
G1 F1800 X62.01 Y58.616 E0.04477
G1 X62.018 Y58.61 E0.04478
G1 X62.385 Y58.977 E0.04502
G0 F3600 X62.358 Y59.021
G1 F1800 X62.353 Y59.03 E0.04503
G1 X61.972 Y58.648 E0.04528
G1 X62.358 Y59.021 E0.04553
G0 F3600 X62.247 Y59.207
G1 F1800 X61.801 Y58.775 E0.04582
G1 X61.81 Y58.77 E0.04583
G1 X62.247 Y59.207 E0.04612
G0 F3600 X62.215 Y59.26
G1 F1800 X61.744 Y58.802 E0.04643
G1 X61.753 Y58.797 E0.04643
G1 X62.215 Y59.26 E0.04674
G0 F3600 X62.037 Y59.478
G1 F1800 X61.476 Y58.93 E0.04711
G1 X61.486 Y58.926 E0.04711
G1 X62.037 Y59.478 E0.04748
G1 F1500 E-6.45252
G0 F3600 X62.517 Y59.954
G0 X54.682 Y61.255
G0 X53.92 Y60.581
G1 F1500 E0.04748
G1 F1800 X53.962 Y60.581 E0.0475
G1 X53.935 Y60.54 E0.04752
G1 X53.99 Y60.581 E0.04756
G1 X53.92 Y60.496 E0.04761
G1 X54.019 Y60.581 E0.04767
G1 X53.894 Y60.441 E0.04776
G1 X54.047 Y60.581 E0.04785
G1 X53.868 Y60.388 E0.04798
G1 X54.075 Y60.581 E0.04811
G1 X53.843 Y60.334 E0.04827
G1 X54.104 Y60.581 E0.04844
G1 X53.816 Y60.279 E0.04864
G1 X54.132 Y60.581 E0.04884
G1 X53.791 Y60.226 E0.04907
G1 X54.146 Y60.581 E0.04931
G1 X54.16 Y60.581 E0.04932
G1 X53.778 Y60.198 E0.04957
G1 X53.765 Y60.171 E0.04958
G1 X54.174 Y60.581 E0.04986
G1 X54.188 Y60.581 E0.04986
G1 X53.752 Y60.144 E0.05015
G1 X53.739 Y60.118 E0.05017
G1 X54.203 Y60.581 E0.05048
G1 X54.217 Y60.581 E0.05048
G1 X53.726 Y60.09 E0.05081
G0 F3600 X53.493 Y59.928
G1 F1800 X53.454 Y59.889 E0.05083
G0 F3600 X53.462 Y59.906
G1 F1800 X53.539 Y59.959 E0.05088
G1 X53.435 Y59.842 E0.05095
G1 X53.629 Y60.021 E0.05108
G1 X53.416 Y59.794 E0.05122
G1 X53.72 Y60.084 E0.05142
G1 X53.396 Y59.746 E0.05164
G1 X54.231 Y60.581 E0.0522
G1 X54.245 Y60.581 E0.0522
G1 X53.395 Y59.731 E0.05277
G1 X53.399 Y59.721 E0.05277
G1 X54.259 Y60.581 E0.05334
G1 X54.273 Y60.581 E0.05335
G1 X53.404 Y59.711 E0.05393
G1 X53.408 Y59.701 E0.05393
G1 X54.287 Y60.581 E0.05452
G1 X54.302 Y60.581 E0.05453
G1 X53.412 Y59.691 E0.05512
G1 X53.416 Y59.681 E0.05512
G1 X54.316 Y60.581 E0.05572
G1 X54.33 Y60.581 E0.05573
G1 X53.421 Y59.671 E0.05633
G1 X53.425 Y59.661 E0.05634
G1 X54.344 Y60.581 E0.05695
G1 X54.358 Y60.581 E0.05696
G1 X53.429 Y59.652 E0.05757
G1 X53.433 Y59.642 E0.05758
G1 X54.372 Y60.581 E0.0582
G1 X54.386 Y60.581 E0.05821
G1 X53.437 Y59.632 E0.05884
G1 X53.442 Y59.622 E0.05885
G1 X54.401 Y60.581 E0.05948
G1 X54.415 Y60.581 E0.05949
G1 X53.446 Y59.612 E0.06014
G1 X53.45 Y59.602 E0.06014
G1 X54.429 Y60.581 E0.06079
G1 X54.443 Y60.581 E0.0608
G1 X53.454 Y59.592 E0.06146
G1 X53.459 Y59.582 E0.06146
G1 X54.457 Y60.581 E0.06213
G1 X54.471 Y60.581 E0.06213
G1 X53.466 Y59.575 E0.0628
G1 X53.473 Y59.568 E0.06281
G1 X54.485 Y60.581 E0.06348
G1 X54.5 Y60.581 E0.06349
G1 X53.479 Y59.56 E0.06417
G1 X53.486 Y59.553 E0.06417
G1 X54.514 Y60.581 E0.06485
G1 X54.528 Y60.581 E0.06486
G1 X53.493 Y59.545 E0.06555
G1 X53.5 Y59.538 E0.06555
G1 X54.542 Y60.581 E0.06625
G1 X54.556 Y60.581 E0.06625
G1 X53.507 Y59.531 E0.06695
G1 X53.513 Y59.524 E0.06696
G1 X54.57 Y60.581 E0.06766
G1 X54.584 Y60.581 E0.06766
G1 X53.52 Y59.516 E0.06837
G1 X53.527 Y59.509 E0.06838
G1 X54.599 Y60.581 E0.06909
G1 X54.613 Y60.581 E0.0691
G1 X53.534 Y59.502 E0.06981
G1 X53.541 Y59.495 E0.06982
G1 X54.625 Y60.579 E0.07054
G1 X54.637 Y60.576 E0.07055
G1 X53.547 Y59.487 E0.07127
G1 X53.554 Y59.48 E0.07128
G1 X54.649 Y60.574 E0.072
G1 X54.661 Y60.572 E0.07201
G1 X53.561 Y59.472 E0.07274
G1 X53.568 Y59.465 E0.07275
G1 X54.672 Y60.569 E0.07348
G1 X54.684 Y60.567 E0.07349
G1 X53.575 Y59.458 E0.07422
G1 X53.581 Y59.45 E0.07423
G1 X54.696 Y60.565 E0.07497
G1 X54.707 Y60.562 E0.07497
G1 X53.588 Y59.443 E0.07572
G1 X53.594 Y59.435 E0.07572
G1 X54.719 Y60.56 E0.07647
G1 X54.731 Y60.558 E0.07648
G1 X53.602 Y59.428 E0.07723
G1 X53.609 Y59.421 E0.07723
G1 X54.743 Y60.555 E0.07799
G1 X54.755 Y60.553 E0.07799
G1 X53.615 Y59.413 E0.07875
G1 X53.622 Y59.406 E0.07876
G1 X54.767 Y60.551 E0.07952
G1 X54.778 Y60.548 E0.07952
G1 X53.628 Y59.398 E0.08029
G1 X53.635 Y59.391 E0.08029
G1 X54.79 Y60.546 E0.08106
G1 X54.802 Y60.544 E0.08107
G1 X53.643 Y59.384 E0.08184
G1 X53.649 Y59.376 E0.08184
G1 X54.814 Y60.541 E0.08262
G1 X54.826 Y60.539 E0.08262
G1 X53.662 Y59.362 E0.0834
G1 X54.838 Y60.537 E0.08418
G1 X54.849 Y60.534 E0.08419
G1 X53.669 Y59.355 E0.08497
G1 X53.676 Y59.347 E0.08498
G1 X54.861 Y60.532 E0.08577
G1 X54.873 Y60.53 E0.08577
G1 X53.683 Y59.34 E0.08656
G1 X53.69 Y59.333 E0.08657
G1 X54.884 Y60.527 E0.08736
G1 X54.896 Y60.525 E0.08737
G1 X53.697 Y59.326 E0.08816
G1 X53.699 Y59.314 E0.08817
G1 X54.908 Y60.523 E0.08897
G1 X54.92 Y60.521 E0.08898
G1 X53.701 Y59.302 E0.08979
G1 X53.704 Y59.29 E0.0898
G1 X54.932 Y60.518 E0.09061
G1 X54.944 Y60.516 E0.09062
G1 X53.706 Y59.278 E0.09144
G1 X53.709 Y59.267 E0.09145
G1 X54.956 Y60.513 E0.09228
G1 X54.967 Y60.511 E0.09228
G1 X53.711 Y59.255 E0.09312
G1 X53.714 Y59.244 E0.09312
G1 X54.979 Y60.509 E0.09396
G1 X54.991 Y60.506 E0.09397
G1 X53.716 Y59.232 E0.09482
G1 X53.719 Y59.22 E0.09482
G1 X55.002 Y60.504 E0.09568
G1 X55.014 Y60.501 E0.09568
G1 X53.721 Y59.208 E0.09654
G1 X53.717 Y59.19 E0.09655
G1 X55.026 Y60.499 E0.09742
G1 X55.038 Y60.497 E0.09743
G1 X53.704 Y59.163 E0.09831
G1 X53.691 Y59.135 E0.09833
G1 X55.05 Y60.494 E0.09923
G1 X55.062 Y60.492 E0.09924
G1 X53.677 Y59.108 E0.10016
G1 X53.664 Y59.08 E0.10017
G1 X55.073 Y60.489 E0.10111
G1 X55.085 Y60.487 E0.10112
G1 X53.65 Y59.053 E0.10207
G1 X53.637 Y59.025 E0.10208
G1 X55.097 Y60.485 E0.10306
G1 X55.108 Y60.482 E0.10306
G1 X53.623 Y58.997 E0.10405
G1 X53.61 Y58.97 E0.10406
G1 X55.12 Y60.48 E0.10507
G1 X55.132 Y60.478 E0.10507
G1 X53.521 Y58.867 E0.10614
G1 X53.423 Y58.755 E0.10621
G1 X55.144 Y60.475 E0.10736
G1 X55.156 Y60.473 E0.10736
G1 X53.406 Y58.724 E0.10853
G1 X53.399 Y58.702 E0.10854
G1 X55.168 Y60.471 E0.10972
G1 X55.18 Y60.47 E0.10972
G1 X53.391 Y58.68 E0.11091
G1 X53.383 Y58.658 E0.11092
G1 X55.193 Y60.468 E0.11213
G1 X55.206 Y60.467 E0.11213
G1 X53.375 Y58.636 E0.11335
G1 X53.367 Y58.614 E0.11336
G1 X55.218 Y60.465 E0.11459
G1 X55.231 Y60.463 E0.1146
G1 X53.359 Y58.592 E0.11584
G1 X53.351 Y58.57 E0.11585
G1 X55.243 Y60.462 E0.11711
G1 X55.256 Y60.46 E0.11712
G1 X53.343 Y58.548 E0.11839
G1 X53.336 Y58.526 E0.1184
G1 X55.268 Y60.458 E0.11969
G1 X55.281 Y60.457 E0.11969
G1 X53.328 Y58.504 E0.12099
G1 X53.319 Y58.481 E0.121
G1 X55.294 Y60.456 E0.12232
G1 X55.306 Y60.454 E0.12232
G1 X53.312 Y58.459 E0.12365
G1 X53.304 Y58.437 E0.12366
G1 X55.318 Y60.452 E0.125
G1 X55.331 Y60.451 E0.125
G1 X53.296 Y58.416 E0.12636
G1 X53.288 Y58.394 E0.12637
G1 X55.344 Y60.449 E0.12774
G1 X55.356 Y60.447 E0.12774
G1 X53.28 Y58.371 E0.12912
G1 X53.272 Y58.349 E0.12913
G1 X55.369 Y60.446 E0.13053
G1 X55.381 Y60.444 E0.13053
G1 X53.264 Y58.327 E0.13194
G1 X53.256 Y58.305 E0.13195
G1 X55.394 Y60.443 E0.13337
G1 X55.406 Y60.441 E0.13338
G1 X53.249 Y58.283 E0.13482
G1 X53.241 Y58.261 E0.13483
G1 X55.419 Y60.439 E0.13627
G1 X55.432 Y60.438 E0.13628
G1 X53.232 Y58.239 E0.13774
G1 X53.225 Y58.217 E0.13775
G1 X55.444 Y60.436 E0.13923
G1 X55.456 Y60.434 E0.13924
G1 X53.22 Y58.198 E0.14072
G1 X53.22 Y58.184 E0.14073
G1 X55.469 Y60.433 E0.14223
G1 X55.482 Y60.431 E0.14223
G1 X53.221 Y58.171 E0.14373
G1 X53.221 Y58.157 E0.14374
G1 X55.494 Y60.43 E0.14525
G1 X55.506 Y60.428 E0.14526
G1 X53.222 Y58.143 E0.14678
G1 X53.223 Y58.13 E0.14678
G1 X55.519 Y60.427 E0.14831
G1 X55.532 Y60.425 E0.14832
G1 X53.223 Y58.116 E0.14985
G1 X53.223 Y58.102 E0.14986
G1 X55.545 Y60.424 E0.1514
G1 X55.557 Y60.422 E0.15141
G1 X53.223 Y58.088 E0.15296
G1 X53.224 Y58.075 E0.15297
G1 X55.569 Y60.42 E0.15453
G1 X55.582 Y60.419 E0.15453
G1 X53.224 Y58.061 E0.1561
G1 X53.225 Y58.047 E0.15611
G1 X55.595 Y60.417 E0.15768
G1 X55.607 Y60.415 E0.15769
G1 X53.225 Y58.034 E0.15927
G1 X53.225 Y58.02 E0.15928
G1 X55.62 Y60.414 E0.16087
G1 X55.632 Y60.412 E0.16088
G1 X53.226 Y58.006 E0.16248
G1 X53.226 Y57.992 E0.16249
G1 X55.645 Y60.411 E0.16409
G1 X55.657 Y60.409 E0.1641
G1 X53.227 Y57.979 E0.16572
G1 X53.227 Y57.964 E0.16572
G1 X55.67 Y60.407 E0.16735
G1 X55.683 Y60.406 E0.16735
G1 X53.227 Y57.951 E0.16899
G1 X53.228 Y57.938 E0.16899
G1 X55.695 Y60.405 E0.17063
G1 X55.707 Y60.402 E0.17064
G1 X53.228 Y57.923 E0.17229
G1 X53.229 Y57.91 E0.17229
G1 X55.72 Y60.401 E0.17395
G1 X55.733 Y60.4 E0.17396
G1 X53.229 Y57.896 E0.17562
G1 X53.23 Y57.882 E0.17563
G1 X55.745 Y60.398 E0.1773
G1 X55.757 Y60.396 E0.17731
G1 X53.23 Y57.868 E0.17899
G1 X53.23 Y57.855 E0.179
G1 X55.77 Y60.395 E0.18068
G1 X55.783 Y60.393 E0.18069
G1 X53.23 Y57.841 E0.18239
G1 X53.231 Y57.827 E0.18239
G1 X55.795 Y60.391 E0.1841
G1 X55.808 Y60.39 E0.18411
G1 X53.232 Y57.814 E0.18582
G1 X53.232 Y57.8 E0.18583
G1 X55.82 Y60.388 E0.18755
G1 X55.833 Y60.387 E0.18755
G1 X53.232 Y57.786 E0.18928
G1 X53.232 Y57.772 E0.18929
G1 X55.845 Y60.385 E0.19103
G1 X55.858 Y60.383 E0.19103
G1 X53.233 Y57.759 E0.19278
G1 X53.233 Y57.744 E0.19279
G1 X55.871 Y60.382 E0.19454
G1 X55.883 Y60.381 E0.19455
G1 X53.234 Y57.731 E0.19631
G1 X53.235 Y57.718 E0.19631
G1 X55.895 Y60.378 E0.19808
G1 X55.908 Y60.377 E0.19809
G1 X53.235 Y57.703 E0.19987
G1 X53.235 Y57.69 E0.19987
G1 X55.921 Y60.376 E0.20166
G1 X55.934 Y60.374 E0.20167
G1 X53.235 Y57.676 E0.20346
G1 X53.236 Y57.662 E0.20347
G1 X55.946 Y60.372 E0.20527
G1 X55.958 Y60.371 E0.20528
G1 X53.236 Y57.648 E0.20709
G1 X53.237 Y57.635 E0.20709
G1 X55.971 Y60.369 E0.20891
G1 X55.984 Y60.368 E0.20892
