;FLAVOR:Marlin
;TIME:6666
;Filament used: 0m
;Layer height: 0.4
;MINX:2.14748e+06
;MINY:2.14748e+06
;MINZ:2.14748e+06
;MAXX:-2.14748e+06
;MAXY:-2.14748e+06
;MAXZ:-2.14748e+06
;TARGET_MACHINE.NAME:Pather

;Generated with Cura_SteamEngine 5.9.1
M104 S215
M105
M109 S215
M82 ;absolute extrusion mode
G28 ;Home
G1 Z15.0 F6000 ;Move the platform down 15mm
;Prime the extruder
G92 E0
G1 F200 E3
G92 E0
G92 E0
G92 E0
G1 F1500 E-6.5
;LAYER_COUNT:25
;LAYER:0
;note -- min layer time used
M106 S255
M204 S3000
M205 X20 Y20
;MESH:stl/cat_0.00217391x.stl
G0 F3600 X50.889 Y50.984 Z0.3
;TYPE:WALL-OUTER
G1 F1500 E0
G1 F600 X50.888 Y50.907 E0.00004
G0 F3600 X50.751 Y50.638
G1 F600 X50.798 Y50.995 E0.00021
G1 X50.402 Y51.042 E0.00039
G1 X50.345 Y50.981 E0.00043
G1 X50.298 Y50.413 E0.0007
G1 X50.423 Y50.108 E0.00086
G1 X50.489 Y50.157 E0.00089
G1 X50.669 Y50.181 E0.00098
G1 X50.603 Y50.398 E0.00109
G1 X50.751 Y50.638 E0.00122
G0 F3600 X50.777 Y50.836
M104 S0
;MESH:NONMESH
G0 F600 X50.777 Y50.836 Z0.7
G0 F3600 X50.889 Y50.984
;TIME_ELAPSED:3.551250
;LAYER:1
;note -- min layer time used
;TYPE:WALL-OUTER
;MESH:stl/cat_0.00217391x.stl
G1 F600 X50.888 Y50.907 E0.00127
M204 S4000
M205 X25 Y25
G0 F5400 X50.751 Y50.638
M204 S3000
M205 X20 Y20
G1 F600 X50.798 Y50.995 E0.00149
G1 X50.402 Y51.042 E0.00174
G1 X50.345 Y50.981 E0.0018
G1 X50.298 Y50.413 E0.00215
G1 X50.423 Y50.108 E0.00236
G1 X50.489 Y50.157 E0.00241
G1 X50.669 Y50.181 E0.00252
G1 X50.603 Y50.398 E0.00267
G1 X50.751 Y50.638 E0.00284
M204 S4000
M205 X25 Y25
G0 F5400 X50.777 Y50.836
;MESH:NONMESH
G0 F600 X50.777 Y50.836 Z1.1
G0 F5400 X50.751 Y50.638
;TIME_ELAPSED:3.947919
;LAYER:2
;note -- min layer time used
M204 S3000
M205 X20 Y20
;TYPE:WALL-OUTER
;MESH:stl/cat_0.00217391x.stl
G1 F600 X50.791 Y50.897 E0.00301
G1 X50.919 Y50.909 E0.00309
G1 X50.922 Y50.979 E0.00313
G1 X50.402 Y51.042 E0.00346
G1 X50.345 Y50.981 E0.00351
G1 X50.298 Y50.413 E0.00387
G1 X50.423 Y50.108 E0.00408
G1 X50.489 Y50.157 E0.00413
G1 X50.669 Y50.181 E0.00424
G1 X50.603 Y50.398 E0.00438
G1 X50.751 Y50.638 E0.00456
M204 S5000
M205 X30 Y30
G0 F7200 X50.781 Y50.835
G0 X50.574 Y50.815
M204 S3000
M205 X20 Y20
;TYPE:SKIN
G1 F600 X50.519 Y50.638 E0.00468
G1 X50.534 Y50.82 E0.00479
G1 X50.574 Y50.815 E0.00482
M204 S5000
M205 X30 Y30
G0 F7200 X50.587 Y50.748
G0 X50.552 Y50.798
M204 S3000
M205 X20 Y20
G1 F1500 X50.541 Y50.706 E0.00484
G1 X50.552 Y50.798 E0.00486
M204 S5000
M205 X30 Y30
G0 F7200 X50.515 Y50.81
G0 X50.563 Y50.806
M204 S3000
M205 X20 Y20
G1 F600 X50.532 Y50.678 E0.00495
G1 X50.543 Y50.809 E0.00503
G1 X50.563 Y50.806 E0.00504
M204 S5000
M205 X30 Y30
G0 F7200 X50.573 Y50.779
G0 X50.586 Y50.823
M204 S3000
M205 X20 Y20
G1 F600 X50.506 Y50.598 E0.00519
G1 X50.525 Y50.831 E0.00534
G1 X50.586 Y50.823 E0.00538
M204 S5000
M205 X30 Y30
G0 F7200 X50.597 Y50.832
M204 S3000
M205 X20 Y20
G1 F600 X50.576 Y50.693 E0.00546
G1 X50.493 Y50.558 E0.00556
G1 X50.516 Y50.843 E0.00574
G1 X50.597 Y50.832 E0.00579
M204 S5000
M205 X30 Y30
G0 F7200 X50.609 Y50.841
M204 S3000
M205 X20 Y20
G1 F600 X50.585 Y50.69 E0.00589
G1 X50.48 Y50.518 E0.00602
G1 X50.506 Y50.854 E0.00623
G1 X50.609 Y50.841 E0.00629
M204 S5000
M205 X30 Y30
G0 F7200 X50.62 Y50.849
M204 S3000
M205 X20 Y20
G1 F600 X50.595 Y50.686 E0.0064
G1 X50.467 Y50.478 E0.00655
G1 X50.497 Y50.865 E0.00679
G1 X50.62 Y50.849 E0.00687
M204 S5000
M205 X30 Y30
G0 F7200 X50.632 Y50.858
M204 S3000
M205 X20 Y20
G1 F600 X50.604 Y50.683 E0.00698
G1 X50.462 Y50.398 E0.00718
G1 X50.488 Y50.876 E0.00748
G1 X50.632 Y50.858 E0.00757
M204 S5000
M205 X30 Y30
G0 F7200 X50.441 Y50.431
M204 S3000
M205 X20 Y20
G1 F750 X50.479 Y50.888 E0.0078
G1 F600 X50.643 Y50.867 E0.00791
G1 X50.614 Y50.679 E0.00803
G1 F750 X50.47 Y50.43 E0.00817
G1 F1500 X50.472 Y50.352 E0.00819
G1 X50.441 Y50.431 E0.00821
M204 S5000
M205 X30 Y30
G0 F7200 X50.47 Y50.899
M204 S3000
M205 X20 Y20
G1 F600 X50.654 Y50.875 E0.00833
G1 X50.623 Y50.676 E0.00845
G1 X50.477 Y50.428 E0.00863
G1 X50.494 Y50.289 E0.00872
G1 X50.434 Y50.43 E0.00882
G1 X50.47 Y50.899 E0.00911
M204 S5000
M205 X30 Y30
G0 F7200 X50.46 Y50.91
M204 S3000
M205 X20 Y20
G1 F600 X50.666 Y50.884 E0.00924
G1 X50.633 Y50.672 E0.00938
G1 X50.486 Y50.425 E0.00956
G1 X50.51 Y50.279 E0.00965
G1 X50.424 Y50.428 E0.00976
G1 X50.46 Y50.91 E0.01006
M204 S5000
M205 X30 Y30
G0 F7200 X50.472 Y50.352
M204 S3000
M205 X20 Y20
G1 F600 X50.494 Y50.289
M204 S5000
M205 X30 Y30
G0 F7200 X50.451 Y50.921
M204 S3000
M205 X20 Y20
G1 F600 X50.679 Y50.894 E0.01021
G1 X50.642 Y50.669 E0.01035
G1 X50.496 Y50.423 E0.01053
G1 X50.523 Y50.271 E0.01062
G1 X50.479 Y50.264 E0.01065
G1 X50.414 Y50.427 E0.01076
G1 X50.451 Y50.921 E0.01107
M204 S5000
M205 X30 Y30
G0 F7200 X50.442 Y50.933
M204 S3000
M205 X20 Y20
G1 F600 X50.695 Y50.901 E0.01123
G1 X50.652 Y50.665 E0.01138
G1 X50.506 Y50.42 E0.01156
G1 X50.536 Y50.262 E0.01166
G1 X50.472 Y50.252 E0.0117
G1 X50.404 Y50.425 E0.01182
G1 X50.442 Y50.933 E0.01214
M204 S5000
M205 X30 Y30
G0 F7200 X50.436 Y50.94
M204 S3000
M205 X20 Y20
G1 F600 X50.714 Y50.909 E0.01232
G1 X50.661 Y50.662 E0.01247
G1 X50.516 Y50.417 E0.01265
G1 X50.549 Y50.254 E0.01276
G1 X50.467 Y50.24 E0.01281
G1 X50.393 Y50.424 E0.01293
G1 X50.436 Y50.94 E0.01326
M204 S5000
M205 X30 Y30
G0 F7200 X50.424 Y50.955
M204 S3000
M205 X20 Y20
G1 F600 X50.733 Y50.916 E0.01345
G1 X50.671 Y50.658 E0.01362
G1 X50.525 Y50.415 E0.0138
G1 X50.562 Y50.246 E0.01391
G1 X50.461 Y50.227 E0.01397
G1 X50.383 Y50.422 E0.0141
G1 X50.424 Y50.955 E0.01444
M204 S5000
M205 X30 Y30
G0 F7200 X50.414 Y50.967
M204 S3000
M205 X20 Y20
G1 F600 X50.752 Y50.924 E0.01465
G1 X50.68 Y50.655 E0.01483
G1 X50.535 Y50.412 E0.015
G1 X50.575 Y50.238 E0.01511
G1 X50.456 Y50.214 E0.01519
G1 X50.373 Y50.42 E0.01533
G1 X50.414 Y50.967 E0.01567
M204 S5000
M205 X30 Y30
G0 F7200 X50.771 Y50.932
M204 S3000
M205 X20 Y20
G1 F600 X50.727 Y50.887 E0.01571
G1 X50.69 Y50.651 E0.01586
G1 X50.545 Y50.409 E0.01604
G1 X50.588 Y50.23 E0.01616
G1 X50.45 Y50.202 E0.01624
G1 X50.363 Y50.419 E0.01639
G1 X50.406 Y50.977 E0.01674
G1 X50.771 Y50.932 E0.01697
M204 S5000
M205 X30 Y30
G0 F7200 X50.78 Y50.931
M204 S3000
M205 X20 Y20
G1 F600 X50.737 Y50.885 E0.01701
G1 X50.699 Y50.648 E0.01716
G1 X50.554 Y50.407 E0.01734
G1 X50.601 Y50.222 E0.01746
G1 X50.445 Y50.185 E0.01756
G1 X50.353 Y50.417 E0.01771
G1 X50.396 Y50.989 E0.01807
G1 X50.78 Y50.931 E0.01832
M204 S5000
M205 X30 Y30
G0 F7200 X50.709 Y50.644
M204 S3000
M205 X20 Y20
G1 F600 X50.564 Y50.404 E0.01849
G1 X50.613 Y50.213 E0.01862
G1 X50.441 Y50.17 E0.01873
G1 X50.342 Y50.416 E0.01889
G1 X50.384 Y50.961 E0.01924
G1 X50.415 Y50.996 E0.01927
G1 X50.875 Y50.94 E0.01956
G1 X50.747 Y50.884 E0.01965
G1 X50.709 Y50.644 E0.0198
M204 S5000
M205 X30 Y30
G0 F7200 X50.718 Y50.641
M204 S3000
M205 X20 Y20
G1 F600 X50.574 Y50.402 E0.01997
G1 X50.626 Y50.205 E0.0201
G1 X50.436 Y50.155 E0.02022
G1 X50.332 Y50.414 E0.0204
G1 X50.374 Y50.965 E0.02074
G1 X50.411 Y51.007 E0.02078
G1 X50.885 Y50.948 E0.02108
G1 X50.757 Y50.882 E0.02117
G1 X50.718 Y50.641 E0.02132
M204 S5000
M205 X30 Y30
G0 F7200 X50.728 Y50.637
M204 S3000
M205 X20 Y20
G1 F600 X50.583 Y50.399 E0.0215
G1 X50.639 Y50.197 E0.02163
G1 X50.432 Y50.139 E0.02176
G1 X50.322 Y50.412 E0.02195
G1 X50.365 Y50.969 E0.0223
G1 X50.407 Y51.017 E0.02234
G1 X50.895 Y50.957 E0.02265
G1 X50.895 Y50.924 E0.02267
G1 X50.767 Y50.88 E0.02275
G1 X50.728 Y50.637 E0.02291
M204 S5000
M205 X30 Y30
G0 F7200 X50.737 Y50.634
M204 S3000
M205 X20 Y20
G1 F600 X50.593 Y50.396 E0.02308
G1 X50.652 Y50.189 E0.02322
G1 X50.427 Y50.124 E0.02336
G1 X50.312 Y50.411 E0.02356
G1 X50.355 Y50.973 E0.02391
G1 X50.403 Y51.028 E0.02396
G1 X50.905 Y50.966 E0.02427
G1 X50.905 Y50.916 E0.0243
G1 X50.777 Y50.879 E0.02439
G1 X50.737 Y50.634 E0.02454
M204 S5000
M205 X30 Y30
G0 F7200 X50.747 Y50.63
M204 S3000
M205 X20 Y20
G1 F600 X50.603 Y50.394 E0.02472
G1 X50.665 Y50.181 E0.02486
G1 X50.423 Y50.108 E0.02501
G1 X50.302 Y50.409 E0.02522
G1 X50.345 Y50.977 E0.02558
G1 X50.399 Y51.038 E0.02563
G1 X50.915 Y50.975 E0.02595
G1 X50.915 Y50.908 E0.02599
G1 X50.79 Y50.881 E0.02607
G1 X50.747 Y50.63 E0.02623
M204 S5000
M205 X30 Y30
G0 F7200 X50.759 Y50.63
M204 S3000
M205 X20 Y20
G1 F600 X50.615 Y50.394 E0.02641
G1 X50.681 Y50.173 E0.02655
G1 X50.489 Y50.144 E0.02667
G1 X50.419 Y50.092 E0.02673
G1 X50.29 Y50.409 E0.02694
G1 X50.337 Y50.985 E0.02731
G1 X50.395 Y51.05 E0.02736
G1 X50.93 Y50.987 E0.0277
G1 X50.927 Y50.901 E0.02775
G1 X50.799 Y50.877 E0.02783
G1 X50.759 Y50.63 E0.02799
M204 S5000
M205 X30 Y30
;MESH:NONMESH
G0 X50.759 Y50.63 Z1.5
G0 F7200 X50.751 Y50.638
;TIME_ELAPSED:8.266564
;LAYER:3
;note -- min layer time used
M204 S3000
M205 X20 Y20
;TYPE:WALL-OUTER
;MESH:stl/cat_0.00217391x.stl
G1 F600 X50.791 Y50.897 E0.02815
G1 X50.919 Y50.909 E0.02824
G1 X50.922 Y50.979 E0.02828
G1 X50.402 Y51.042 E0.02861
G1 X50.345 Y50.981 E0.02866
G1 X50.298 Y50.413 E0.02902
G1 X50.423 Y50.108 E0.02922
G1 X50.489 Y50.157 E0.02928
G1 X50.669 Y50.181 E0.02939
G1 X50.603 Y50.398 E0.02953
G1 X50.751 Y50.638 E0.02971
M204 S5000
M205 X30 Y30
G0 F7200 X50.781 Y50.835
G0 X50.574 Y50.815
M204 S3000
M205 X20 Y20
;TYPE:SKIN
G1 F600 X50.519 Y50.638 E0.02982
G1 X50.534 Y50.82 E0.02994
G1 X50.574 Y50.815 E0.02996
M204 S5000
M205 X30 Y30
G0 F7200 X50.587 Y50.748
G0 X50.552 Y50.798
M204 S3000
M205 X20 Y20
G1 F1500 X50.541 Y50.706 E0.02999
G1 X50.552 Y50.798 E0.03001
M204 S5000
M205 X30 Y30
G0 F7200 X50.515 Y50.81
G0 X50.563 Y50.806
M204 S3000
M205 X20 Y20
G1 F600 X50.532 Y50.678 E0.03009
G1 X50.543 Y50.809 E0.03018
G1 X50.563 Y50.806 E0.03019
M204 S5000
M205 X30 Y30
G0 F7200 X50.573 Y50.779
G0 X50.586 Y50.823
M204 S3000
M205 X20 Y20
G1 F600 X50.506 Y50.598 E0.03034
G1 X50.525 Y50.831 E0.03049
G1 X50.586 Y50.823 E0.03052
M204 S5000
M205 X30 Y30
G0 F7200 X50.597 Y50.832
M204 S3000
M205 X20 Y20
G1 F600 X50.576 Y50.693 E0.03061
G1 X50.493 Y50.558 E0.03071
G1 X50.516 Y50.843 E0.03089
G1 X50.597 Y50.832 E0.03094
M204 S5000
M205 X30 Y30
G0 F7200 X50.609 Y50.841
M204 S3000
M205 X20 Y20
G1 F600 X50.585 Y50.69 E0.03104
G1 X50.48 Y50.518 E0.03116
G1 X50.506 Y50.854 E0.03138
G1 X50.609 Y50.841 E0.03144
M204 S5000
M205 X30 Y30
G0 F7200 X50.62 Y50.849
M204 S3000
M205 X20 Y20
G1 F600 X50.595 Y50.686 E0.03154
G1 X50.467 Y50.478 E0.0317
G1 X50.497 Y50.865 E0.03194
G1 X50.62 Y50.849 E0.03202
M204 S5000
M205 X30 Y30
G0 F7200 X50.632 Y50.858
M204 S3000
M205 X20 Y20
G1 F600 X50.604 Y50.683 E0.03213
G1 X50.462 Y50.398 E0.03233
G1 X50.488 Y50.876 E0.03263
G1 X50.632 Y50.858 E0.03272
M204 S5000
M205 X30 Y30
G0 F7200 X50.441 Y50.431
M204 S3000
M205 X20 Y20
G1 F750 X50.479 Y50.888 E0.03295
G1 F600 X50.643 Y50.867 E0.03305
G1 X50.614 Y50.679 E0.03317
G1 F750 X50.47 Y50.43 E0.03332
G1 F1500 X50.472 Y50.352 E0.03334
G1 X50.441 Y50.431 E0.03336
M204 S5000
M205 X30 Y30
G0 F7200 X50.47 Y50.899
M204 S3000
M205 X20 Y20
G1 F600 X50.654 Y50.875 E0.03347
G1 X50.623 Y50.676 E0.0336
G1 X50.477 Y50.428 E0.03378
G1 X50.494 Y50.289 E0.03387
G1 X50.434 Y50.43 E0.03396
G1 X50.47 Y50.899 E0.03426
M204 S5000
M205 X30 Y30
G0 F7200 X50.46 Y50.91
M204 S3000
M205 X20 Y20
G1 F600 X50.666 Y50.884 E0.03439
G1 X50.633 Y50.672 E0.03452
G1 X50.486 Y50.425 E0.0347
G1 X50.51 Y50.279 E0.0348
G1 X50.424 Y50.428 E0.03491
G1 X50.46 Y50.91 E0.03521
M204 S5000
M205 X30 Y30
G0 F7200 X50.472 Y50.352
M204 S3000
M205 X20 Y20
G1 F600 X50.494 Y50.289
M204 S5000
M205 X30 Y30
G0 F7200 X50.451 Y50.921
M204 S3000
M205 X20 Y20
G1 F600 X50.679 Y50.894 E0.03535
G1 X50.642 Y50.669 E0.0355
G1 X50.496 Y50.423 E0.03567
G1 X50.523 Y50.271 E0.03577
G1 X50.479 Y50.264 E0.0358
G1 X50.414 Y50.427 E0.03591
G1 X50.451 Y50.921 E0.03622
M204 S5000
M205 X30 Y30
G0 F7200 X50.442 Y50.933
M204 S3000
M205 X20 Y20
G1 F600 X50.695 Y50.901 E0.03638
G1 X50.652 Y50.665 E0.03653
G1 X50.506 Y50.42 E0.03671
G1 X50.536 Y50.262 E0.03681
G1 X50.472 Y50.252 E0.03685
G1 X50.404 Y50.425 E0.03697
G1 X50.442 Y50.933 E0.03729
M204 S5000
M205 X30 Y30
G0 F7200 X50.436 Y50.94
M204 S3000
M205 X20 Y20
G1 F600 X50.714 Y50.909 E0.03746
G1 X50.661 Y50.662 E0.03762
G1 X50.516 Y50.417 E0.0378
G1 X50.549 Y50.254 E0.0379
G1 X50.467 Y50.24 E0.03796
G1 X50.393 Y50.424 E0.03808
G1 X50.436 Y50.94 E0.0384
M204 S5000
M205 X30 Y30
G0 F7200 X50.424 Y50.955
M204 S3000
M205 X20 Y20
G1 F600 X50.733 Y50.916 E0.0386
G1 X50.671 Y50.658 E0.03877
G1 X50.525 Y50.415 E0.03894
G1 X50.562 Y50.246 E0.03905
G1 X50.461 Y50.227 E0.03912
G1 X50.383 Y50.422 E0.03925
G1 X50.424 Y50.955 E0.03958
M204 S5000
M205 X30 Y30
G0 F7200 X50.414 Y50.967
M204 S3000
M205 X20 Y20
G1 F600 X50.752 Y50.924 E0.0398
G1 X50.68 Y50.655 E0.03997
G1 X50.535 Y50.412 E0.04015
G1 X50.575 Y50.238 E0.04026
G1 X50.456 Y50.214 E0.04034
G1 X50.373 Y50.42 E0.04048
G1 X50.414 Y50.967 E0.04082
M204 S5000
M205 X30 Y30
G0 F7200 X50.771 Y50.932
M204 S3000
M205 X20 Y20
G1 F600 X50.727 Y50.887 E0.04086
G1 X50.69 Y50.651 E0.04101
G1 X50.545 Y50.409 E0.04119
G1 X50.588 Y50.23 E0.0413
G1 X50.45 Y50.202 E0.04139
G1 X50.363 Y50.419 E0.04154
G1 X50.406 Y50.977 E0.04189
G1 X50.771 Y50.932 E0.04212
M204 S5000
M205 X30 Y30
G0 F7200 X50.78 Y50.931
M204 S3000
M205 X20 Y20
G1 F600 X50.737 Y50.885 E0.04216
G1 X50.699 Y50.648 E0.04231
G1 X50.554 Y50.407 E0.04248
G1 X50.601 Y50.222 E0.0426
G1 X50.445 Y50.185 E0.04271
G1 X50.353 Y50.417 E0.04286
G1 X50.396 Y50.989 E0.04322
G1 X50.78 Y50.931 E0.04346
M204 S5000
M205 X30 Y30
G0 F7200 X50.709 Y50.644
M204 S3000
M205 X20 Y20
G1 F600 X50.564 Y50.404 E0.04364
G1 X50.613 Y50.213 E0.04376
G1 X50.441 Y50.17 E0.04388
G1 X50.342 Y50.416 E0.04404
G1 X50.384 Y50.961 E0.04438
G1 X50.415 Y50.996 E0.04441
G1 X50.875 Y50.94 E0.0447
G1 X50.747 Y50.884 E0.04479
G1 X50.709 Y50.644 E0.04494
M204 S5000
M205 X30 Y30
G0 F7200 X50.718 Y50.641
M204 S3000
M205 X20 Y20
G1 F600 X50.574 Y50.402 E0.04512
G1 X50.626 Y50.205 E0.04525
G1 X50.436 Y50.155 E0.04537
G1 X50.332 Y50.414 E0.04555
G1 X50.374 Y50.965 E0.04589
G1 X50.411 Y51.007 E0.04593
G1 X50.885 Y50.948 E0.04623
G1 X50.757 Y50.882 E0.04632
G1 X50.718 Y50.641 E0.04647
M204 S5000
M205 X30 Y30
G0 F7200 X50.728 Y50.637
M204 S3000
M205 X20 Y20
G1 F600 X50.583 Y50.399 E0.04664
G1 X50.639 Y50.197 E0.04678
G1 X50.432 Y50.139 E0.04691
G1 X50.322 Y50.412 E0.0471
G1 X50.365 Y50.969 E0.04745
G1 X50.407 Y51.017 E0.04749
G1 X50.895 Y50.957 E0.04779
G1 X50.895 Y50.924 E0.04781
G1 X50.767 Y50.88 E0.0479
G1 X50.728 Y50.637 E0.04805
M204 S5000
M205 X30 Y30
G0 F7200 X50.737 Y50.634
M204 S3000
M205 X20 Y20
G1 F600 X50.593 Y50.396 E0.04823
G1 X50.652 Y50.189 E0.04836
G1 X50.427 Y50.124 E0.04851
G1 X50.312 Y50.411 E0.0487
G1 X50.355 Y50.973 E0.04906
G1 X50.403 Y51.028 E0.0491
G1 X50.905 Y50.966 E0.04942
G1 X50.905 Y50.916 E0.04945
G1 X50.777 Y50.879 E0.04953
G1 X50.737 Y50.634 E0.04969
M204 S5000
M205 X30 Y30
G0 F7200 X50.747 Y50.63
M204 S3000
M205 X20 Y20
G1 F600 X50.603 Y50.394 E0.04986
G1 X50.665 Y50.181 E0.05
G1 X50.423 Y50.108 E0.05016
G1 X50.302 Y50.409 E0.05036
G1 X50.345 Y50.977 E0.05072
G1 X50.399 Y51.038 E0.05077
G1 X50.915 Y50.975 E0.0511
G1 X50.915 Y50.908 E0.05114
G1 X50.79 Y50.881 E0.05122
G1 X50.747 Y50.63 E0.05138
M204 S5000
M205 X30 Y30
G0 F7200 X50.759 Y50.63
M204 S3000
M205 X20 Y20
G1 F600 X50.615 Y50.394 E0.05155
G1 X50.681 Y50.173 E0.0517
G1 X50.489 Y50.144 E0.05182
G1 X50.419 Y50.092 E0.05188
G1 X50.29 Y50.409 E0.05209
G1 X50.337 Y50.985 E0.05245
G1 X50.395 Y51.05 E0.05251
G1 X50.93 Y50.987 E0.05284
G1 X50.927 Y50.901 E0.0529
G1 X50.799 Y50.877 E0.05298
G1 X50.759 Y50.63 E0.05314
M204 S5000
