;FLAVOR:Marlin
;TIME:6666
;Filament used: 0m
;Layer height: 0.4
;MINX:2.14748e+06
;MINY:2.14748e+06
;MINZ:2.14748e+06
;MAXX:-2.14748e+06
;MAXY:-2.14748e+06
;MAXZ:-2.14748e+06
;TARGET_MACHINE.NAME:Pather

;Generated with Cura_SteamEngine 5.9.1
M104 S215
M105
M109 S215
M82 ;absolute extrusion mode
G28 ;Home
G1 Z15.0 F6000 ;Move the platform down 15mm
;Prime the extruder
G92 E0
G1 F200 E3
G92 E0
G92 E0
G92 E0
G1 F1500 E-6.5
;LAYER_COUNT:25
;LAYER:0
M107
M204 S3000
M205 X20 Y20
;MESH:stl/cat_0.0214592x.stl
G0 F3600 X57.828 Y58.844 Z0.3
;TYPE:WALL-OUTER
G1 F1500 E0
G1 F1800 X58.312 Y58.887 E0.00023
G1 X59.027 Y58.973 E0.00057
G1 X59.723 Y59.025 E0.0009
G1 X60.497 Y58.993 E0.00126
G1 X61.053 Y58.925 E0.00152
G1 X61.611 Y58.589 E0.00183
G1 X61.847 Y58.349 E0.00199
G1 X62.25 Y58.203 E0.00219
G1 X62.31 Y58.282 E0.00224
G1 X62.291 Y58.498 E0.00234
G1 X62.076 Y58.984 E0.00259
G1 X61.993 Y59.027 E0.00263
G1 X61.756 Y59.391 E0.00284
G1 X61.542 Y59.479 E0.00294
G1 X61.496 Y59.544 E0.00298
G1 X61.33 Y59.627 E0.00307
G1 X60.866 Y59.67 E0.00329
G1 X60.114 Y59.671 E0.00364
G1 X59.329 Y59.643 E0.00401
G1 X58.333 Y59.727 E0.00448
G1 X57.495 Y59.831 E0.00488
G1 X57.274 Y59.979 E0.005
G1 X56.439 Y60.123 E0.0054
G1 X56.26 Y60.123 E0.00549
G1 X55.063 Y60.251 E0.00605
G1 X54.655 Y60.379 E0.00625
G1 X54.229 Y60.402 E0.00645
G1 X53.864 Y60.359 E0.00663
G1 X53.717 Y59.954 E0.00683
G1 X53.543 Y59.823 E0.00693
G1 X53.371 Y59.779 E0.00702
G1 X53.286 Y59.694 E0.00707
G1 X53.373 Y59.379 E0.00723
G1 X53.648 Y59.168 E0.00739
G1 X53.673 Y59.033 E0.00745
G1 X53.545 Y58.793 E0.00758
G1 X53.353 Y58.601 E0.00771
G1 X53.353 Y58.496 E0.00776
G1 X53.245 Y58.194 E0.00791
G1 X53.137 Y58.066 E0.00799
G1 X53.137 Y57.555 E0.00823
G1 X53.181 Y57.51 E0.00826
G1 X53.138 Y57.161 E0.00842
G1 X53.181 Y56.909 E0.00854
G1 X53.073 Y56.243 E0.00886
G1 X53.029 Y56.158 E0.00891
G1 X52.881 Y55.643 E0.00916
G1 X52.858 Y55.123 E0.0094
G1 X52.857 Y54.209 E0.00983
G1 X53.093 Y53.63 E0.01013
G1 X53.157 Y53.133 E0.01036
G1 X53.138 Y52.982 E0.01043
G1 X53.201 Y52.879 E0.01049
G1 X53.373 Y52.211 E0.01081
G1 X53.78 Y51.76 E0.0111
G1 X54.057 Y51.207 E0.01139
G1 X54.105 Y51.031 E0.01148
G1 X54.448 Y50.472 E0.01179
G1 X54.502 Y50.435 E0.01182
G1 X54.765 Y50.867 E0.01205
G1 X54.736 Y50.896 E0.01207
G1 X54.803 Y51.353 E0.01229
G1 X54.887 Y51.503 E0.01237
G1 X55.084 Y51.656 E0.01249
G1 X55.421 Y51.829 E0.01267
G1 X55.71 Y51.893 E0.01281
G1 X55.922 Y51.829 E0.01291
G1 X56.202 Y51.677 E0.01306
G1 X56.626 Y51.55 E0.01327
G1 X56.73 Y51.63 E0.01333
G1 X56.579 Y52.101 E0.01356
G1 X56.343 Y52.445 E0.01376
G1 X56.195 Y52.89 E0.01398
G1 X56.151 Y53.478 E0.01426
G1 X56.211 Y53.556 E0.0143
G1 X56.131 Y53.576 E0.01434
G1 X56.047 Y53.688 E0.01441
G1 X56.023 Y53.967 E0.01454
G1 X56.087 Y54.122 E0.01462
G1 X56.393 Y54.297 E0.01478
G1 X56.6 Y54.484 E0.01492
G1 X57.035 Y55.111 E0.01527
G1 X57.203 Y55.514 E0.01548
G1 X57.355 Y56.006 E0.01572
G1 X57.482 Y56.373 E0.0159
G1 X57.459 Y56.503 E0.01597
G1 X57.566 Y57.077 E0.01624
G1 X57.547 Y57.487 E0.01643
G1 X57.61 Y57.721 E0.01655
G1 X57.591 Y58.411 E0.01687
G1 X57.631 Y58.695 E0.01701
G1 X57.828 Y58.844 E0.01712
G0 F3600 X58.027 Y58.861
G0 X57.804 Y58.816
;TYPE:SKIN
G1 F1800 X59.075 Y58.965 E0.01773
G1 X59.723 Y59.013 E0.01803
G1 X60.497 Y58.981 E0.01839
G1 X61.049 Y58.913 E0.01866
G1 X61.603 Y58.581 E0.01896
G1 X61.843 Y58.337 E0.01912
G1 X62.25 Y58.19 E0.01932
G1 X62.318 Y58.278 E0.01938
G1 X62.299 Y58.502 E0.01948
G1 X62.084 Y58.988 E0.01973
G1 X61.994 Y59.039 E0.01978
G1 X61.76 Y59.395 E0.01998
G1 X61.546 Y59.487 E0.02009
G1 X61.504 Y59.552 E0.02013
G1 X61.334 Y59.635 E0.02022
G1 X60.875 Y59.678 E0.02043
G1 X60.122 Y59.679 E0.02079
G1 X59.333 Y59.651 E0.02116
G1 X58.379 Y59.727 E0.02161
G1 X57.499 Y59.839 E0.02203
G1 X57.278 Y59.987 E0.02215
G1 X56.443 Y60.131 E0.02255
G1 X56.256 Y60.131 E0.02264
G1 X55.067 Y60.259 E0.0232
G1 X54.655 Y60.387 E0.0234
G1 X54.229 Y60.41 E0.0236
G1 X53.852 Y60.363 E0.02378
G1 X53.709 Y59.958 E0.02398
G1 X53.539 Y59.831 E0.02408
G1 X53.367 Y59.783 E0.02417
G1 X53.274 Y59.694 E0.02423
G1 X53.361 Y59.372 E0.02439
G1 X53.636 Y59.164 E0.02455
G1 X53.661 Y59.037 E0.02461
G1 X53.533 Y58.797 E0.02474
G1 X53.341 Y58.601 E0.02487
G1 X53.341 Y58.496 E0.02491
G1 X53.237 Y58.194 E0.02506
G1 X53.125 Y58.07 E0.02514
G1 X53.125 Y57.551 E0.02539
G1 X53.169 Y57.506 E0.02542
G1 X53.13 Y57.157 E0.02558
G1 X53.169 Y56.909 E0.0257
G1 X53.061 Y56.243 E0.02602
G1 X53.013 Y56.154 E0.02606
G1 X52.846 Y55.568 E0.02635
G1 X52.845 Y54.209 E0.02699
G1 X53.085 Y53.626 E0.02729
G1 X53.145 Y53.133 E0.02752
G1 X53.126 Y52.978 E0.02759
G1 X53.189 Y52.875 E0.02765
G1 X53.365 Y52.203 E0.02798
G1 X53.768 Y51.756 E0.02826
G1 X54.045 Y51.199 E0.02855
G1 X54.093 Y51.027 E0.02864
G1 X54.44 Y50.464 E0.02895
G1 X54.502 Y50.42 E0.02898
G1 X54.716 Y50.817 E0.0292
G1 X54.765 Y50.818 E0.02922
G1 X54.811 Y51.349 E0.02947
G1 X54.891 Y51.495 E0.02955
G1 X55.084 Y51.644 E0.02966
G1 X55.421 Y51.817 E0.02984
G1 X55.706 Y51.881 E0.02998
G1 X55.91 Y51.821 E0.03008
G1 X56.198 Y51.665 E0.03023
G1 X56.626 Y51.538 E0.03044
G1 X56.738 Y51.626 E0.03051
G1 X56.587 Y52.105 E0.03075
G1 X56.351 Y52.445 E0.03094
G1 X56.203 Y52.886 E0.03116
G1 X56.159 Y53.475 E0.03144
G1 X56.223 Y53.56 E0.03149
G1 X56.134 Y53.583 E0.03153
G1 X56.056 Y53.684 E0.03159
G1 X56.031 Y53.967 E0.03172
G1 X56.091 Y54.114 E0.0318
G1 X56.397 Y54.289 E0.03196
G1 X56.6 Y54.472 E0.03209
G1 X57.043 Y55.103 E0.03245
G1 X57.211 Y55.514 E0.03266
G1 X57.486 Y56.405 E0.0331
G1 X57.467 Y56.503 E0.03315
G1 X57.574 Y57.073 E0.03342
G1 X57.555 Y57.483 E0.03361
G1 X57.618 Y57.717 E0.03373
G1 X57.599 Y58.407 E0.03405
G1 X57.639 Y58.691 E0.03419
G1 X57.804 Y58.816 E0.03429
G1 F1500 E-6.46571
G0 F3600 X58.257 Y58.221
G0 X60.831 Y58.281
G0 X61.224 Y58.82
G0 X61.774 Y59.356
G1 F1500 E0.03429
G1 F1800 X61.224 Y58.82 E0.03465
G1 X61.233 Y58.815 E0.03465
G1 X61.774 Y59.356 E0.03501
G0 F3600 X61.791 Y59.33
G1 F1800 X61.786 Y59.339 E0.03502
G1 X61.251 Y58.804 E0.03537
G1 X61.791 Y59.33 E0.03573
G0 F3600 X61.863 Y59.219
G1 F1800 X61.366 Y58.736 E0.03605
G1 X61.375 Y58.73 E0.03606
G1 X61.863 Y59.219 E0.03638
G0 F3600 X61.952 Y59.082
G1 F1800 X61.508 Y58.651 E0.03667
G1 X61.516 Y58.645 E0.03668
G1 X61.952 Y59.082 E0.03697
G0 F3600 X61.974 Y59.047
G1 F1800 X61.543 Y58.63 E0.03725
G1 X61.552 Y58.624 E0.03726
G1 X61.974 Y59.047 E0.03754
G0 F3600 X61.66 Y59.426
G1 F1800 X61.118 Y58.884 E0.0379
G1 X61.11 Y58.889 E0.0379
G1 X61.651 Y59.43 E0.03826
G1 X61.66 Y59.426 E0.03827
G1 F1500 E-6.46173
G0 F3600 X61.981 Y60.024
G0 X62.946 Y58.668
G0 X62.582 Y57.541
G0 X57.113 Y52.513
G0 X56.557 Y52.131
G1 F1500 E0.03827
G1 F1800 X56.128 Y51.716 E0.03855
G1 X56.137 Y51.711 E0.03855
G1 X56.557 Y52.131 E0.03883
G1 F1500 E-6.46117
G0 F3600 X57.113 Y52.513
G0 X57.501 Y51.401
G0 X55.452 Y51.112
G0 X54.819 Y51.383
G1 F1500 E0.03883
G1 F1800 X54.241 Y50.804 E0.03922
G1 X54.801 Y51.351 E0.03958
G1 X54.819 Y51.383 E0.0396
G1 F1500 E-6.4604
G0 F3600 X55.452 Y51.112
G0 X56.501 Y50.891
G0 X56.725 Y51.634
G1 F1500 E0.0396
G1 F1800 X56.624 Y51.55 E0.03966
G1 X56.715 Y51.666 E0.03973
G1 X56.594 Y51.559 E0.03981
G1 X56.708 Y51.687 E0.03989
G1 X56.572 Y51.566 E0.03997
G1 X56.701 Y51.709 E0.04006
G1 X56.551 Y51.573 E0.04016
G1 X56.694 Y51.731 E0.04026
G1 X56.529 Y51.579 E0.04037
G1 X56.691 Y51.741 E0.04047
G1 X56.518 Y51.582 E0.04058
G1 X56.685 Y51.763 E0.0407
G1 X56.496 Y51.588 E0.04082
G1 X56.674 Y51.795 E0.04095
G1 X56.463 Y51.598 E0.04108
G1 X56.668 Y51.817 E0.04123
G1 X56.453 Y51.602 E0.04137
G1 X56.664 Y51.827 E0.04151
G1 X56.431 Y51.608 E0.04166
G1 X56.653 Y51.859 E0.04182
G1 X56.397 Y51.617 E0.04199
G1 X56.647 Y51.881 E0.04216
G1 X56.376 Y51.624 E0.04233
G1 X56.643 Y51.892 E0.04251
G1 X56.365 Y51.627 E0.04269
G1 X56.636 Y51.913 E0.04288
G1 X56.332 Y51.637 E0.04307
G1 X56.63 Y51.935 E0.04327
G1 X56.321 Y51.64 E0.04347
G1 X56.623 Y51.956 E0.04368
G1 X56.299 Y51.646 E0.04389
G1 X56.617 Y51.978 E0.0441
G1 X56.267 Y51.656 E0.04433
G1 X56.606 Y52.01 E0.04456
G1 X56.245 Y51.663 E0.04479
G1 X56.602 Y52.02 E0.04503
G1 X56.6 Y52.032 E0.04504
G1 X56.234 Y51.666 E0.04528
G1 X56.223 Y51.669 E0.04528
G1 X56.596 Y52.042 E0.04553
G1 X56.593 Y52.053 E0.04554
G1 X56.212 Y51.673 E0.04579
G1 X56.201 Y51.675 E0.0458
G1 X56.589 Y52.064 E0.04605
G1 X56.586 Y52.074 E0.04606
G1 X56.192 Y51.681 E0.04632
G1 X56.183 Y51.686 E0.04633
G1 X56.583 Y52.085 E0.04659
G1 X56.579 Y52.096 E0.0466
G1 X56.174 Y51.691 E0.04687
G1 X56.165 Y51.696 E0.04687
G1 X56.574 Y52.105 E0.04714
G1 X56.569 Y52.114 E0.04715
G1 X56.156 Y51.701 E0.04742
G1 X56.146 Y51.706 E0.04743
G1 X56.563 Y52.122 E0.0477
G1 X56.545 Y52.147 E0.04772
G1 X56.119 Y51.721 E0.048
G1 X56.11 Y51.726 E0.04801
G1 X56.54 Y52.155 E0.04829
G1 X56.534 Y52.164 E0.0483
G1 X56.1 Y51.731 E0.04859
G1 X56.091 Y51.735 E0.04859
G1 X56.528 Y52.172 E0.04888
G1 X56.523 Y52.181 E0.04889
G1 X56.082 Y51.74 E0.04918
G1 X56.073 Y51.745 E0.04918
G1 X56.516 Y52.189 E0.04948
G1 X56.511 Y52.197 E0.04948
G1 X56.064 Y51.75 E0.04978
G1 X56.054 Y51.755 E0.04979
G1 X56.505 Y52.206 E0.05009
G1 X56.499 Y52.214 E0.05009
G1 X56.045 Y51.76 E0.05039
G1 X56.036 Y51.765 E0.0504
G1 X56.494 Y52.223 E0.0507
G1 X56.487 Y52.23 E0.05071
G1 X56.027 Y51.77 E0.05101
G1 X56.018 Y51.775 E0.05102
G1 X56.482 Y52.239 E0.05133
G1 X56.476 Y52.247 E0.05133
G1 X56.009 Y51.78 E0.05164
G1 X55.999 Y51.785 E0.05165
G1 X56.47 Y52.256 E0.05196
G1 X56.465 Y52.264 E0.05197
G1 X55.99 Y51.79 E0.05228
G1 X55.981 Y51.795 E0.05229
G1 X56.458 Y52.272 E0.0526
G1 X56.453 Y52.281 E0.05261
G1 X55.972 Y51.8 E0.05293
G1 X55.963 Y51.805 E0.05293
G1 X56.447 Y52.289 E0.05325
G1 X56.441 Y52.298 E0.05326
G1 X55.954 Y51.81 E0.05358
G1 X55.945 Y51.815 E0.05359
G1 X56.436 Y52.306 E0.05391
G1 X56.429 Y52.314 E0.05392
G1 X55.936 Y51.82 E0.05425
G1 X55.926 Y51.825 E0.05425
G1 X56.424 Y52.322 E0.05458
G1 X56.418 Y52.331 E0.05459
G1 X55.917 Y51.83 E0.05492
G1 X55.907 Y51.834 E0.05493
G1 X56.412 Y52.339 E0.05526
G1 X56.407 Y52.348 E0.05527
G1 X55.895 Y51.837 E0.05561
G1 X55.885 Y51.84 E0.05561
G1 X56.4 Y52.356 E0.05596
G1 X56.395 Y52.364 E0.05596
G1 X55.873 Y51.843 E0.05631
G1 X55.863 Y51.846 E0.05631
G1 X56.389 Y52.373 E0.05666
G1 X56.383 Y52.381 E0.05667
G1 X55.852 Y51.849 E0.05702
G1 X55.84 Y51.852 E0.05703
G1 X56.378 Y52.39 E0.05738
G1 X56.371 Y52.397 E0.05739
G1 X55.83 Y51.856 E0.05775
G1 X55.818 Y51.859 E0.05775
G1 X56.366 Y52.406 E0.05812
G1 X56.36 Y52.414 E0.05812
G1 X55.807 Y51.861 E0.05849
G1 X55.796 Y51.865 E0.0585
G1 X56.354 Y52.423 E0.05887
G1 X56.349 Y52.431 E0.05887
G1 X55.785 Y51.868 E0.05925
G1 X55.774 Y51.871 E0.05925
G1 X56.342 Y52.439 E0.05963
G1 X56.339 Y52.45 E0.05964
G1 X55.763 Y51.874 E0.06002
G1 X55.752 Y51.877 E0.06002
G1 X56.335 Y52.46 E0.06041
G1 X56.332 Y52.471 E0.06042
G1 X55.741 Y51.88 E0.06081
G1 X55.73 Y51.883 E0.06082
G1 X56.328 Y52.481 E0.06121
G1 X56.325 Y52.492 E0.06122
G1 X55.719 Y51.886 E0.06162
G1 X55.708 Y51.89 E0.06163
G1 X56.321 Y52.503 E0.06203
G1 X56.318 Y52.513 E0.06204
G1 X55.694 Y51.89 E0.06245
G1 X55.675 Y51.885 E0.06246
G1 X56.314 Y52.524 E0.06289
G1 X56.31 Y52.534 E0.06289
G1 X55.657 Y51.881 E0.06333
G1 X55.639 Y51.877 E0.06334
G1 X56.307 Y52.545 E0.06378
G1 X56.303 Y52.556 E0.06379
G1 X55.62 Y51.873 E0.06424
G1 X55.602 Y51.868 E0.06425
G1 X56.3 Y52.566 E0.06471
G1 X56.296 Y52.577 E0.06472
G1 X55.584 Y51.865 E0.06519
G1 X55.566 Y51.861 E0.0652
G1 X56.293 Y52.588 E0.06568
G1 X56.289 Y52.598 E0.06569
G1 X55.547 Y51.856 E0.06618
G1 X55.529 Y51.852 E0.06619
G1 X56.286 Y52.609 E0.0667
G1 X56.282 Y52.619 E0.0667
G1 X55.511 Y51.848 E0.06721
G1 X55.492 Y51.844 E0.06722
G1 X56.279 Y52.63 E0.06775
G1 X56.275 Y52.641 E0.06775
G1 X55.474 Y51.839 E0.06828
G1 X55.456 Y51.835 E0.06829
G1 X56.272 Y52.651 E0.06884
G1 X56.267 Y52.661 E0.06884
G1 X55.437 Y51.831 E0.06939
G1 X55.419 Y51.827 E0.0694
G1 X56.264 Y52.672 E0.06996
G1 X56.26 Y52.682 E0.06997
G1 X55.391 Y51.813 E0.07055
G1 X55.362 Y51.798 E0.07056
G1 X56.257 Y52.693 E0.07116
G1 X56.253 Y52.703 E0.07116
G1 X55.333 Y51.783 E0.07177
G1 X55.304 Y51.768 E0.07179
G1 X56.25 Y52.714 E0.07242
G1 X56.246 Y52.725 E0.07242
G1 X55.275 Y51.753 E0.07307
G1 X55.245 Y51.738 E0.07309
G1 X56.243 Y52.735 E0.07375
G1 X56.239 Y52.746 E0.07375
G1 X55.216 Y51.723 E0.07443
G1 X55.187 Y51.708 E0.07445
G1 X56.235 Y52.757 E0.07515
G1 X56.232 Y52.767 E0.07515
G1 X55.158 Y51.693 E0.07587
G1 X55.129 Y51.678 E0.07588
G1 X56.228 Y52.778 E0.07661
G1 X56.225 Y52.788 E0.07662
G1 X55.099 Y51.663 E0.07737
G1 X55.061 Y51.639 E0.07739
G1 X56.221 Y52.799 E0.07816
G1 X56.218 Y52.81 E0.07816
G1 X55 Y51.592 E0.07897
G1 X54.94 Y51.546 E0.07901
G1 X56.214 Y52.82 E0.07986
G1 X56.211 Y52.831 E0.07986
G1 X54.22 Y50.84 E0.08119
G1 X54.214 Y50.848 E0.08119
G1 X56.207 Y52.841 E0.08252
G1 X56.204 Y52.852 E0.08252
G1 X54.208 Y50.857 E0.08385
G1 X54.203 Y50.866 E0.08385
G1 X56.2 Y52.863 E0.08518
G1 X56.197 Y52.873 E0.08519
G1 X54.198 Y50.874 E0.08652
G1 X54.193 Y50.883 E0.08652
G1 X56.193 Y52.884 E0.08785
G1 X56.192 Y52.897 E0.08786
G1 X54.187 Y50.892 E0.08919
G1 X54.181 Y50.9 E0.0892
G1 X56.192 Y52.911 E0.09053
G1 X56.19 Y52.923 E0.09054
G1 X54.176 Y50.91 E0.09188
G1 X56.19 Y52.937 E0.09322
G1 X56.189 Y52.95 E0.09323
G1 X54.165 Y50.927 E0.09457
G1 X54.16 Y50.936 E0.09458
G1 X56.187 Y52.963 E0.09593
G1 X56.187 Y52.976 E0.09593
G1 X54.154 Y50.944 E0.09728
G1 X54.15 Y50.953 E0.09729
G1 X56.186 Y52.99 E0.09864
G1 X56.185 Y53.003 E0.09865
G1 X54.144 Y50.962 E0.10001
G1 X54.138 Y50.97 E0.10001
G1 X56.184 Y53.016 E0.10137
G1 X56.183 Y53.029 E0.10138
G1 X54.133 Y50.98 E0.10274
G1 X56.182 Y53.042 E0.10411
G1 X56.181 Y53.056 E0.10412
G1 X54.122 Y50.997 E0.10548
G1 X54.117 Y51.006 E0.10549
G1 X56.18 Y53.069 E0.10686
G1 X56.179 Y53.082 E0.10687
G1 X54.111 Y51.014 E0.10824
G1 X54.106 Y51.023 E0.10825
G1 X56.178 Y53.095 E0.10963
G1 X56.177 Y53.108 E0.10963
G1 X54.101 Y51.033 E0.11101
G1 X54.098 Y51.043 E0.11102
G1 X56.176 Y53.121 E0.1124
G1 X56.175 Y53.135 E0.11241
G1 X54.095 Y51.055 E0.11379
G1 X54.092 Y51.065 E0.11379
G1 X56.174 Y53.148 E0.11518
G1 X56.173 Y53.161 E0.11519
G1 X54.089 Y51.076 E0.11657
G1 X54.086 Y51.088 E0.11658
G1 X56.173 Y53.174 E0.11797
G1 X56.171 Y53.187 E0.11797
G1 X54.082 Y51.098 E0.11936
G1 X54.08 Y51.11 E0.11937
G1 X56.17 Y53.201 E0.12076
G1 X56.17 Y53.214 E0.12076
G1 X54.077 Y51.121 E0.12215
G1 X54.073 Y51.132 E0.12216
G1 X56.168 Y53.227 E0.12355
G1 X56.168 Y53.24 E0.12356
G1 X54.07 Y51.143 E0.12495
G1 X54.067 Y51.154 E0.12496
G1 X56.167 Y53.254 E0.12636
G1 X56.165 Y53.266 E0.12636
G1 X54.064 Y51.165 E0.12776
G1 X54.061 Y51.176 E0.12776
G1 X56.165 Y53.28 E0.12916
G1 X56.164 Y53.293 E0.12917
G1 X54.058 Y51.187 E0.13057
G1 X54.055 Y51.198 E0.13058
G1 X56.163 Y53.306 E0.13198
G1 X56.162 Y53.319 E0.13198
G1 X54.051 Y51.208 E0.13339
G1 X54.046 Y51.217 E0.13339
G1 X56.161 Y53.333 E0.1348
G1 X56.16 Y53.346 E0.13481
G1 X54.041 Y51.227 E0.13622
G1 X54.036 Y51.236 E0.13622
G1 X56.159 Y53.359 E0.13763
G1 X56.158 Y53.372 E0.13764
G1 X54.031 Y51.245 E0.13905
G1 X54.027 Y51.255 E0.13906
G1 X56.157 Y53.385 E0.14047
G1 X56.156 Y53.399 E0.14048
G1 X54.022 Y51.265 E0.1419
G1 X54.017 Y51.274 E0.14191
G1 X56.156 Y53.412 E0.14333
G1 X56.154 Y53.425 E0.14333
G1 X54.013 Y51.284 E0.14476
G1 X54.008 Y51.293 E0.14476
G1 X56.153 Y53.438 E0.14619
G1 X56.152 Y53.451 E0.14619
G1 X54.004 Y51.303 E0.14762
G1 X53.999 Y51.312 E0.14763
G1 X56.151 Y53.464 E0.14906
G1 X56.151 Y53.478 E0.14907
G1 X53.994 Y51.321 E0.1505
G1 X53.99 Y51.331 E0.15051
G1 X56.207 Y53.554 E0.15198
G1 X56.2 Y53.556 E0.15199
G1 X53.985 Y51.34 E0.15346
