;FLAVOR:Marlin
;TIME:6666
;Filament used: 0m
;Layer height: 0.4
;MINX:2.14748e+06
;MINY:2.14748e+06
;MINZ:2.14748e+06
;MAXX:-2.14748e+06
;MAXY:-2.14748e+06
;MAXZ:-2.14748e+06
;TARGET_MACHINE.NAME:Pather

;Generated with Cura_SteamEngine 5.9.1
M104 S215
M105
M109 S215
M82 ;absolute extrusion mode
G28 ;Home
G1 Z15.0 F6000 ;Move the platform down 15mm
;Prime the extruder
G92 E0
G1 F200 E3
G92 E0
G92 E0
G92 E0
G1 F1500 E-6.5
;LAYER_COUNT:25
;LAYER:0
M107
M204 S3000
M205 X20 Y20
;MESH:stl/cat_0.0214592x.stl
G0 F3600 X57.801 Y58.88 Z0.3
;TYPE:WALL-OUTER
G1 F1500 E0
G1 F1800 X59.021 Y59.018 E0.00577
G1 X59.72 Y59.07 E0.00907
G1 X60.499 Y59.038 E0.01274
G1 X61.066 Y58.969 E0.01542
G1 X61.638 Y58.625 E0.01856
G1 X61.872 Y58.388 E0.02013
G1 X62.234 Y58.257 E0.02194
G1 X62.263 Y58.296 E0.02217
G1 X62.246 Y58.487 E0.02307
G1 X62.041 Y58.951 E0.02545
G1 X61.96 Y58.996 E0.02589
G1 X61.728 Y59.354 E0.0279
G1 X61.525 Y59.437 E0.02893
G1 X61.318 Y59.583 E0.03012
G1 X60.862 Y59.625 E0.03227
G1 X60.114 Y59.626 E0.03579
G1 X59.33 Y59.598 E0.03948
G1 X58.33 Y59.682 E0.0442
G1 X57.476 Y59.789 E0.04825
G1 X57.256 Y59.936 E0.04949
G1 X56.435 Y60.078 E0.05341
G1 X56.26 Y60.078 E0.05423
G1 X55.058 Y60.206 E0.05992
G1 X54.646 Y60.334 E0.06194
G1 X54.23 Y60.357 E0.0639
G1 X53.897 Y60.318 E0.06548
G1 X53.755 Y59.93 E0.06742
G1 X53.57 Y59.787 E0.06852
G1 X53.394 Y59.738 E0.06938
G1 X53.337 Y59.681 E0.06976
G1 X53.412 Y59.406 E0.0711
G1 X53.681 Y59.199 E0.0727
G1 X53.718 Y59.041 E0.07346
G1 X53.582 Y58.768 E0.07489
G1 X53.398 Y58.583 E0.07612
G1 X53.396 Y58.479 E0.07661
G1 X53.279 Y58.163 E0.0782
G1 X53.182 Y58.049 E0.0789
G1 X53.182 Y57.573 E0.08114
G1 X53.226 Y57.516 E0.08148
G1 X53.183 Y57.162 E0.08315
G1 X53.226 Y56.917 E0.08432
G1 X53.118 Y56.235 E0.08757
G1 X53.071 Y56.141 E0.08806
G1 X52.926 Y55.635 E0.09054
G1 X52.903 Y55.121 E0.09296
G1 X52.902 Y54.218 E0.09721
G1 X53.138 Y53.639 E0.10015
G1 X53.202 Y53.139 E0.10252
G1 X53.184 Y52.992 E0.10321
G1 X53.244 Y52.892 E0.10376
G1 X53.414 Y52.233 E0.10696
G1 X53.814 Y51.79 E0.10977
G1 X54.101 Y51.218 E0.11278
G1 X54.147 Y51.049 E0.1136
G1 X54.488 Y50.498 E0.11665
G1 X54.709 Y50.86 E0.11864
G1 X54.758 Y51.36 E0.12101
G1 X54.848 Y51.525 E0.12189
G1 X55.057 Y51.692 E0.12315
G1 X55.401 Y51.869 E0.12497
G1 X55.696 Y51.937 E0.12639
G1 X55.935 Y51.872 E0.12756
G1 X56.22 Y51.719 E0.12908
G1 X56.617 Y51.6 E0.13103
G1 X56.677 Y51.647 E0.13138
G1 X56.538 Y52.081 E0.13353
G1 X56.306 Y52.419 E0.13546
G1 X56.152 Y52.876 E0.13772
G1 X56.107 Y53.489 E0.14061
G1 X56.134 Y53.529 E0.14084
G1 X56.006 Y53.671 E0.14174
G1 X55.978 Y53.976 E0.14318
G1 X56.062 Y54.161 E0.14414
G1 X56.366 Y54.333 E0.14578
G1 X56.566 Y54.514 E0.14705
G1 X56.995 Y55.133 E0.15059
G1 X57.16 Y55.53 E0.15261
G1 X57.312 Y56.019 E0.15502
G1 X57.436 Y56.377 E0.1568
G1 X57.414 Y56.495 E0.15736
G1 X57.521 Y57.08 E0.16016
G1 X57.502 Y57.495 E0.16212
G1 X57.565 Y57.727 E0.16325
G1 X57.546 Y58.42 E0.16651
G1 X57.595 Y58.722 E0.16794
G1 X57.801 Y58.88 E0.16917
G0 F3600 X57.999 Y58.902
G0 X57.756 Y58.948
;TYPE:SKIN
G1 F1800 X59.058 Y59.102 E0.17533
G1 X59.712 Y59.15 E0.17841
G1 X60.503 Y59.118 E0.18214
G1 X61.098 Y59.042 E0.18496
G1 X61.682 Y58.689 E0.18817
G1 X61.916 Y58.456 E0.18972
G1 X62.175 Y58.362 E0.19102
G1 X62.166 Y58.467 E0.19151
G1 X61.976 Y58.893 E0.19371
G1 X61.896 Y58.944 E0.19415
G1 X61.674 Y59.287 E0.19607
G1 X61.293 Y59.503 E0.19813
G1 X60.857 Y59.542 E0.20019
G1 X60.12 Y59.546 E0.20366
G1 X59.322 Y59.518 E0.20741
G1 X58.371 Y59.594 E0.2119
G1 X57.443 Y59.714 E0.2163
G1 X57.224 Y59.86 E0.21754
G1 X56.431 Y59.998 E0.22132
G1 X56.248 Y59.998 E0.22218
G1 X55.05 Y60.126 E0.22785
G1 X54.631 Y60.25 E0.2299
G1 X54.234 Y60.273 E0.23177
G1 X53.952 Y60.241 E0.23311
G1 X53.812 Y59.872 E0.23496
G1 X53.619 Y59.724 E0.23611
G1 X53.428 Y59.645 E0.23708
G1 X53.481 Y59.449 E0.23803
G1 X53.749 Y59.235 E0.23965
G1 X53.794 Y59.042 E0.24058
G1 X53.646 Y58.72 E0.24225
G1 X53.473 Y58.542 E0.24341
G1 X53.353 Y58.128 E0.24544
G1 X53.262 Y58.017 E0.24611
G1 X53.262 Y57.603 E0.24806
G1 X53.298 Y57.54 E0.2484
G1 X53.263 Y57.158 E0.25021
G1 X53.306 Y56.905 E0.25141
G1 X53.186 Y56.187 E0.25484
G1 X53.139 Y56.101 E0.2553
G1 X52.983 Y55.543 E0.25802
G1 X52.982 Y54.238 E0.26416
G1 X53.215 Y53.659 E0.26709
G1 X53.282 Y53.147 E0.26952
G1 X53.268 Y53.007 E0.27018
G1 X53.318 Y52.918 E0.27066
G1 X53.486 Y52.269 E0.27382
G1 X53.87 Y51.846 E0.2765
G1 X54.165 Y51.263 E0.27958
G1 X54.223 Y51.077 E0.28049
G1 X54.479 Y50.649 E0.28284
G1 X54.612 Y50.904 E0.28419
G1 X54.69 Y51.404 E0.28657
G1 X54.776 Y51.561 E0.28741
G1 X55.008 Y51.757 E0.28884
G1 X55.36 Y51.941 E0.29071
G1 X55.672 Y52.013 E0.29221
G1 X55.964 Y51.945 E0.29362
G1 X56.251 Y51.792 E0.29515
G1 X56.573 Y51.706 E0.29672
G1 X56.462 Y52.045 E0.2984
G1 X56.239 Y52.366 E0.30024
G1 X56.072 Y52.864 E0.30271
G1 X56.019 Y53.517 E0.30579
G1 X55.934 Y53.635 E0.30647
G1 X55.898 Y53.987 E0.30814
G1 X56.013 Y54.219 E0.30935
G1 X56.318 Y54.397 E0.31101
G1 X56.498 Y54.562 E0.31216
G1 X56.923 Y55.169 E0.31565
G1 X57.084 Y55.557 E0.31762
G1 X57.348 Y56.386 E0.32171
G1 X57.334 Y56.517 E0.32233
G1 X57.437 Y57.08 E0.32502
G1 X57.422 Y57.509 E0.32704
G1 X57.481 Y57.734 E0.32814
G1 X57.466 Y58.416 E0.33134
G1 X57.538 Y58.777 E0.33308
G1 X57.756 Y58.948 E0.33438
G0 F3600 X57.616 Y59.128
G0 X54.123 Y60.032
G0 X53.997 Y60.078
G1 F1800 X54.067 Y60.148 E0.33484
G1 X54.208 Y60.148 E0.33551
G1 X53.907 Y59.847 E0.33751
G0 F3600 X54.037 Y59.8
G0 X53.548 Y59.585
G1 F1800 X53.828 Y59.767 E0.33908
G1 X53.568 Y59.508 E0.34081
G1 X53.647 Y59.445 E0.34128
G1 X54.35 Y60.149 E0.34596
G1 X54.492 Y60.149 E0.34663
G1 X53.726 Y59.383 E0.35172
G1 X53.804 Y59.32 E0.35219
G1 X54.63 Y60.145 E0.35768
G1 X54.739 Y60.113 E0.35822
G1 X53.849 Y59.223 E0.36414
G1 X53.876 Y59.108 E0.36469
G1 X54.848 Y60.081 E0.37116
G1 X54.958 Y60.049 E0.3717
G1 X53.866 Y58.957 E0.37896
G1 X53.744 Y58.694 E0.38032
G1 X55.073 Y60.023 E0.38916
G1 X55.201 Y60.009 E0.38977
G1 X53.512 Y58.32 E0.401
G1 X53.453 Y58.12 E0.40198
G1 X55.328 Y59.995 E0.41445
G1 X55.456 Y59.982 E0.41506
G1 X53.362 Y57.887 E0.42899
G1 X53.362 Y57.746 E0.42965
G1 X55.584 Y59.968 E0.44443
G1 X55.712 Y59.955 E0.44503
G1 X53.369 Y57.612 E0.46061
G1 X53.394 Y57.495 E0.46118
G1 X55.84 Y59.941 E0.47744
G1 X55.968 Y59.927 E0.47805
G1 X53.379 Y57.339 E0.49526
G1 X53.365 Y57.184 E0.496
G1 X56.095 Y59.914 E0.51415
G1 X56.223 Y59.9 E0.51476
G1 X53.379 Y57.056 E0.53367
G1 X53.399 Y56.934 E0.53425
G1 X56.362 Y59.898 E0.55396
G1 X56.491 Y59.886 E0.55457
G1 X53.389 Y56.784 E0.5752
G1 X53.36 Y56.613 E0.57602
G1 X56.612 Y59.865 E0.59764
G1 X56.733 Y59.844 E0.59822
G1 X53.332 Y56.443 E0.62084
G1 X53.303 Y56.273 E0.62165
G1 X56.854 Y59.823 E0.64526
G1 X56.974 Y59.802 E0.64584
G1 X53.231 Y56.059 E0.67073
G1 X53.176 Y55.863 E0.67169
G1 X57.095 Y59.782 E0.69775
G1 X57.206 Y59.752 E0.69829
G1 X53.121 Y55.666 E0.72546
G1 X53.082 Y55.486 E0.72633
G1 X57.291 Y59.695 E0.75432
G1 X57.376 Y59.639 E0.7548
G1 X53.082 Y55.345 E0.78336
G1 X53.082 Y55.203 E0.78402
G1 X57.488 Y59.61 E0.81333
G1 X57.613 Y59.593 E0.81392
G1 X53.082 Y55.062 E0.84406
G1 X53.082 Y54.92 E0.84472
G1 X57.738 Y59.577 E0.87569
G1 X57.863 Y59.56 E0.87629
G1 X53.082 Y54.779 E0.90808
G1 X53.082 Y54.637 E0.90875
G1 X57.988 Y59.543 E0.94138
G1 X58.112 Y59.526 E0.94197
G1 X53.082 Y54.496 E0.97542
G1 X53.082 Y54.355 E0.97608
G1 X57.423 Y58.696 E1.00495
G0 F3600 X57.279 Y58.716
G0 X56.336 Y54.723
G0 X56.422 Y54.628
G1 F1800 X56.062 Y54.365 E1.00705
G1 X56.649 Y54.952 E1.01095
G1 X56.879 Y55.323 E1.013
G1 X53.717 Y52.162 E1.03403
G1 X53.65 Y52.235 E1.0345
G1 X56.979 Y55.565 E1.05664
G1 X57.049 Y55.776 E1.05768
G1 X53.582 Y52.31 E1.08074
G1 X53.549 Y52.418 E1.08127
G1 X57.114 Y55.983 E1.10498
G1 X57.18 Y56.19 E1.106
G1 X53.52 Y52.53 E1.13034
G1 X53.491 Y52.643 E1.13089
G1 X57.246 Y56.397 E1.15586
G1 X57.235 Y56.528 E1.15648
G1 X53.463 Y52.756 E1.18156
G1 X53.434 Y52.868 E1.18211
G1 X57.267 Y56.701 E1.2076
G1 X57.298 Y56.874 E1.20843
G1 X53.399 Y52.974 E1.23436
G1 X53.376 Y53.093 E1.23493
G1 X57.33 Y57.047 E1.26123
G1 X57.334 Y57.193 E1.26191
G1 X53.372 Y53.23 E1.28826
G1 X53.355 Y53.355 E1.28886
G1 X57.329 Y57.329 E1.31529
G1 X57.325 Y57.467 E1.31594
G1 X53.339 Y53.481 E1.34245
G1 X53.324 Y53.606 E1.34304
G1 X57.353 Y57.636 E1.36984
G1 X57.38 Y57.805 E1.37064
G1 X53.296 Y53.72 E1.3978
G1 X53.256 Y53.821 E1.39832
G1 X57.377 Y57.943 E1.42573
G1 X57.375 Y58.082 E1.42638
G1 X53.215 Y53.923 E1.45404
G1 X53.175 Y54.024 E1.45455
G1 X57.372 Y58.22 E1.48246
G1 X57.369 Y58.359 E1.48312
G1 X53.134 Y54.124 E1.51128
G1 X53.094 Y54.225 E1.51179
G1 X57.386 Y58.517 E1.54034
G1 X57.452 Y58.834 E1.54186
G1 X57.715 Y59.045 E1.54344
G1 X57.78 Y59.053 E1.54375
G1 X58.237 Y59.51 E1.54679
G1 X58.362 Y59.494 E1.54738
G1 X57.94 Y59.072 E1.55019
G1 X58.101 Y59.091 E1.55095
G1 X58.493 Y59.483 E1.55356
G1 X58.624 Y59.473 E1.55418
G1 X58.261 Y59.11 E1.55659
G1 X58.422 Y59.129 E1.55735
G1 X58.756 Y59.463 E1.55958
G1 X58.886 Y59.452 E1.56019
G1 X58.582 Y59.148 E1.56221
G1 X58.742 Y59.166 E1.56297
G1 X59.018 Y59.442 E1.5648
G1 X59.149 Y59.432 E1.56542
G1 X58.903 Y59.186 E1.56706
G1 X59.063 Y59.204 E1.56781
G1 X59.28 Y59.421 E1.56926
G1 X59.421 Y59.421 E1.56992
G1 X59.215 Y59.215 E1.57129
G1 X59.367 Y59.226 E1.57201
G1 X59.567 Y59.426 E1.57334
G1 X59.714 Y59.432 E1.57403
G1 X59.519 Y59.236 E1.57533
G1 X59.672 Y59.248 E1.57605
G1 X59.861 Y59.437 E1.57731
G1 X60.007 Y59.442 E1.578
G1 X59.812 Y59.246 E1.5793
G1 X59.948 Y59.241 E1.57994
G1 X60.152 Y59.445 E1.58129
G1 X60.293 Y59.444 E1.58196
G1 X60.084 Y59.235 E1.58335
G1 X60.22 Y59.23 E1.58399
G1 X60.434 Y59.444 E1.58541
G1 X60.574 Y59.443 E1.58607
G1 X60.356 Y59.224 E1.58752
G1 X60.492 Y59.219 E1.58816
G1 X60.715 Y59.442 E1.58964
G1 X60.856 Y59.442 E1.59031
G1 X60.618 Y59.204 E1.59189
G1 X60.743 Y59.188 E1.59248
G1 X60.985 Y59.429 E1.59409
G1 X61.115 Y59.418 E1.5947
G1 X60.868 Y59.171 E1.59634
G1 X60.993 Y59.154 E1.59694
G1 X61.245 Y59.406 E1.59861
G1 X61.34 Y59.36 E1.59911
G1 X61.117 Y59.137 E1.60059
G1 X61.211 Y59.09 E1.60109
G1 X61.43 Y59.309 E1.60254
G1 X61.52 Y59.258 E1.60303
G1 X61.3 Y59.037 E1.6045
G1 X61.388 Y58.984 E1.60498
G1 X61.609 Y59.205 E1.60645
G1 X61.665 Y59.119 E1.60693
G1 X61.477 Y58.931 E1.60818
G1 X61.564 Y58.877 E1.60866
G1 X61.721 Y59.034 E1.60971
G1 X61.776 Y58.948 E1.61019
G1 X61.653 Y58.824 E1.61101
G1 X61.741 Y58.771 E1.61149
G1 X61.835 Y58.865 E1.61212
G1 X61.909 Y58.798 E1.61259
G1 X61.817 Y58.705 E1.6132
G1 X61.892 Y58.64 E1.61367
G1 X61.952 Y58.699 E1.61406
G1 X61.994 Y58.6 E1.61457
G1 X61.968 Y58.574 E1.61474
G1 X62.027 Y58.522 E1.61511
G0 F3600 X61.918 Y58.669
G0 X59.718 Y59.322
G0 X57.721 Y59.131
G0 X55.881 Y54.411
G0 X55.946 Y54.299
M104 S210
G1 F1800 X55.896 Y54.199 E1.61564
G1 X53.785 Y52.088 E1.62968
G1 X53.853 Y52.014 E1.63015
G1 X55.801 Y53.963 E1.64311
G1 X55.813 Y53.833 E1.64372
G1 X53.92 Y51.94 E1.65631
G1 X53.976 Y51.855 E1.65679
G1 X55.825 Y53.704 E1.66909
G1 X55.851 Y53.588 E1.66965
G1 X54.024 Y51.761 E1.6818
G1 X54.071 Y51.667 E1.68229
G1 X55.907 Y53.503 E1.6945
G1 X55.929 Y53.384 E1.69507
G1 X54.118 Y51.573 E1.70712
G1 X54.167 Y51.479 E1.70761
G1 X55.941 Y53.254 E1.71942
G1 X55.952 Y53.124 E1.72003
G1 X54.214 Y51.385 E1.73159
G1 X54.26 Y51.29 E1.73209
G1 X55.963 Y52.993 E1.74341
G1 X55.974 Y52.863 E1.74403
G1 X54.957 Y51.843 E1.7508
G1 X55.241 Y51.988 E1.7523
G1 X56.005 Y52.752 E1.75738
G1 X56.04 Y52.646 E1.75791
G1 X55.462 Y52.068 E1.76175
G1 X55.645 Y52.11 E1.76263
G1 X56.075 Y52.539 E1.76549
G1 X56.11 Y52.433 E1.76601
G1 X55.767 Y52.09 E1.7683
G1 X55.883 Y52.064 E1.76885
G1 X56.149 Y52.33 E1.77062
G1 X56.206 Y52.246 E1.7711
G1 X55.998 Y52.038 E1.77248
G1 X56.097 Y51.996 E1.77299
G1 X56.262 Y52.161 E1.77409
G1 X56.32 Y52.077 E1.77457
G1 X56.194 Y51.952 E1.7754
G1 X56.292 Y51.908 E1.77591
G1 X56.374 Y51.99 E1.77645
G1 X56.419 Y51.85 E1.77714
G0 F3600 X56.312 Y51.961
G0 X54.582 Y51.681
G0 X54.693 Y51.618
G1 F1800 X54.652 Y51.541 E1.77755
G1 X54.294 Y51.183 E1.77994
G1 X54.335 Y51.083 E1.78044
G1 X54.57 Y51.318 E1.78201
G1 X54.533 Y51.139 E1.78287
G1 X54.389 Y50.994 E1.78383
G1 X54.442 Y50.906 E1.78431
G1 X54.496 Y50.96 E1.78467
G0 F3600 X54.412 Y52.09
G1 F1500 E-4.71533
;MESH:NONMESH
G0 F600 X54.412 Y52.09 Z0.7
G0 F3600 X54.451 Y52.111
G0 X57.317 Y58.429
G0 X57.801 Y58.88
;TIME_ELAPSED:17.522337
;LAYER:1
M106 S255
;TYPE:WALL-OUTER
;MESH:stl/cat_0.0214592x.stl
G1 F1500 E1.78467
G1 F1800 X59.021 Y59.018 E1.79237
G1 X59.72 Y59.07 E1.79676
G1 X60.499 Y59.038 E1.80165
G1 X61.066 Y58.969 E1.80523
G1 X61.638 Y58.625 E1.80942
G1 X61.872 Y58.388 E1.81151
G1 X62.234 Y58.257 E1.81392
G1 X62.263 Y58.296 E1.81422
G1 X62.246 Y58.487 E1.81543
G1 X62.041 Y58.951 E1.81861
G1 X61.96 Y58.996 E1.81919
G1 X61.728 Y59.354 E1.82186
G1 X61.525 Y59.437 E1.82324
G1 X61.318 Y59.583 E1.82483
G1 X60.862 Y59.625 E1.8277
G1 X60.114 Y59.626 E1.83239
G1 X59.33 Y59.598 E1.83731
G1 X58.33 Y59.682 E1.8436
G1 X57.476 Y59.789 E1.849
G1 X57.256 Y59.936 E1.85066
G1 X56.435 Y60.078 E1.85588
G1 X56.26 Y60.078 E1.85698
G1 X55.058 Y60.206 E1.86456
G1 X54.646 Y60.334 E1.86726
G1 X54.23 Y60.357 E1.86987
G1 X53.897 Y60.318 E1.87198
G1 X53.755 Y59.93 E1.87457
G1 X53.57 Y59.787 E1.87603
G1 X53.394 Y59.738 E1.87718
G1 X53.337 Y59.681 E1.87768
G1 X53.412 Y59.406 E1.87947
G1 X53.681 Y59.199 E1.8816
G1 X53.718 Y59.041 E1.88262
G1 X53.582 Y58.768 E1.88453
G1 X53.398 Y58.583 E1.88616
G1 X53.396 Y58.479 E1.88682
G1 X53.279 Y58.163 E1.88893
G1 X53.182 Y58.049 E1.88987
G1 X53.182 Y57.573 E1.89285
G1 X53.226 Y57.516 E1.8933
G1 X53.183 Y57.162 E1.89554
G1 X53.226 Y56.917 E1.8971
G1 X53.118 Y56.235 E1.90143
G1 X53.071 Y56.141 E1.90209
G1 X52.926 Y55.635 E1.90539
G1 X52.903 Y55.121 E1.90862
G1 X52.902 Y54.218 E1.91428
G1 X53.138 Y53.639 E1.9182
G1 X53.202 Y53.139 E1.92136
G1 X53.184 Y52.992 E1.92229
G1 X53.244 Y52.892 E1.92302
G1 X53.414 Y52.233 E1.92729
G1 X53.814 Y51.79 E1.93103
G1 X54.101 Y51.218 E1.93504
G1 X54.147 Y51.049 E1.93614
G1 X54.488 Y50.498 E1.9402
G1 X54.709 Y50.86 E1.94286
G1 X54.758 Y51.36 E1.94601
G1 X54.848 Y51.525 E1.94719
G1 X55.057 Y51.692 E1.94887
G1 X55.401 Y51.869 E1.95129
G1 X55.696 Y51.937 E1.95319
G1 X55.935 Y51.872 E1.95474
G1 X56.22 Y51.719 E1.95677
G1 X56.617 Y51.6 E1.95937
G1 X56.677 Y51.647 E1.95985
G1 X56.538 Y52.081 E1.96271
G1 X56.306 Y52.419 E1.96528
G1 X56.152 Y52.876 E1.9683
G1 X56.107 Y53.489 E1.97215
G1 X56.134 Y53.529 E1.97246
G1 X56.006 Y53.671 E1.97366
G1 X55.978 Y53.976 E1.97558
G1 X56.062 Y54.161 E1.97685
G1 X56.366 Y54.333 E1.97904
G1 X56.566 Y54.514 E1.98073
G1 X56.995 Y55.133 E1.98545
G1 X57.16 Y55.53 E1.98815
G1 X57.312 Y56.019 E1.99136
G1 X57.436 Y56.377 E1.99374
G1 X57.414 Y56.495 E1.99449
G1 X57.521 Y57.08 E1.99822
G1 X57.502 Y57.495 E2.00082
G1 X57.565 Y57.727 E2.00233
G1 X57.546 Y58.42 E2.00668
G1 X57.595 Y58.722 E2.0086
G1 X57.801 Y58.88 E2.01022
M204 S4000
M205 X25 Y25
G0 F5400 X57.999 Y58.902
G1 F1500 E-4.48978
G0 F5400 X58.257 Y58.221
G0 X60.437 Y58.329
G0 X61.362 Y59.173
M204 S3000
M205 X20 Y20
;TYPE:SKIN
G1 F1500 E2.01022
G1 F60000 X61.493 Y59.096 E2.01025
M204 S4000
M205 X25 Y25
G0 F5400 X61.173 Y59.226
M204 S3000
M205 X20 Y20
G1 F2500 X60.526 Y59.299 E2.01319
G1 F3396.2 X59.714 Y59.321 E2.01589
G1 F3333.3 X59.084 Y59.288 E2.01803
G1 F2195.1 X58.169 Y59.199 E2.02275
G1 F1800 X58.198 Y59.285 E2.02332
G1 F2069 X58.083 Y59.408 E2.02424
G1 F2950.8 X59.313 Y59.344 E2.02895
G1 F3461.5 X60.122 Y59.368 E2.03159
G1 F2571.4 X60.842 Y59.35 E2.03475
G1 F1956.5 X61.23 Y59.306 E2.037
G1 F1800 X61.529 Y59.135 E2.03916
