;FLAVOR:Marlin
;TIME:6666
;Filament used: 0m
;Layer height: 0.4
;MINX:2.14748e+06
;MINY:2.14748e+06
;MINZ:2.14748e+06
;MAXX:-2.14748e+06
;MAXY:-2.14748e+06
;MAXZ:-2.14748e+06
;TARGET_MACHINE.NAME:Pather

;Generated with Cura_SteamEngine 5.9.1
M104 S215
M105
M109 S215
M82 ;absolute extrusion mode
G28 ;Home
G1 Z15.0 F6000 ;Move the platform down 15mm
;Prime the extruder
G92 E0
G1 F200 E3
G92 E0
G92 E0
G92 E0
G1 F1500 E-6.5
;LAYER_COUNT:25
;LAYER:0
M107
M204 S3000
M205 X20 Y20
;MESH:stl/usa_0.00517063x.stl
G0 F3600 X52.926 Y52.394 Z0.3
;TYPE:WALL-OUTER
G1 F1500 E0
G1 F1800 X52.82 Y52.197 E0.00105
G1 X52.783 Y51.94 E0.00227
G1 X52.943 Y51.848 E0.00314
G1 X52.92 Y51.67 E0.00399
G1 X53.126 Y51.416 E0.00552
G1 X53.072 Y51.367 E0.00587
G1 X53.098 Y51.271 E0.00633
G1 X53.216 Y51.236 E0.00691
G1 X53.599 Y51.267 E0.00872
G1 X53.739 Y51.132 E0.00963
G1 X53.739 Y51.053 E0.01001
G1 X54.123 Y51.252 E0.01204
G1 X54.308 Y51.156 E0.01302
G1 X54.326 Y51.11 E0.01325
G1 X54.188 Y50.956 E0.01422
G1 X54.072 Y50.897 E0.01484
G1 X54.368 Y50.848 E0.01625
G1 X54.558 Y50.761 E0.01723
G1 X54.728 Y50.743 E0.01803
G1 X54.947 Y50.65 E0.01915
G1 X58.457 Y50.634 E0.03566
G1 X59.684 Y50.655 E0.04143
G1 X59.658 Y50.722 E0.04177
G1 X59.718 Y50.833 E0.04236
G1 X60.011 Y50.822 E0.04374
G1 X59.91 Y51.366 E0.04634
G1 X59.934 Y51.927 E0.04898
G1 X60.018 Y52.049 E0.04968
G1 X59.934 Y52.451 E0.05161
G1 X59.981 Y52.752 E0.05304
G1 X59.904 Y52.815 E0.05351
G1 X59.849 Y53.042 E0.05461
G1 X59.654 Y53.302 E0.05614
G1 X59.504 Y53.659 E0.05796
G1 X59.343 Y53.887 E0.05927
G1 X59.349 Y53.976 E0.05969
G1 X59.201 Y54 E0.0604
G1 X59.182 Y54.058 E0.06068
G1 X59.011 Y54.064 E0.06149
G1 X58.759 Y54.351 E0.06328
G1 X58.37 Y54.37 E0.06512
G1 X57.794 Y54.582 E0.068
G1 X57.224 Y54.601 E0.07068
G1 X57.15 Y54.539 E0.07114
G1 X56.975 Y54.55 E0.07196
G1 X56.655 Y54.766 E0.07378
G1 X56.531 Y54.968 E0.07489
G1 X56.391 Y55.057 E0.07567
G1 X56.314 Y55.037 E0.07605
G1 X56.243 Y54.936 E0.07663
G1 X56.051 Y54.958 E0.07754
G1 X55.956 Y55.025 E0.07808
G1 X55.732 Y55.383 E0.08007
G1 X55.658 Y55.592 E0.08111
G1 X55.357 Y55.654 E0.08256
G1 X55.362 Y55.459 E0.08347
G1 X55.292 Y55.271 E0.08442
G1 X55.051 Y55.143 E0.0857
G1 X54.929 Y55.019 E0.08652
G1 X54.618 Y54.946 E0.08802
G1 X54.361 Y54.95 E0.08923
G1 X54.285 Y55.03 E0.08975
G1 X54.11 Y55.059 E0.09058
G1 X54.023 Y55.007 E0.09106
G1 X53.957 Y54.846 E0.09188
G1 X53.424 Y54.814 E0.09439
G1 X53.276 Y54.935 E0.09529
G1 X53.011 Y54.904 E0.09654
G1 X52.824 Y55.093 E0.09779
G1 X52.76 Y55.465 E0.09957
G1 X52.515 Y55.847 E0.1017
G1 X52.438 Y55.821 E0.10208
G1 X52.373 Y55.574 E0.10329
G1 X52.609 Y54.799 E0.1071
G1 X52.588 Y54.622 E0.10793
G1 X52.484 Y54.444 E0.1089
G1 X52.251 Y54.294 E0.11021
G1 X52.107 Y54.121 E0.11126
G1 X51.999 Y54.109 E0.11178
G1 X51.98 Y54.056 E0.11204
G1 X51.737 Y53.907 E0.11338
G1 X51.744 Y53.819 E0.1138
G1 X51.632 Y53.706 E0.11454
G1 X51.681 Y53.436 E0.11583
G1 X51.406 Y52.939 E0.11851
G1 X51.304 Y52.652 E0.11994
G1 X51.048 Y52.562 E0.12121
G1 X51.031 Y52.511 E0.12147
G1 X50.705 Y52.464 E0.12302
G1 X50.654 Y52.41 E0.12336
G1 X50.778 Y52.261 E0.12428
G1 X50.653 Y51.945 E0.12587
G1 X50.421 Y51.79 E0.12719
G1 X50.31 Y51.772 E0.12772
G1 X50.142 Y51.67 E0.12864
G1 X50.251 Y51.382 E0.13009
G1 X50.276 Y51.106 E0.13139
G1 X50.347 Y51.062 E0.13178
G1 X50.502 Y51.059 E0.13251
G1 X50.752 Y51.523 E0.13499
G1 X50.881 Y51.615 E0.13574
G1 X51.482 Y51.665 E0.13857
G1 X51.675 Y51.848 E0.13982
G1 X51.692 Y51.99 E0.1405
G1 X51.919 Y52.066 E0.14162
G1 X52.146 Y52.06 E0.14269
G1 X52.186 Y52.197 E0.14336
G1 X52.324 Y52.315 E0.14421
G1 X52.757 Y52.49 E0.14641
G1 X52.926 Y52.394 E0.14732
G0 F3600 X52.832 Y52.219
G0 X52.982 Y52.445
;TYPE:SKIN
G1 F1800 X52.994 Y52.311 E0.14796
G1 X52.896 Y52.169 E0.14877
G1 X52.87 Y51.978 E0.14968
G1 X53.022 Y51.854 E0.1506
G1 X53.006 Y51.688 E0.15138
G1 X53.193 Y51.438 E0.15285
G1 X53.177 Y51.339 E0.15332
G1 X53.623 Y51.343 E0.15542
G1 X53.785 Y51.163 E0.15656
G1 X54.099 Y51.328 E0.15823
G1 X54.202 Y51.318 E0.15871
G1 X54.393 Y51.162 E0.15987
G1 X54.386 Y51.055 E0.16038
G1 X54.28 Y50.936 E0.16113
G1 X54.962 Y50.73 E0.16448
G1 X58.395 Y50.714 E0.18062
G1 X59.591 Y50.738 E0.18625
G1 X59.668 Y50.891 E0.18705
G1 X59.926 Y50.906 E0.18827
G1 X59.83 Y51.357 E0.19044
G1 X59.854 Y51.932 E0.19314
G1 X59.931 Y52.066 E0.19387
G1 X59.854 Y52.45 E0.19571
G1 X59.894 Y52.714 E0.19697
G1 X59.824 Y52.791 E0.19746
G1 X59.773 Y53.006 E0.19849
G1 X59.583 Y53.262 E0.19999
G1 X59.262 Y53.907 E0.20338
G1 X59.159 Y53.932 E0.20388
G1 X59.127 Y53.979 E0.20415
G1 X58.987 Y53.988 E0.20481
G1 X58.72 Y54.271 E0.20664
G1 X58.354 Y54.29 E0.20836
G1 X57.778 Y54.498 E0.21124
G1 X57.252 Y54.517 E0.21372
G1 X57.17 Y54.459 E0.21419
G1 X56.963 Y54.47 E0.21516
G1 X56.599 Y54.705 E0.2172
G1 X56.471 Y54.907 E0.21833
G1 X56.386 Y54.964 E0.21881
G1 X56.262 Y54.858 E0.21957
G1 X56.027 Y54.882 E0.22068
G1 X55.885 Y54.979 E0.22149
G1 X55.594 Y55.52 E0.22438
G1 X55.436 Y55.554 E0.22514
G1 X55.438 Y55.451 E0.22563
G1 X55.347 Y55.221 E0.22679
G1 X55.099 Y55.075 E0.22814
G1 X54.972 Y54.948 E0.22899
G1 X54.61 Y54.866 E0.23073
G1 X54.355 Y54.87 E0.23193
G1 X54.238 Y54.956 E0.23262
G1 X54.126 Y54.975 E0.23315
G1 X53.981 Y54.764 E0.23435
G1 X53.415 Y54.736 E0.23702
G1 X53.248 Y54.849 E0.23797
G1 X52.957 Y54.847 E0.23934
G1 F1666.7 X52.736 Y55.071 E0.24093
G1 F1428.6 X52.666 Y55.426 E0.24308
G1 F1313.9 X52.508 Y55.672 E0.24496
G1 X52.476 Y55.571 E0.24564
G1 F1475.4 X52.686 Y54.828 E0.25007
G1 F1747.6 X52.668 Y54.624 E0.25107
G1 F1800 X52.54 Y54.392 E0.25231
G1 X52.303 Y54.23 E0.25366
G1 X52.165 Y54.064 E0.25468
G1 X52.047 Y54.03 E0.25525
G1 X51.821 Y53.865 E0.25657
G1 X51.814 Y53.782 E0.25696
G1 X51.722 Y53.708 E0.25752
G1 X51.758 Y53.42 E0.25888
G1 X51.478 Y52.907 E0.26163
G1 X51.354 Y52.595 E0.26321
G1 X51.11 Y52.496 E0.26445
G1 X51.078 Y52.448 E0.26472
G1 X50.774 Y52.388 E0.26618
G1 X50.853 Y52.244 E0.26695
G1 X50.74 Y51.934 E0.2685
G1 X50.491 Y51.736 E0.27
G1 X50.24 Y51.632 E0.27127
G1 X50.323 Y51.41 E0.27239
G1 X50.35 Y51.159 E0.27358
G1 X50.453 Y51.14 E0.27407
G1 X50.721 Y51.604 E0.27659
G1 X50.877 Y51.695 E0.27744
G1 X51.446 Y51.745 E0.28012
G1 X51.6 Y51.888 E0.28111
G1 X51.666 Y52.07 E0.28202
G1 X51.898 Y52.141 E0.28316
G1 X52.084 Y52.142 E0.28404
G1 X52.12 Y52.244 E0.28455
G1 X52.279 Y52.379 E0.28553
G1 X52.764 Y52.57 E0.28798
G1 X52.982 Y52.445 E0.28916
G0 F3600 X53.097 Y52.665
G0 X52.18 Y53.812
G0 X52.103 Y53.942
G1 F1800 X52.089 Y53.937 E0.28923
G1 X51.916 Y53.811 E0.29024
G1 X51.906 Y53.744 E0.29055
G1 X52.103 Y53.942 E0.29187
G0 F3600 X52.18 Y53.812
G0 X52.854 Y54.7
G0 X52.778 Y54.892
G1 F1800 X52.846 Y54.826 E0.29231
G1 X52.771 Y54.751 E0.29281
G1 X52.765 Y54.603 E0.29351
G1 X52.918 Y54.756 E0.29453
G1 X53.051 Y54.748 E0.29515
G1 X51.843 Y53.54 E0.30319
G1 X51.859 Y53.414 E0.30378
G1 X53.193 Y54.748 E0.31266
G1 X53.287 Y54.701 E0.31315
G1 X51.719 Y53.133 E0.32358
G1 X51.552 Y52.825 E0.32523
G1 X53.372 Y54.645 E0.33733
G1 X53.507 Y54.638 E0.33797
G1 X51.448 Y52.58 E0.35166
G1 X51.423 Y52.519 E0.35197
G1 X51.103 Y52.349 E0.35367
G1 X50.926 Y52.315 E0.35452
G1 X50.955 Y52.232 E0.35493
G1 X51.069 Y52.342 E0.35568
G0 F3600 X51.085 Y52.198
G0 X51.347 Y52.479
G1 F1800 X50.87 Y52.001 E0.35885
G1 X50.826 Y51.881 E0.35945
G1 X50.547 Y51.653 E0.36115
G1 X50.362 Y51.575 E0.36209
G1 X50.426 Y51.291 E0.36346
G0 F3600 X50.468 Y51.525
G0 X50.403 Y51.393
G1 F1800 X50.654 Y51.681 E0.36526
G0 F3600 X50.508 Y51.562
G0 X50.743 Y51.733
M104 S210
G1 F1800 X53.657 Y54.647 E0.38464
G1 X53.807 Y54.656 E0.38534
G1 X50.959 Y51.808 E0.40428
G1 X51.113 Y51.82 E0.40501
G1 X53.958 Y54.665 E0.42393
G1 X54.026 Y54.669 E0.42425
G1 X54.154 Y54.859 E0.42533
G1 X54.248 Y54.814 E0.42582
G1 X51.266 Y51.832 E0.44565
G1 X51.405 Y51.842 E0.44631
G1 X51.515 Y51.945 E0.44702
G1 X51.62 Y52.167 E0.44817
G1 X51.769 Y52.193 E0.44888
G1 X54.346 Y54.77 E0.46602
G1 X54.485 Y54.768 E0.46667
G1 X51.941 Y52.223 E0.4836
G1 X52.012 Y52.235 E0.48393
G1 X52.039 Y52.305 E0.48429
G1 X52.25 Y52.478 E0.48557
G1 X52.385 Y52.526 E0.48624
G1 X54.625 Y54.767 E0.50114
G1 X54.805 Y54.805 E0.50201
G1 X52.604 Y52.604 E0.51665
G1 X52.803 Y52.662 E0.51762
G1 X54.993 Y54.845 E0.53216
G1 X55.436 Y55.171 E0.53475
G1 X55.541 Y55.4 E0.53593
G1 X55.592 Y55.309 E0.53643
G1 X52.891 Y52.608 E0.55439
G1 X52.979 Y52.554 E0.55487
G1 X55.643 Y55.219 E0.57259
G1 X55.693 Y55.127 E0.57309
G1 X53.066 Y52.501 E0.59055
G1 X53.087 Y52.38 E0.59113
G1 X55.744 Y55.037 E0.6088
G1 X55.795 Y54.946 E0.60929
G1 X52.993 Y52.144 E0.62793
G1 X52.996 Y52.006 E0.62858
G1 X55.862 Y54.872 E0.64764
G1 X55.946 Y54.814 E0.64812
G1 X53.073 Y51.941 E0.66722
G1 X53.109 Y51.836 E0.66775
G1 X56.056 Y54.783 E0.68735
G1 X56.182 Y54.768 E0.68794
G1 X53.118 Y51.704 E0.70832
G1 X53.179 Y51.623 E0.7088
G1 X56.384 Y54.828 E0.73011
G1 X56.445 Y54.748 E0.73058
G1 X53.239 Y51.542 E0.75191
G1 X53.285 Y51.447 E0.7524
G1 X56.505 Y54.666 E0.77381
G1 X56.579 Y54.599 E0.77428
G1 X53.406 Y51.426 E0.79539
G1 X53.551 Y51.43 E0.79607
G1 X56.665 Y54.544 E0.81678
G1 X56.752 Y54.49 E0.81726
G1 X53.686 Y51.424 E0.83765
G1 X53.754 Y51.349 E0.83813
G1 X56.839 Y54.434 E0.85864
G1 X56.925 Y54.379 E0.85912
G1 X53.86 Y51.314 E0.87951
G1 X54.113 Y51.426 E0.88081
G1 X57.054 Y54.367 E0.90037
G1 X57.189 Y54.36 E0.901
G1 X54.24 Y51.412 E0.92061
G1 X54.319 Y51.349 E0.92109
G1 X57.381 Y54.411 E0.94145
G1 X57.517 Y54.406 E0.94209
G1 X54.394 Y51.283 E0.96286
G1 X54.47 Y51.217 E0.96333
G1 X57.654 Y54.401 E0.98451
G1 X57.783 Y54.389 E0.98512
G1 X54.471 Y51.077 E1.00714
G1 X54.457 Y50.991 E1.00755
G1 X54.511 Y50.975 E1.00782
G1 X57.887 Y54.352 E1.03027
G1 X57.991 Y54.314 E1.0308
G1 X54.619 Y50.942 E1.05322
G1 X54.727 Y50.909 E1.05375
G1 X58.095 Y54.277 E1.07615
G1 X58.199 Y54.239 E1.07667
G1 X54.835 Y50.876 E1.09904
G1 X54.944 Y50.842 E1.09958
G1 X58.303 Y54.202 E1.12192
G1 X58.428 Y54.186 E1.12251
G1 X55.073 Y50.83 E1.14483
G1 X55.214 Y50.83 E1.14549
G1 X58.563 Y54.179 E1.16776
G1 X58.686 Y54.161 E1.16835
G1 X55.354 Y50.829 E1.19051
G1 X55.495 Y50.828 E1.19117
G1 X58.754 Y54.087 E1.21285
G1 X58.823 Y54.014 E1.21332
G1 X55.636 Y50.828 E1.23451
G1 X55.777 Y50.827 E1.23517
G1 X58.891 Y53.941 E1.25588
G1 X58.98 Y53.889 E1.25637
G1 X55.917 Y50.826 E1.27674
G1 X56.058 Y50.825 E1.2774
G1 X59.087 Y53.855 E1.29755
G1 X59.189 Y53.815 E1.29806
G1 X56.199 Y50.825 E1.31795
G1 X56.339 Y50.824 E1.31861
G1 X59.244 Y53.729 E1.33793
G1 X59.299 Y53.642 E1.33841
G1 X56.48 Y50.823 E1.35716
G1 X56.621 Y50.823 E1.35782
G1 X59.351 Y53.553 E1.37598
G1 X59.393 Y53.454 E1.37648
G1 X56.762 Y50.823 E1.39398
G1 X56.903 Y50.822 E1.39465
G1 X59.435 Y53.354 E1.41148
G1 X59.478 Y53.255 E1.41199
G1 X57.044 Y50.821 E1.42818
G1 X57.184 Y50.82 E1.42884
G1 X59.53 Y53.166 E1.44444
G1 X59.591 Y53.085 E1.44492
G1 X57.325 Y50.82 E1.45998
G1 X57.466 Y50.819 E1.46065
G1 X59.651 Y53.004 E1.47518
G1 X59.695 Y52.906 E1.47568
G1 X57.607 Y50.818 E1.48957
G1 X57.747 Y50.818 E1.49023
G1 X59.722 Y52.793 E1.50336
G1 X59.772 Y52.701 E1.50386
G1 X57.888 Y50.817 E1.51638
G1 X58.029 Y50.816 E1.51705
G1 X59.767 Y52.555 E1.52861
G1 X59.764 Y52.41 E1.52929
G1 X58.169 Y50.816 E1.5399
G1 X58.31 Y50.815 E1.54056
G1 X59.787 Y52.291 E1.55038
G1 X59.809 Y52.172 E1.55095
G1 X58.452 Y50.816 E1.55997
G1 X58.597 Y50.818 E1.56065
G1 X59.756 Y51.977 E1.56836
G1 X59.751 Y51.831 E1.56905
G1 X58.741 Y50.821 E1.57576
G1 X58.885 Y50.824 E1.57644
G1 X59.744 Y51.683 E1.58215
G1 X59.739 Y51.536 E1.58285
G1 X59.029 Y50.827 E1.58756
G1 X59.174 Y50.83 E1.58825
G1 X59.732 Y51.388 E1.59196
G1 X59.748 Y51.263 E1.59255
G1 X59.318 Y50.832 E1.59541
G1 X59.462 Y50.835 E1.59609
G1 X59.773 Y51.146 E1.59816
G1 X59.798 Y51.03 E1.59872
G1 X59.763 Y50.995 E1.59895
G1 X59.804 Y50.999 E1.59914
G0 F3600 X59.697 Y51.119
G0 X52.9 Y54.59
G0 X52.765 Y54.603
G1 F1800 X52.612 Y54.32 E1.60066
G1 X52.371 Y54.156 E1.60203
G1 X52.219 Y53.977 E1.60313
G1 F1500 E-4.89687
G0 F3600 X52.329 Y53.892
G0 X51.5 Y52.448
G0 X50.562 Y51.622
G0 X50.502 Y51.634
G1 F1500 E1.60313
G1 F1800 X50.376 Y51.508 E1.60397
G1 F1500 E-4.89603
;MESH:NONMESH
G0 F600 X50.376 Y51.508 Z0.7
G0 F3600 X50.517 Y51.562
G0 X51.732 Y50.972
G0 X52.926 Y52.394
;TIME_ELAPSED:16.437369
;LAYER:1
M106 S255
;TYPE:WALL-OUTER
;MESH:stl/usa_0.00517063x.stl
G1 F1500 E1.60397
G1 F1800 X52.82 Y52.197 E1.60537
G1 X52.783 Y51.94 E1.607
G1 X52.943 Y51.848 E1.60816
G1 X52.92 Y51.67 E1.60928
G1 X53.126 Y51.416 E1.61133
G1 X53.072 Y51.367 E1.61179
G1 X53.098 Y51.271 E1.61241
G1 X53.219 Y51.238 E1.6132
G1 X53.599 Y51.267 E1.61559
G1 X53.739 Y51.132 E1.61681
G1 X53.739 Y51.053 E1.6173
G1 X54.123 Y51.252 E1.62002
G1 X54.308 Y51.156 E1.62132
G1 X54.326 Y51.11 E1.62163
G1 X54.188 Y50.956 E1.62293
G1 X54.072 Y50.897 E1.62375
G1 X54.368 Y50.848 E1.62563
G1 X54.558 Y50.761 E1.62694
G1 X54.728 Y50.743 E1.62801
G1 X54.947 Y50.65 E1.6295
G1 X58.457 Y50.634 E1.65151
G1 X59.684 Y50.655 E1.6592
G1 X59.658 Y50.722 E1.65965
G1 X59.718 Y50.833 E1.66045
G1 X60.011 Y50.822 E1.66228
G1 X59.91 Y51.366 E1.66575
G1 X59.934 Y51.927 E1.66927
G1 X60.018 Y52.049 E1.6702
G1 X59.934 Y52.451 E1.67278
G1 X59.981 Y52.752 E1.67469
G1 X59.904 Y52.815 E1.67531
G1 X59.849 Y53.042 E1.67678
G1 X59.654 Y53.302 E1.67881
G1 X59.504 Y53.659 E1.68124
G1 X59.343 Y53.887 E1.68299
G1 X59.349 Y53.976 E1.68355
G1 X59.201 Y54 E1.68449
G1 X59.182 Y54.058 E1.68487
G1 X59.011 Y54.064 E1.68595
G1 X58.76 Y54.35 E1.68833
G1 X58.378 Y54.366 E1.69073
G1 X57.794 Y54.582 E1.69463
G1 X57.229 Y54.601 E1.69818
G1 X57.146 Y54.539 E1.69883
G1 X56.975 Y54.55 E1.6999
G1 X56.655 Y54.766 E1.70232
G1 X56.531 Y54.968 E1.70381
G1 X56.391 Y55.057 E1.70485
G1 X56.314 Y55.037 E1.70535
G1 X56.243 Y54.936 E1.70612
G1 X56.051 Y54.958 E1.70734
G1 X55.956 Y55.025 E1.70806
G1 X55.732 Y55.383 E1.71071
G1 X55.658 Y55.592 E1.7121
G1 X55.357 Y55.654 E1.71403
G1 X55.362 Y55.459 E1.71525
G1 X55.292 Y55.271 E1.71651
G1 X55.051 Y55.143 E1.71822
G1 X54.929 Y55.019 E1.71931
G1 X54.618 Y54.946 E1.72131
G1 X54.361 Y54.95 E1.72293
G1 X54.285 Y55.03 E1.72362
G1 X54.11 Y55.059 E1.72473
G1 X54.023 Y55.007 E1.72537
G1 X53.957 Y54.846 E1.72646
G1 X53.424 Y54.814 E1.72981
G1 X53.276 Y54.935 E1.731
G1 X53.011 Y54.904 E1.73268
G1 X52.824 Y55.093 E1.73434
G1 X52.76 Y55.465 E1.73671
G1 X52.515 Y55.847 E1.73956
G1 X52.438 Y55.821 E1.74007
G1 X52.373 Y55.574 E1.74167
G1 X52.609 Y54.799 E1.74675
G1 X52.588 Y54.622 E1.74786
G1 X52.484 Y54.444 E1.74916
G1 X52.251 Y54.294 E1.75089
G1 X52.107 Y54.121 E1.75231
G1 X51.999 Y54.109 E1.75299
G1 X51.98 Y54.056 E1.75334
G1 X51.737 Y53.907 E1.75513
G1 X51.744 Y53.819 E1.75568
G1 X51.632 Y53.706 E1.75668
G1 X51.677 Y53.43 E1.75843
G1 X51.406 Y52.939 E1.76195
G1 X51.304 Y52.652 E1.76386
G1 X51.048 Y52.562 E1.76556
G1 X51.031 Y52.511 E1.7659
G1 X50.705 Y52.464 E1.76796
G1 X50.654 Y52.41 E1.76843
G1 X50.778 Y52.261 E1.76964
G1 X50.653 Y51.945 E1.77177
G1 X50.421 Y51.79 E1.77352
G1 X50.31 Y51.772 E1.77423
G1 X50.142 Y51.67 E1.77546
G1 X50.251 Y51.382 E1.77739
G1 X50.276 Y51.106 E1.77913
G1 X50.347 Y51.062 E1.77965
G1 X50.502 Y51.059 E1.78063
G1 X50.752 Y51.523 E1.78393
G1 X50.881 Y51.615 E1.78492
G1 X51.482 Y51.665 E1.78871
G1 X51.675 Y51.848 E1.79037
G1 X51.692 Y51.99 E1.79127
G1 X51.919 Y52.066 E1.79277
G1 X52.145 Y52.06 E1.79419
G1 X52.192 Y52.208 E1.79516
G1 X52.385 Y52.351 E1.79667
G1 X52.757 Y52.49 E1.79916
G1 X52.926 Y52.394 E1.80038
M204 S4000
M205 X25 Y25
G0 F5400 X52.832 Y52.219
G0 X51.575 Y52.373
M204 S3000
M205 X20 Y20
;TYPE:SKIN
G1 F180000 X51.279 Y52.118 E1.8004
M204 S4000
M205 X25 Y25
G0 F5400 X51.574 Y52.396
M204 S3000
M205 X20 Y20
