;FLAVOR:Marlin
;TIME:6666
;Filament used: 0m
;Layer height: 0.4
;MINX:2.14748e+06
;MINY:2.14748e+06
;MINZ:2.14748e+06
;MAXX:-2.14748e+06
;MAXY:-2.14748e+06
;MAXZ:-2.14748e+06
;TARGET_MACHINE.NAME:Pather

;Generated with Cura_SteamEngine 5.9.1
M104 S215
M105
M109 S215
M82 ;absolute extrusion mode
G28 ;Home
G1 Z15.0 F6000 ;Move the platform down 15mm
;Prime the extruder
G92 E0
G1 F200 E3
G92 E0
G92 E0
G92 E0
G1 F1500 E-6.5
;LAYER_COUNT:25
;LAYER:0
M107
M204 S3000
M205 X20 Y20
;MESH:stl/usa_0.00517331x.stl
G0 F3600 X52.949 Y52.392 Z0.3
;TYPE:WALL-OUTER
G1 F1500 E0
G1 F1800 X52.825 Y52.167 E0.00121
G1 X52.794 Y51.934 E0.00231
G1 X52.942 Y51.797 E0.00326
G1 X52.918 Y51.67 E0.00387
G1 X53.106 Y51.422 E0.00533
G1 X53.065 Y51.352 E0.00571
G1 X53.084 Y51.296 E0.00599
G1 X53.278 Y51.231 E0.00695
G1 X53.593 Y51.258 E0.00844
G1 X53.755 Y51.077 E0.00958
G1 X54.119 Y51.248 E0.01148
G1 X54.338 Y51.092 E0.01274
G1 X54.057 Y50.906 E0.01432
G1 X54.547 Y50.771 E0.01671
G1 X55.066 Y50.654 E0.01922
G1 X56.184 Y50.638 E0.02447
G1 X58.515 Y50.634 E0.03544
G1 X59.692 Y50.655 E0.04097
G1 X59.682 Y50.765 E0.04149
G1 X59.777 Y50.837 E0.04205
G1 X60.017 Y50.83 E0.04318
G1 X60.024 Y50.939 E0.0437
G1 X59.918 Y51.371 E0.04579
G1 X59.958 Y51.976 E0.04864
G1 X60.015 Y52.056 E0.0491
G1 X59.946 Y52.553 E0.05146
G1 X59.978 Y52.731 E0.05231
G1 X59.865 Y53.014 E0.05374
G1 X59.682 Y53.279 E0.05526
G1 X59.508 Y53.661 E0.05723
G1 X59.377 Y53.834 E0.05825
G1 X59.361 Y53.978 E0.05893
G1 X59.236 Y54.01 E0.05954
G1 X59.187 Y54.07 E0.0599
G1 X59.024 Y54.072 E0.06067
G1 X58.776 Y54.328 E0.06235
G1 X58.466 Y54.362 E0.06381
G1 X57.755 Y54.558 E0.06728
G1 X57.213 Y54.585 E0.06983
G1 X57.13 Y54.538 E0.07028
G1 X56.965 Y54.553 E0.07106
G1 X56.669 Y54.767 E0.07278
G1 X56.515 Y54.979 E0.07401
G1 X56.341 Y55.057 E0.07491
G1 X56.216 Y54.962 E0.07565
G1 X56.074 Y54.967 E0.07632
G1 X55.94 Y55.068 E0.0771
G1 X55.732 Y55.388 E0.0789
G1 X55.661 Y55.601 E0.07995
G1 X55.373 Y55.663 E0.08134
G1 X55.351 Y55.429 E0.08245
G1 X55.295 Y55.299 E0.08311
G1 X55.168 Y55.182 E0.08392
G1 X55.044 Y55.14 E0.08454
G1 X54.922 Y55.017 E0.08535
G1 X54.612 Y54.946 E0.08685
G1 X54.47 Y54.972 E0.08753
G1 X54.406 Y54.946 E0.08785
G1 X54.259 Y55.047 E0.08869
G1 X54.112 Y55.061 E0.08939
G1 X54.029 Y55.012 E0.08984
G1 X53.933 Y54.858 E0.09069
G1 X53.434 Y54.83 E0.09304
G1 X53.258 Y54.931 E0.094
G1 X53.008 Y54.909 E0.09518
G1 X52.824 Y55.113 E0.09647
G1 X52.772 Y55.441 E0.09803
G1 X52.519 Y55.841 E0.10026
G1 X52.431 Y55.799 E0.10072
G1 X52.384 Y55.579 E0.10177
G1 X52.586 Y54.919 E0.10502
G1 X52.594 Y54.678 E0.10615
G1 X52.492 Y54.468 E0.10725
G1 X52.091 Y54.129 E0.10972
G1 X51.989 Y54.116 E0.1102
G1 X51.932 Y54 E0.11081
G1 X51.744 Y53.909 E0.11179
G1 X51.738 Y53.839 E0.11212
G1 X51.633 Y53.698 E0.11295
G1 X51.662 Y53.48 E0.11399
G1 X51.295 Y52.677 E0.11814
G1 X51.087 Y52.592 E0.11919
G1 X50.998 Y52.51 E0.11976
G1 X50.669 Y52.419 E0.12137
G1 X50.77 Y52.273 E0.1222
G1 X50.654 Y51.958 E0.12378
G1 X50.42 Y51.801 E0.12511
G1 X50.165 Y51.697 E0.1264
G1 X50.136 Y51.635 E0.12672
G1 X50.254 Y51.377 E0.12806
G1 X50.294 Y51.108 E0.12934
G1 X50.48 Y51.054 E0.13025
G1 X50.607 Y51.224 E0.13125
G1 X50.679 Y51.424 E0.13225
G1 X50.815 Y51.59 E0.13325
G1 X51.531 Y51.711 E0.13667
G1 X51.672 Y51.855 E0.13762
G1 X51.689 Y51.971 E0.13817
G1 X51.852 Y52.056 E0.13903
G1 X52.162 Y52.091 E0.1405
G1 X52.208 Y52.216 E0.14113
G1 X52.632 Y52.455 E0.14341
G1 X52.937 Y52.439 E0.14485
G1 X52.949 Y52.392 E0.14508
G0 F3600 X52.853 Y52.217
G0 X52.948 Y52.521
;TYPE:SKIN
G1 F1800 X53.019 Y52.357 E0.14592
G1 X52.901 Y52.14 E0.14708
G1 X52.877 Y51.965 E0.14791
G1 X53.018 Y51.801 E0.14893
G1 X53.001 Y51.692 E0.14945
G1 X53.183 Y51.425 E0.15097
G1 X53.161 Y51.355 E0.15131
G1 X53.288 Y51.311 E0.15194
G1 X53.636 Y51.325 E0.15358
G1 X53.798 Y51.17 E0.15464
G1 X54.095 Y51.324 E0.15621
G1 X54.206 Y51.309 E0.15674
G1 X54.409 Y51.126 E0.15802
G1 X54.4 Y51.057 E0.15835
G1 X54.236 Y50.924 E0.15934
G1 X55.074 Y50.734 E0.16338
G1 X56.173 Y50.719 E0.16855
G1 X58.502 Y50.714 E0.1795
G1 X59.598 Y50.73 E0.18466
G1 X59.619 Y50.806 E0.18503
G1 X59.721 Y50.896 E0.18567
G1 X59.934 Y50.913 E0.18667
G1 X59.838 Y51.343 E0.18875
G1 X59.878 Y51.98 E0.19175
G1 X59.927 Y52.075 E0.19225
G1 X59.862 Y52.536 E0.19444
G1 X59.892 Y52.715 E0.19529
G1 X59.791 Y52.98 E0.19663
G1 X59.606 Y53.247 E0.19815
G1 X59.436 Y53.618 E0.20007
G1 X59.304 Y53.795 E0.20111
G1 X59.282 Y53.915 E0.20169
G1 X59.152 Y53.987 E0.20238
G1 X58.96 Y54.014 E0.2033
G1 X58.736 Y54.248 E0.20482
G1 X58.461 Y54.282 E0.20612
G1 X57.744 Y54.474 E0.20961
G1 X57.231 Y54.501 E0.21203
G1 X57.141 Y54.458 E0.2125
G1 X56.948 Y54.473 E0.21341
G1 X56.612 Y54.704 E0.21533
G1 X56.459 Y54.911 E0.21654
G1 X56.349 Y54.962 E0.21711
G1 X56.222 Y54.882 E0.21781
G1 X56.048 Y54.892 E0.21863
G1 X55.894 Y54.999 E0.21951
G1 X55.664 Y55.339 E0.22144
G1 X55.598 Y55.528 E0.22239
G1 X55.441 Y55.562 E0.22314
G1 X55.346 Y55.234 E0.22475
G1 X55.21 Y55.114 E0.2256
G1 X55.084 Y55.068 E0.22623
G1 X54.965 Y54.948 E0.22703
G1 X54.616 Y54.867 E0.22871
G1 X54.39 Y54.866 E0.22977
G1 X54.23 Y54.967 E0.23066
G1 X54.134 Y54.976 E0.23112
G1 X53.967 Y54.787 E0.2323
G1 X53.418 Y54.75 E0.23489
G1 X53.241 Y54.844 E0.23583
G1 X53.009 Y54.825 E0.23693
G1 F1698.1 X52.742 Y55.087 E0.23879
G1 F1451.6 X52.68 Y55.403 E0.24067
G1 F1343.3 X52.509 Y55.672 E0.24268
G1 X52.482 Y55.582 E0.24327
G1 F1487.6 X52.665 Y54.944 E0.24705
G1 F1730.8 X52.674 Y54.687 E0.2483
G1 F1800 X52.552 Y54.416 E0.2497
G1 X52.138 Y54.063 E0.25226
G1 X52.041 Y54.039 E0.25273
G1 X51.976 Y53.932 E0.25332
G1 X51.82 Y53.853 E0.25414
G1 X51.716 Y53.677 E0.2551
G1 X51.738 Y53.468 E0.25609
G1 X51.344 Y52.608 E0.26054
G1 X51.128 Y52.521 E0.26164
G1 X51.04 Y52.441 E0.26219
G1 X50.791 Y52.382 E0.2634
G1 X50.845 Y52.252 E0.26406
G1 X50.702 Y51.894 E0.26587
G1 X50.229 Y51.622 E0.26844
G1 X50.326 Y51.401 E0.26957
G1 X50.365 Y51.168 E0.27068
G1 X50.448 Y51.146 E0.27109
G1 X50.608 Y51.465 E0.27277
G1 X50.807 Y51.67 E0.27411
G1 X51.491 Y51.783 E0.27737
G1 X51.593 Y51.889 E0.27806
G1 X51.62 Y52.009 E0.27864
G1 X51.825 Y52.131 E0.27976
G1 X52.1 Y52.163 E0.28106
G1 X52.148 Y52.271 E0.28162
G1 X52.612 Y52.53 E0.28412
G1 X52.948 Y52.521 E0.2857
G0 F3600 X53.16 Y52.612
G0 X52.842 Y54.736
G0 X52.759 Y54.881
G1 F1800 X52.786 Y54.907 E0.28588
G1 X52.858 Y54.838 E0.28634
G1 X52.773 Y54.753 E0.28691
G1 X52.72 Y54.559 E0.28786
G1 X52.93 Y54.768 E0.28925
G1 X53.034 Y54.731 E0.28977
G1 X51.832 Y53.529 E0.29776
G1 X51.798 Y53.353 E0.29861
G1 X53.184 Y54.74 E0.30783
G1 X53.29 Y54.705 E0.30835
G1 X51.68 Y53.094 E0.31906
G1 X51.561 Y52.834 E0.32041
G1 X53.384 Y54.657 E0.33253
G1 X53.525 Y54.657 E0.33319
G1 X51.443 Y52.574 E0.34704
G0 F3600 X51.562 Y52.519
G0 X51.073 Y52.346
M104 S210
G1 F1800 X50.947 Y52.237 E0.34783
G1 X50.927 Y52.311 E0.34819
G1 X51.083 Y52.349 E0.34894
G1 X51.183 Y52.436 E0.34957
G1 X51.389 Y52.52 E0.35061
G1 X50.835 Y51.966 E0.3543
G1 X50.775 Y51.764 E0.35529
G1 X53.676 Y54.666 E0.37458
G1 X53.826 Y54.674 E0.37529
G1 X50.944 Y51.793 E0.39445
G1 X51.115 Y51.822 E0.39527
G1 X54.165 Y54.864 E0.41553
G1 X54.256 Y54.821 E0.416
G1 X51.284 Y51.85 E0.43576
G1 X51.442 Y51.876 E0.43652
G1 X51.567 Y52.102 E0.43773
G1 X51.804 Y52.228 E0.43899
G1 X54.352 Y54.776 E0.45594
G1 X54.483 Y54.766 E0.45656
G1 X51.966 Y52.249 E0.47329
G1 X52.032 Y52.257 E0.47361
G1 X52.073 Y52.342 E0.47405
G1 X52.374 Y52.515 E0.47568
G1 X54.625 Y54.767 E0.49066
G1 X54.808 Y54.808 E0.49154
G1 X52.63 Y52.63 E0.50602
G1 X52.769 Y52.628 E0.50668
G1 X55.112 Y54.971 E0.52226
G1 X55.271 Y55.033 E0.52306
G1 X55.449 Y55.207 E0.52423
G1 X55.538 Y55.397 E0.52522
G1 X55.577 Y55.294 E0.52574
G1 X52.909 Y52.626 E0.54348
G1 X53.014 Y52.59 E0.544
G1 X55.632 Y55.207 E0.56141
G1 X55.69 Y55.124 E0.56189
G1 X53.068 Y52.503 E0.57932
G1 X53.106 Y52.399 E0.57984
G1 X55.748 Y55.04 E0.59741
G1 X55.806 Y54.957 E0.59789
G1 X53.041 Y52.193 E0.61627
G1 X52.984 Y51.994 E0.61725
G1 X55.878 Y54.888 E0.63649
G1 X55.96 Y54.829 E0.63697
G1 X53.051 Y51.919 E0.65632
G1 X53.106 Y51.833 E0.6568
G1 X56.067 Y54.794 E0.67649
G1 X56.198 Y54.784 E0.67711
G1 X53.114 Y51.7 E0.69762
G1 X53.169 Y51.614 E0.6981
G1 X56.379 Y54.823 E0.71944
G1 X56.445 Y54.748 E0.71991
G1 X53.224 Y51.527 E0.74133
G1 X53.279 Y51.441 E0.74181
G1 X56.511 Y54.672 E0.7633
G1 X56.581 Y54.601 E0.76377
G1 X53.408 Y51.429 E0.78487
G1 X53.545 Y51.424 E0.78552
G1 X56.666 Y54.545 E0.80627
G1 X56.75 Y54.488 E0.80675
G1 X53.681 Y51.418 E0.82716
G1 X53.754 Y51.349 E0.82764
G1 X56.834 Y54.43 E0.84812
G1 X56.922 Y54.377 E0.84861
G1 X53.86 Y51.314 E0.86897
G1 X54.106 Y51.419 E0.87023
G1 X57.053 Y54.366 E0.88983
G1 X57.208 Y54.379 E0.89056
G1 X54.235 Y51.407 E0.91033
G1 X54.314 Y51.344 E0.91081
G1 X57.363 Y54.393 E0.93108
G1 X57.497 Y54.386 E0.93171
G1 X54.389 Y51.277 E0.95239
G1 X54.463 Y51.211 E0.95285
G1 X57.631 Y54.379 E0.97392
G1 X57.759 Y54.365 E0.97453
G1 X54.483 Y51.088 E0.99632
G1 X54.458 Y50.976 E0.99686
G1 X54.502 Y50.966 E0.99707
G1 X57.871 Y54.335 E1.01948
G1 X57.983 Y54.306 E1.02002
G1 X54.618 Y50.941 E1.0424
G1 X54.733 Y50.915 E1.04295
G1 X58.094 Y54.276 E1.06531
G1 X58.206 Y54.246 E1.06585
G1 X54.848 Y50.888 E1.08818
G1 X54.963 Y50.862 E1.08874
G1 X58.318 Y54.217 E1.11105
G1 X58.43 Y54.187 E1.1116
G1 X55.079 Y50.836 E1.13388
G1 X55.217 Y50.832 E1.13453
G1 X58.553 Y54.169 E1.15672
G1 X58.679 Y54.154 E1.15732
G1 X55.356 Y50.83 E1.17942
G1 X55.496 Y50.829 E1.18008
G1 X58.754 Y54.087 E1.20175
G1 X58.823 Y54.014 E1.20222
G1 X55.635 Y50.827 E1.22342
G1 X55.774 Y50.825 E1.22407
G1 X58.892 Y53.942 E1.2448
G1 X58.993 Y53.902 E1.24532
G1 X55.914 Y50.823 E1.26579
G1 X56.054 Y50.821 E1.26645
G1 X59.102 Y53.87 E1.28673
G1 X59.198 Y53.824 E1.28723
G1 X56.193 Y50.819 E1.30721
G1 X56.334 Y50.819 E1.30787
G1 X59.236 Y53.72 E1.32717
G1 X59.297 Y53.64 E1.32764
G1 X56.475 Y50.818 E1.34641
G1 X56.617 Y50.818 E1.34708
G1 X59.355 Y53.557 E1.36529
G1 X59.4 Y53.46 E1.36579
G1 X56.757 Y50.818 E1.38337
G1 X56.899 Y50.818 E1.38404
G1 X59.444 Y53.363 E1.40096
G1 X59.489 Y53.266 E1.40146
G1 X57.04 Y50.818 E1.41775
G1 X57.181 Y50.817 E1.41841
G1 X59.537 Y53.173 E1.43408
G1 X59.595 Y53.09 E1.43456
G1 X57.322 Y50.817 E1.44967
G1 X57.463 Y50.816 E1.45034
G1 X59.653 Y53.006 E1.4649
G1 X59.707 Y52.919 E1.46538
G1 X57.604 Y50.816 E1.47937
G1 X57.745 Y50.816 E1.48003
G1 X59.746 Y52.817 E1.49334
G1 X59.785 Y52.714 E1.49386
G1 X57.887 Y50.816 E1.50648
G1 X58.027 Y50.815 E1.50714
G1 X59.763 Y52.55 E1.51868
G1 X59.779 Y52.425 E1.51927
G1 X58.169 Y50.815 E1.52998
G1 X58.309 Y50.814 E1.53064
G1 X59.796 Y52.3 E1.54052
G1 X59.812 Y52.175 E1.54112
G1 X58.451 Y50.814 E1.55017
G1 X58.594 Y50.816 E1.55084
G1 X59.784 Y52.006 E1.55876
G1 X59.771 Y51.851 E1.55949
G1 X58.737 Y50.818 E1.56636
G1 X58.881 Y50.82 E1.56704
G1 X59.763 Y51.702 E1.5729
G1 X59.754 Y51.552 E1.57361
G1 X59.024 Y50.822 E1.57846
G1 X59.168 Y50.824 E1.57914
G1 X59.746 Y51.402 E1.58299
G1 X59.753 Y51.268 E1.58362
G1 X59.311 Y50.826 E1.58656
G1 X59.456 Y50.829 E1.58724
G1 X59.779 Y51.152 E1.58939
G1 X59.804 Y51.036 E1.58994
G1 X59.765 Y50.997 E1.5902
G1 X59.811 Y51.003 E1.59042
G0 F3600 X59.688 Y51.13
G0 X52.851 Y54.499
G0 X52.72 Y54.559
G1 F1800 X52.638 Y54.361 E1.59143
G1 X52.192 Y53.977 E1.5942
G1 X52.093 Y53.932 E1.59471
G0 F3600 X52.188 Y53.839
G0 X51.892 Y53.778
G1 F1800 X51.993 Y53.831 E1.59525
G1 X51.824 Y53.662 E1.59637
G1 F1500 E-4.90363
G0 F3600 X51.951 Y53.622
G0 X51.468 Y52.469
G0 X50.599 Y51.666
G0 X50.517 Y51.507
G1 F1500 E1.59637
G1 F1800 X50.405 Y51.395 E1.59711
G1 X50.352 Y51.578 E1.59801
G1 X50.574 Y51.706 E1.59922
G1 X50.373 Y51.504 E1.60056
G1 F1500 E-4.89944
;MESH:NONMESH
G0 F600 X50.373 Y51.504 Z0.7
G0 F3600 X50.509 Y51.564
G0 X52.949 Y52.392
;TIME_ELAPSED:16.313182
;LAYER:1
M106 S255
;TYPE:WALL-OUTER
;MESH:stl/usa_0.00517331x.stl
G1 F1500 E1.60056
G1 F1800 X52.825 Y52.167 E1.60217
G1 X52.794 Y51.934 E1.60364
G1 X52.942 Y51.797 E1.6049
G1 X52.918 Y51.67 E1.60572
G1 X53.106 Y51.422 E1.60767
G1 X53.065 Y51.352 E1.60818
G1 X53.084 Y51.296 E1.60855
G1 X53.278 Y51.231 E1.60983
G1 X53.593 Y51.258 E1.61181
G1 X53.755 Y51.077 E1.61333
G1 X54.119 Y51.248 E1.61586
G1 X54.338 Y51.092 E1.61754
G1 X54.057 Y50.906 E1.61965
G1 X54.547 Y50.771 E1.62284
G1 X55.066 Y50.654 E1.62618
G1 X56.184 Y50.638 E1.63319
G1 X58.515 Y50.634 E1.6478
G1 X59.692 Y50.655 E1.65519
G1 X59.682 Y50.765 E1.65588
G1 X59.777 Y50.837 E1.65663
G1 X60.017 Y50.83 E1.65813
G1 X60.024 Y50.939 E1.65882
G1 X59.918 Y51.371 E1.6616
G1 X59.958 Y51.976 E1.66541
G1 X60.015 Y52.056 E1.66602
G1 X59.946 Y52.553 E1.66917
G1 X59.978 Y52.731 E1.6703
G1 X59.865 Y53.014 E1.67221
G1 X59.682 Y53.279 E1.67423
G1 X59.508 Y53.661 E1.67686
G1 X59.377 Y53.834 E1.67823
G1 X59.361 Y53.978 E1.67913
G1 X59.236 Y54.01 E1.67994
G1 X59.187 Y54.07 E1.68043
G1 X59.024 Y54.072 E1.68145
G1 X58.776 Y54.328 E1.68369
G1 X58.466 Y54.362 E1.68564
G1 X57.755 Y54.558 E1.69027
G1 X57.213 Y54.585 E1.69367
G1 X57.13 Y54.538 E1.69427
G1 X56.965 Y54.553 E1.6953
G1 X56.669 Y54.767 E1.69759
G1 X56.515 Y54.979 E1.69924
G1 X56.341 Y55.057 E1.70043
G1 X56.216 Y54.962 E1.70142
G1 X56.074 Y54.967 E1.70231
G1 X55.94 Y55.068 E1.70336
G1 X55.732 Y55.388 E1.70575
G1 X55.661 Y55.601 E1.70716
G1 X55.373 Y55.663 E1.70901
G1 X55.351 Y55.429 E1.71048
G1 X55.295 Y55.299 E1.71137
G1 X55.168 Y55.182 E1.71245
G1 X55.044 Y55.14 E1.71327
G1 X54.922 Y55.017 E1.71436
G1 X54.612 Y54.946 E1.71635
G1 X54.47 Y54.972 E1.71726
G1 X54.406 Y54.946 E1.71769
G1 X54.259 Y55.047 E1.71881
G1 X54.112 Y55.061 E1.71974
G1 X54.03 Y55.012 E1.72034
G1 X53.938 Y54.858 E1.72146
G1 X53.438 Y54.83 E1.7246
G1 X53.258 Y54.931 E1.72589
G1 X53.008 Y54.909 E1.72747
G1 X52.824 Y55.113 E1.72919
G1 X52.772 Y55.441 E1.73127
G1 X52.519 Y55.841 E1.73424
G1 X52.431 Y55.799 E1.73485
G1 X52.384 Y55.579 E1.73626
G1 X52.586 Y54.919 E1.74059
G1 X52.594 Y54.678 E1.7421
G1 X52.492 Y54.468 E1.74357
G1 X52.091 Y54.129 E1.74686
G1 X51.989 Y54.116 E1.7475
G1 X51.932 Y54 E1.74831
G1 X51.744 Y53.909 E1.74962
G1 X51.738 Y53.839 E1.75006
G1 X51.633 Y53.698 E1.75117
G1 X51.662 Y53.48 E1.75255
G1 X51.295 Y52.677 E1.75808
G1 X51.087 Y52.592 E1.75949
G1 X50.998 Y52.51 E1.76025
G1 X50.669 Y52.419 E1.76239
G1 X50.77 Y52.273 E1.7635
G1 X50.654 Y51.958 E1.76561
G1 X50.42 Y51.801 E1.76737
G1 X50.165 Y51.697 E1.7691
G1 X50.136 Y51.635 E1.76953
G1 X50.254 Y51.377 E1.77131
G1 X50.294 Y51.108 E1.77301
G1 X50.48 Y51.054 E1.77423
G1 X50.607 Y51.224 E1.77556
G1 X50.679 Y51.424 E1.77689
G1 X50.815 Y51.59 E1.77824
G1 X51.531 Y51.711 E1.78279
G1 X51.672 Y51.855 E1.78405
G1 X51.689 Y51.971 E1.78479
G1 X51.852 Y52.056 E1.78594
G1 X52.162 Y52.091 E1.7879
G1 X52.208 Y52.216 E1.78873
G1 X52.632 Y52.455 E1.79179
G1 X52.937 Y52.439 E1.7937
G1 X52.949 Y52.392 E1.794
M204 S4000
M205 X25 Y25
G0 F5400 X52.853 Y52.217
G0 X51.499 Y52.32
M204 S3000
M205 X20 Y20
;TYPE:SKIN
G1 F25714.3 X51.257 Y52.129 E1.79414
M204 S4000
M205 X25 Y25
G0 F5400 X51.499 Y52.353
M204 S3000
M205 X20 Y20
G1 F1800 X51.541 Y52.315 E1.79449
G1 X51.389 Y52.192 E1.79572
G1 X51.308 Y52.055 E1.79672
G1 X51.071 Y52.015 E1.79823
G1 X51.126 Y52.152 E1.79915
G1 X51.499 Y52.353 E1.80181
M204 S4000
M205 X25 Y25
G0 F5400 X51.712 Y52.295
M204 S3000
M205 X20 Y20
G1 F1800 X51.531 Y52.196 E1.8031
G1 X51.37 Y51.964 E1.80487
G1 X50.911 Y51.887 E1.80779
G1 X51.037 Y52.233 E1.8101
G1 X51.501 Y52.488 E1.81342
G1 X51.712 Y52.295 E1.81521
M204 S4000
M205 X25 Y25
G0 F5400 X51.698 Y52.324
G0 X50.773 Y51.841
M204 S3000
M205 X20 Y20
G1 F2000 X50.94 Y52.225 E1.81758
G1 F1800 X50.926 Y52.31 E1.81812
G1 X51.075 Y52.345 E1.81907
