;FLAVOR:Marlin
;TIME:6666
;Filament used: 0m
;Layer height: 0.4
;MINX:2.14748e+06
;MINY:2.14748e+06
;MINZ:2.14748e+06
;MAXX:-2.14748e+06
;MAXY:-2.14748e+06
;MAXZ:-2.14748e+06
;TARGET_MACHINE.NAME:Pather

;Generated with Cura_SteamEngine 5.9.1
M104 S215
M105
M109 S215
M82 ;absolute extrusion mode
G28 ;Home
G1 Z15.0 F6000 ;Move the platform down 15mm
;Prime the extruder
G92 E0
G1 F200 E3
G92 E0
G92 E0
G92 E0
G1 F1500 E-6.5
;LAYER_COUNT:25
;LAYER:0
;note -- min layer time used
M106 S255
M104 S30.6
M204 S3000
M205 X20 Y20
;MESH:stl/ut_0.023753x.stl
G0 F3600 X56.72 Y52.868 Z0.3
;TYPE:WALL-OUTER
G1 F1500 E0
G1 F1000.6 X56.533 Y52.917 E0.00182
G1 X56.42 Y53.436 E0.00681
G1 X56.022 Y54.235 E0.01521
G1 X55.981 Y54.625 E0.0189
G1 X56.096 Y55.192 E0.02434
G1 X55.996 Y55.476 E0.02717
G1 X55.892 Y55.596 E0.02866
G1 X55.747 Y55.672 E0.0302
G1 X55.265 Y55.672 E0.03474
G1 X55.104 Y55.632 E0.0363
G1 X55 Y55.543 E0.03759
G1 X54.851 Y55.185 E0.04123
G1 X54.968 Y54.709 E0.04584
G1 X54.965 Y54.46 E0.04818
G1 X54.849 Y54.06 E0.0521
G1 X54.536 Y53.403 E0.05895
G1 X54.436 Y52.951 E0.0633
G1 X54.391 Y52.903 E0.06392
G1 X54.237 Y52.868 E0.0654
G1 X53.66 Y53.009 E0.07099
G1 X53.436 Y52.948 E0.07317
G1 X53.232 Y52.8 E0.07554
G1 X53.562 Y52.603 E0.07916
G1 X53.612 Y52.523 E0.08005
G1 F935.1 X53.566 Y52.344 E0.08191
G1 F794.1 X53.23 Y52.134 E0.0866
G1 F787.9 X52.253 Y51.446 E0.10088
G1 F935.1 X51.531 Y51.056 E0.10913
G1 F1163.5 X51.126 Y50.948 E0.11252
G1 F1429.4 X50.573 Y50.929 E0.11617
G1 F1493.4 X50.539 Y50.861 E0.11665
G1 X50.616 Y50.802 E0.11726
G1 F1399.4 X51.038 Y50.789 E0.1201
G1 F1235.3 X51.673 Y50.92 E0.12504
G1 F990.7 X52.318 Y51.215 E0.13177
G1 F820.2 X53.435 Y51.937 E0.14703
G1 F877.7 X54.049 Y52.048 E0.15372
G1 F1000.6 X54.551 Y51.975 E0.1585
G1 X54.701 Y51.904 E0.16006
G1 X55.08 Y51.904 E0.16362
G1 X55.653 Y51.88 E0.16902
G1 X56.249 Y51.904 E0.17463
G1 X56.6 Y52.022 E0.17811
G1 X57.124 Y52.025 E0.18304
G1 F837.3 X57.69 Y51.827 E0.18978
G1 F848 X58.759 Y51.139 E0.20389
G1 F1099.5 X59.403 Y50.887 E0.2098
G1 F1235.3 X59.905 Y50.789 E0.2137
G1 F1409.3 X60.331 Y50.802 E0.21655
G1 F1504.6 X60.406 Y50.86 E0.21714
G1 F1471.5 X60.406 Y50.929 E0.21758
G1 F1389.7 X59.843 Y50.947 E0.2214
G1 F1266.6 X59.428 Y51.058 E0.22459
G1 F990.7 X58.958 Y51.261 E0.22945
G1 F778.7 X57.954 Y51.994 E0.24447
G1 F833.8 X57.344 Y52.399 E0.25274
G1 F1000.6 X57.332 Y52.516 E0.25384
G1 X57.467 Y52.669 E0.25576
G1 X57.691 Y52.742 E0.25798
G1 X57.72 Y52.822 E0.25878
G1 X57.638 Y52.904 E0.25987
G1 X57.202 Y53.006 E0.26408
G1 X56.72 Y52.868 E0.2688
G0 F3600 X56.533 Y52.917
G0 X56.532 Y52.923
G0 X56.469 Y52.602
G0 X56.413 Y52.785
;TYPE:SKIN
G1 F1000.6 X56.326 Y52.92 E0.27031
G1 X56.244 Y53.376 E0.27467
G1 X55.848 Y54.185 E0.28314
G1 X55.801 Y54.651 E0.28754
G1 X55.908 Y55.176 E0.29258
G1 X55.839 Y55.375 E0.29456
G1 X55.693 Y55.492 E0.29632
G1 X55.295 Y55.492 E0.30007
G1 X55.146 Y55.421 E0.30162
G1 X55.038 Y55.164 E0.30424
G1 X55.146 Y54.737 E0.30838
G1 X55.14 Y54.429 E0.31128
G1 X55.015 Y53.997 E0.31551
G1 X54.708 Y53.342 E0.32231
G1 X54.596 Y52.87 E0.32688
G1 X54.496 Y52.757 E0.32829
G1 X54.205 Y52.688 E0.33111
G1 X53.668 Y52.819 E0.33631
G1 X53.591 Y52.787 E0.33709
G1 X53.652 Y52.756 E0.33773
G1 X53.774 Y52.572 E0.33981
G1 X53.776 Y52.359 E0.34181
G1 X53.679 Y52.187 E0.34367
G1 X54.034 Y52.228 E0.34703
G1 X54.574 Y52.152 E0.35216
G1 X54.741 Y52.084 E0.35386
G1 X55.076 Y52.084 E0.35701
G1 X55.652 Y52.06 E0.36243
G1 X56.214 Y52.084 E0.36772
G1 X56.544 Y52.192 E0.37099
G1 X57.148 Y52.201 E0.37667
G1 X57.418 Y52.124 E0.37931
G1 X57.2 Y52.289 E0.38188
G1 X57.161 Y52.555 E0.38441
G1 X57.249 Y52.727 E0.38623
G1 X57.352 Y52.785 E0.38734
G1 X57.21 Y52.82 E0.38871
G1 X56.704 Y52.689 E0.39363
G1 X56.413 Y52.785 E0.39651
G0 F3600 X56.381 Y52.619
G0 X56.927 Y52.402
G1 F1000.6 X56.967 Y52.441 E0.39704
G1 X56.969 Y52.554 E0.3981
G1 X56.742 Y52.5 E0.40029
G1 X56.641 Y52.399 E0.40164
G1 X56.27 Y52.31 E0.40523
G1 X56.507 Y52.547 E0.40838
G1 X56.298 Y52.621 E0.41046
G1 X55.95 Y52.273 E0.41509
G1 X55.654 Y52.26 E0.41788
G1 X56.181 Y52.787 E0.42489
G1 X56.11 Y52.998 E0.42698
G1 X55.382 Y52.271 E0.43666
G1 X55.111 Y52.283 E0.43921
G1 X56.066 Y53.238 E0.45191
G1 X55.988 Y53.442 E0.45397
G1 X54.83 Y52.284 E0.46937
G1 X54.611 Y52.349 E0.47152
G1 X55.894 Y53.631 E0.48858
G1 X55.801 Y53.821 E0.49057
G1 X54.784 Y52.804 E0.50409
G1 X54.873 Y53.176 E0.50769
G1 X55.707 Y54.01 E0.51878
G1 X55.654 Y54.239 E0.52099
G1 X55.083 Y53.669 E0.52858
G1 X55.264 Y54.133 E0.53327
G1 X55.623 Y54.492 E0.53804
G1 X55.622 Y54.773 E0.54068
G1 X55.337 Y54.489 E0.54447
G1 X55.338 Y54.772 E0.54713
G1 X55.712 Y55.147 E0.55211
G1 X55.622 Y55.292 E0.55372
G1 X55.301 Y55.274 E0.55674
G1 X55.248 Y55.147 E0.55804
G1 X55.283 Y55 E0.55946
G1 X55.572 Y55.289 E0.5633
G0 F3600 X54.815 Y53.203
G0 X54.535 Y52.555
G1 F1000.6 X54.363 Y52.383 E0.56559
G1 X53.978 Y52.436 E0.56924
G1 X53.989 Y52.537 E0.5702
G1 X54.185 Y52.488 E0.5721
G1 X54.115 Y52.418 E0.57303
G0 F3600 X55.199 Y52.625
;MESH:NONMESH
G0 F600 X55.199 Y52.625 Z0.7
G0 F3600 X56.66 Y52.563
G0 X56.72 Y52.868
;TIME_ELAPSED:7.224800
;LAYER:1
;note -- min layer time used
;TYPE:WALL-OUTER
;MESH:stl/ut_0.023753x.stl
G1 F774.7 X56.533 Y52.917 E0.57545
G1 X56.42 Y53.436 E0.58212
G1 X56.022 Y54.235 E0.59331
G1 X55.981 Y54.625 E0.59823
G1 X56.096 Y55.192 E0.60548
G1 X55.996 Y55.476 E0.60926
G1 X55.892 Y55.596 E0.61125
G1 X55.747 Y55.672 E0.6133
G1 X55.265 Y55.672 E0.61935
G1 X55.104 Y55.632 E0.62143
G1 X55 Y55.543 E0.62314
G1 X54.851 Y55.185 E0.62801
G1 X54.968 Y54.709 E0.63415
G1 X54.965 Y54.46 E0.63728
G1 X54.849 Y54.06 E0.6425
G1 X54.536 Y53.403 E0.65163
G1 X54.436 Y52.951 E0.65743
G1 X54.391 Y52.903 E0.65826
G1 X54.237 Y52.868 E0.66024
G1 X53.66 Y53.009 E0.66768
G1 X53.436 Y52.948 E0.6706
G1 X53.232 Y52.8 E0.67376
G1 X53.562 Y52.603 E0.67858
G1 X53.612 Y52.523 E0.67976
G1 F724.1 X53.566 Y52.344 E0.68224
G1 F614.9 X53.23 Y52.134 E0.6885
G1 F610 X52.253 Y51.446 E0.70753
G1 F724.1 X51.531 Y51.056 E0.71854
G1 F900.9 X51.126 Y50.948 E0.72306
G1 F1106.8 X50.573 Y50.929 E0.72792
G1 F1156.3 X50.539 Y50.861 E0.72856
G1 X50.616 Y50.802 E0.72937
G1 F1083.6 X51.038 Y50.789 E0.73316
G1 F956.5 X51.673 Y50.92 E0.73975
G1 F767.1 X52.318 Y51.215 E0.74873
G1 F635 X53.435 Y51.937 E0.76908
G1 F679.6 X54.049 Y52.048 E0.778
G1 F774.7 X54.551 Y51.975 E0.78436
G1 X54.701 Y51.904 E0.78644
G1 X55.08 Y51.904 E0.79119
G1 X55.653 Y51.88 E0.79838
G1 X56.249 Y51.904 E0.80586
G1 X56.6 Y52.022 E0.81051
G1 X57.124 Y52.025 E0.81708
G1 F648.3 X57.69 Y51.827 E0.82607
G1 F656.6 X58.759 Y51.139 E0.84488
G1 F851.4 X59.403 Y50.887 E0.85277
G1 F956.5 X59.905 Y50.789 E0.85796
G1 F1091.2 X60.331 Y50.802 E0.86176
G1 F1165 X60.406 Y50.86 E0.86255
G1 F1139.3 X60.406 Y50.929 E0.86314
G1 F1076 X59.843 Y50.947 E0.86822
G1 F980.7 X59.428 Y51.058 E0.87248
G1 F767.1 X58.958 Y51.261 E0.87896
G1 F602.9 X57.954 Y51.994 E0.899
G1 F645.6 X57.344 Y52.399 E0.91001
G1 F774.7 X57.332 Y52.516 E0.91149
G1 X57.467 Y52.669 E0.91405
G1 X57.691 Y52.742 E0.917
G1 X57.72 Y52.822 E0.91807
G1 X57.638 Y52.904 E0.91952
G1 X57.202 Y53.006 E0.92514
G1 X56.72 Y52.868 E0.93143
M204 S4000
M205 X25 Y25
G0 F5400 X56.533 Y52.917
G0 X56.532 Y52.923
G0 X56.469 Y52.602
G0 X55.472 Y53.895
G0 X55.484 Y54.324
M204 S3000
M205 X20 Y20
;TYPE:SKIN
G1 F1866.8 X55.472 Y54.677 E0.93326
G1 F1889.6 X55.408 Y55.139 E0.93566
G1 F1448.1 X55.539 Y55.139 E0.93654
G1 F1889.6 X55.472 Y54.677 E0.93894
M204 S4000
M205 X25 Y25
G0 F5400 X55.601 Y54.686
M204 S3000
M205 X20 Y20
G1 F774.7 X55.659 Y54.171 E0.94544
G1 X55.273 Y54.166 E0.95028
G1 X55.331 Y54.353 E0.95274
G1 X55.342 Y54.735 E0.95753
G1 X55.246 Y55.147 E0.96283
G1 X55.298 Y55.273 E0.96454
G1 X55.619 Y55.292 E0.96858
G1 X55.7 Y55.16 E0.97052
G1 X55.601 Y54.686 E0.97659
M204 S4000
M205 X25 Y25
G0 F5400 X56.172 Y53.08
G0 X56.413 Y52.785
M204 S3000
M205 X20 Y20
G1 F774.7 X56.704 Y52.689 E0.98043
G1 X57.21 Y52.82 E0.98699
G1 X57.352 Y52.785 E0.98882
G1 X57.249 Y52.727 E0.99031
G1 X57.161 Y52.555 E0.99273
G1 X57.2 Y52.289 E0.9961
G1 X57.418 Y52.124 E0.99953
G1 X57.148 Y52.201 E1.00305
G1 X56.544 Y52.192 E1.01062
G1 X56.214 Y52.084 E1.01498
G1 X55.652 Y52.06 E1.02203
G1 X55.076 Y52.084 E1.02926
G1 X54.741 Y52.084 E1.03346
G1 X54.574 Y52.152 E1.03572
G1 X54.034 Y52.228 E1.04256
G1 X53.679 Y52.187 E1.04704
G1 X53.776 Y52.359 E1.04952
G1 X53.774 Y52.572 E1.05219
G1 X53.652 Y52.756 E1.05496
G1 X53.591 Y52.787 E1.05582
G1 X53.668 Y52.819 E1.05686
G1 X54.205 Y52.688 E1.0638
G1 X54.496 Y52.757 E1.06755
G1 X54.596 Y52.87 E1.06944
G1 X54.708 Y53.342 E1.07552
G1 X55.015 Y53.997 E1.08459
G1 X55.14 Y54.429 E1.09023
G1 X55.146 Y54.737 E1.0941
G1 X55.038 Y55.164 E1.09962
G1 X55.146 Y55.421 E1.10312
G1 X55.295 Y55.492 E1.10519
G1 X55.693 Y55.492 E1.11018
G1 X55.839 Y55.375 E1.11252
G1 X55.908 Y55.176 E1.11516
G1 X55.801 Y54.651 E1.12188
G1 X55.848 Y54.185 E1.12776
G1 X56.244 Y53.376 E1.13905
G1 X56.326 Y52.92 E1.14486
G1 X56.413 Y52.785 E1.14688
M204 S4000
M205 X25 Y25
G0 F5400 X56.381 Y52.619
G0 X54.48 Y52.354
M204 S3000
M205 X20 Y20
G1 F956.5 X53.949 Y52.393 E1.15228
G1 F1046.9 X53.947 Y52.569 E1.15392
G1 F1061.3 X54.202 Y52.517 E1.1563
G1 F962.4 X54.53 Y52.564 E1.15964
G1 F875.4 X54.48 Y52.354 E1.16204
G1 F774.7 X54.57 Y52.344
G1 X54.714 Y52.201 E1.16459
M204 S4000
M205 X25 Y25
G0 F5400 X54.731 Y52.236
G0 X55.013 Y52.184
M204 S3000
M205 X20 Y20
G1 F774.7 X54.625 Y52.572 E1.17147
M204 S4000
M205 X25 Y25
G0 F5400 X55.049 Y52.577
G0 X54.681 Y52.8
M204 S3000
M205 X20 Y20
G1 F774.7 X55.306 Y52.175 E1.18255
M204 S4000
M205 X25 Y25
G0 F5400 X55.324 Y52.605
G0 X55.601 Y52.163
M204 S3000
M205 X20 Y20
G1 F774.7 X54.735 Y53.028 E1.1979
M204 S4000
M205 X25 Y25
G0 F5400 X55.163 Y52.939
G0 X54.79 Y53.256
M204 S3000
M205 X20 Y20
G1 F774.7 X55.876 Y52.17 E1.21716
M204 S4000
M205 X25 Y25
G0 F5400 X55.86 Y52.598
G0 X56.148 Y52.181
M204 S3000
M205 X20 Y20
G1 F774.7 X54.873 Y53.456 E1.23977
M204 S4000
M205 X25 Y25
G0 F5400 X55.258 Y53.272
G0 X54.963 Y53.649
M204 S3000
M205 X20 Y20
G1 F774.7 X56.378 Y52.234 E1.26487
M204 S4000
M205 X25 Y25
G0 F5400 X56.367 Y52.268
G0 X56.598 Y52.296
M204 S3000
M205 X20 Y20
G1 F774.7 X55.053 Y53.841 E1.29227
M204 S4000
M205 X25 Y25
G0 F5400 X55.442 Y53.655
G0 X55.143 Y54.034
M104 S29.2
M204 S3000
M205 X20 Y20
G1 F774.7 X56.217 Y52.96 E1.31131
M204 S4000
M205 X25 Y25
G0 F5400 X55.801 Y52.886
G0 X56.156 Y53.305
M204 S3000
M205 X20 Y20
G1 F774.7 X55.391 Y54.069 E1.32487
M204 S4000
M205 X25 Y25
G0 F5400 X55.472 Y53.895
G0 X55.671 Y54.072
M204 S3000
M205 X20 Y20
G1 F774.7 X55.9 Y53.843 E1.32893
M204 S4000
M205 X25 Y25
G0 F5400 X55.523 Y53.654
G0 X56.228 Y52.799
G0 X56.532 Y52.646
M204 S3000
M205 X20 Y20
G1 F774.7 X56.877 Y52.3 E1.33506
M204 S4000
M205 X25 Y25
G0 F5400 X56.877 Y52.334
G0 X57.068 Y52.392
M204 S3000
M205 X20 Y20
G1 F774.7 X56.835 Y52.625 E1.33919
M204 S4000
M205 X25 Y25
G0 F5400 X56.848 Y52.58
G0 X57.064 Y52.679
M204 S3000
M205 X20 Y20
G1 F774.7 X57.1 Y52.643 E1.33983
M204 S4000
M205 X25 Y25
G0 F5400 X55.746 Y52.616
;MESH:NONMESH
G0 F600 X55.746 Y52.616 Z1.1
G0 F5400 X56.72 Y52.868
;TIME_ELAPSED:12.683120
;LAYER:2
;note -- min layer time used
M204 S3000
M205 X20 Y20
;TYPE:WALL-OUTER
;MESH:stl/ut_0.023753x.stl
G1 F766.8 X56.533 Y52.917 E1.34226
G1 X56.42 Y53.436 E1.34892
G1 X56.022 Y54.235 E1.36011
G1 X55.981 Y54.625 E1.36503
G1 X56.096 Y55.192 E1.37228
G1 X55.996 Y55.476 E1.37606
G1 X55.892 Y55.596 E1.37805
G1 X55.747 Y55.672 E1.3801
G1 X55.265 Y55.672 E1.38615
G1 X55.104 Y55.632 E1.38823
G1 X55 Y55.543 E1.38995
G1 X54.851 Y55.185 E1.39481
G1 X54.968 Y54.709 E1.40095
G1 X54.965 Y54.46 E1.40408
G1 X54.849 Y54.06 E1.4093
G1 X54.536 Y53.403 E1.41843
G1 X54.436 Y52.951 E1.42423
G1 X54.391 Y52.903 E1.42506
G1 X54.237 Y52.868 E1.42704
G1 X53.66 Y53.009 E1.43449
G1 X53.436 Y52.948 E1.4374
G1 X53.232 Y52.8 E1.44056
G1 X53.562 Y52.603 E1.44538
G1 X53.612 Y52.523 E1.44656
G1 F716.6 X53.566 Y52.344 E1.44904
G1 F608.6 X53.23 Y52.134 E1.4553
G1 F603.8 X52.253 Y51.446 E1.47433
G1 F716.6 X51.531 Y51.056 E1.48534
G1 F891.6 X51.126 Y50.948 E1.48986
G1 F1095.4 X50.573 Y50.929 E1.49472
G1 F1144.4 X50.539 Y50.861 E1.49536
G1 X50.616 Y50.802 E1.49617
G1 F1072.4 X51.038 Y50.789 E1.49996
G1 F946.6 X51.673 Y50.92 E1.50655
G1 F759.2 X52.318 Y51.215 E1.51553
G1 F628.5 X53.435 Y51.937 E1.53588
G1 F672.6 X54.049 Y52.048 E1.5448
G1 F766.8 X54.551 Y51.975 E1.55116
G1 X54.701 Y51.904 E1.55324
G1 X55.08 Y51.904 E1.55799
G1 X55.653 Y51.88 E1.56519
G1 X56.249 Y51.904 E1.57267
G1 X56.6 Y52.022 E1.57731
G1 X57.124 Y52.025 E1.58388
G1 F641.7 X57.69 Y51.827 E1.59287
G1 F649.8 X58.759 Y51.139 E1.61168
G1 F842.6 X59.403 Y50.887 E1.61957
G1 F946.6 X59.905 Y50.789 E1.62477
G1 F1080 X60.331 Y50.802 E1.62856
G1 F1153 X60.406 Y50.86 E1.62935
G1 F1127.6 X60.406 Y50.929 E1.62994
G1 F1065 X59.843 Y50.947 E1.63503
G1 F970.6 X59.428 Y51.058 E1.63928
G1 F759.2 X58.958 Y51.261 E1.64577
G1 F596.7 X57.954 Y51.994 E1.6658
G1 F639 X57.344 Y52.399 E1.67682
G1 F766.8 X57.332 Y52.516 E1.67829
G1 X57.467 Y52.669 E1.68085
G1 X57.691 Y52.742 E1.6838
G1 X57.72 Y52.822 E1.68487
G1 X57.638 Y52.904 E1.68633
G1 X57.202 Y53.006 E1.69194
G1 X56.72 Y52.868 E1.69823
M204 S5000
M205 X30 Y30
G0 F7200 X56.533 Y52.917
G0 X56.532 Y52.923
G0 X56.469 Y52.602
G0 X55.472 Y53.895
G0 X55.484 Y54.324
M204 S3000
M205 X20 Y20
;TYPE:SKIN
G1 F1847.7 X55.472 Y54.677 E1.70007
G1 F1870.2 X55.408 Y55.139 E1.70246
G1 F1433.2 X55.539 Y55.139 E1.70334
G1 F1870.2 X55.472 Y54.677 E1.70574
M204 S5000
M205 X30 Y30
G0 F7200 X55.601 Y54.686
M204 S3000
M205 X20 Y20
G1 F766.8 X55.659 Y54.171 E1.71224
G1 X55.273 Y54.166 E1.71708
G1 X55.331 Y54.353 E1.71954
G1 X55.342 Y54.735 E1.72433
G1 X55.246 Y55.147 E1.72964
G1 X55.298 Y55.273 E1.73135
G1 X55.619 Y55.292 E1.73538
G1 X55.7 Y55.16 E1.73732
G1 X55.601 Y54.686 E1.74339
M204 S5000
M205 X30 Y30
G0 F7200 X56.172 Y53.08
G0 X56.413 Y52.785
M204 S3000
M205 X20 Y20
G1 F766.8 X56.704 Y52.689 E1.74724
G1 X57.21 Y52.82 E1.75379
G1 X57.352 Y52.785 E1.75562
G1 X57.249 Y52.727 E1.75711
G1 X57.161 Y52.555 E1.75953
G1 X57.2 Y52.289 E1.7629
G1 X57.418 Y52.124 E1.76633
G1 X57.148 Y52.201 E1.76985
G1 X56.544 Y52.192 E1.77743
G1 X56.214 Y52.084 E1.78178
G1 X55.652 Y52.06 E1.78883
G1 X55.076 Y52.084 E1.79606
G1 X54.741 Y52.084 E1.80026
G1 X54.574 Y52.152 E1.80253
G1 X54.034 Y52.228 E1.80936
G1 X53.679 Y52.187 E1.81385
G1 X53.776 Y52.359 E1.81632
G1 X53.774 Y52.572 E1.81899
G1 X53.652 Y52.756 E1.82176
G1 X53.591 Y52.787 E1.82262
G1 X53.668 Y52.819 E1.82367
G1 X54.205 Y52.688 E1.8306
G1 X54.496 Y52.757 E1.83435
G1 X54.596 Y52.87 E1.83624
G1 X54.708 Y53.342 E1.84232
G1 X55.015 Y53.997 E1.85139
G1 X55.14 Y54.429 E1.85703
G1 X55.146 Y54.737 E1.8609
G1 X55.038 Y55.164 E1.86642
G1 X55.146 Y55.421 E1.86992
G1 X55.295 Y55.492 E1.87199
G1 X55.693 Y55.492 E1.87698
G1 X55.839 Y55.375 E1.87932
G1 X55.908 Y55.176 E1.88196
G1 X55.801 Y54.651 E1.88868
G1 X55.848 Y54.185 E1.89456
G1 X56.244 Y53.376 E1.90585
G1 X56.326 Y52.92 E1.91166
G1 X56.413 Y52.785 E1.91368
M204 S5000
M205 X30 Y30
G0 F7200 X56.381 Y52.619
G0 X54.48 Y52.354
M204 S3000
M205 X20 Y20
G1 F946.6 X53.949 Y52.393 E1.91909
G1 F1036.2 X53.947 Y52.569 E1.92072
G1 F1050.4 X54.202 Y52.517 E1.9231
G1 F952.5 X54.53 Y52.564 E1.92645
G1 F866.4 X54.48 Y52.354 E1.92884
M204 S5000
M205 X30 Y30
G0 F7200 X55.472 Y53.895
G0 X55.197 Y54.066
M204 S3000
M205 X20 Y20
G1 F766.8 X55.123 Y53.991 E1.93016
M204 S5000
M205 X30 Y30
G0 F7200 X55.483 Y53.846
G0 X55.484 Y54.07
M204 S3000
M205 X20 Y20
G1 F766.8 X54.874 Y53.46 E1.94098
