;FLAVOR:Marlin
;TIME:6666
;Filament used: 0m
;Layer height: 0.4
;MINX:2.14748e+06
;MINY:2.14748e+06
;MINZ:2.14748e+06
;MAXX:-2.14748e+06
;MAXY:-2.14748e+06
;MAXZ:-2.14748e+06
;TARGET_MACHINE.NAME:Pather

;Generated with Cura_SteamEngine 5.9.1
M104 S215
M105
M109 S215
M82 ;absolute extrusion mode
G28 ;Home
G1 Z15.0 F6000 ;Move the platform down 15mm
;Prime the extruder
G92 E0
G1 F200 E3
G92 E0
G92 E0
G92 E0
G1 F1500 E-6.5
;LAYER_COUNT:25
;LAYER:0
M106 S209.9
M104 S172.3
M204 S3000
M205 X20 Y20
;MESH:stl/ut_0.023753x.stl
G0 F3600 X56.711 Y52.918 Z0.3
;TYPE:WALL-OUTER
G1 F1500 E0
G1 F1800 X56.566 Y52.954 E0.0007
G1 X56.468 Y53.452 E0.00309
G1 X56.067 Y54.257 E0.00732
G1 X56.03 Y54.617 E0.00902
G1 X56.148 Y55.196 E0.0118
G1 X56.04 Y55.502 E0.01333
G1 X55.924 Y55.636 E0.01416
G1 X55.759 Y55.722 E0.01503
G1 X55.259 Y55.722 E0.01739
G1 X55.08 Y55.678 E0.01825
G1 X54.958 Y55.573 E0.01901
G1 X54.8 Y55.192 E0.02095
G1 X54.916 Y54.721 E0.02323
G1 X54.917 Y54.474 E0.02439
G1 X54.801 Y54.074 E0.02635
G1 X54.488 Y53.419 E0.02976
G1 X54.39 Y52.971 E0.03192
G1 X54.244 Y52.918 E0.03265
G1 X53.658 Y53.06 E0.03549
G1 X53.414 Y52.994 E0.03667
G1 X53.182 Y52.826 E0.03802
G1 X53.214 Y52.724 E0.03852
G1 X53.537 Y52.56 E0.04023
G1 X53.561 Y52.434 E0.04083
G1 X53.183 Y52.209 E0.0429
G1 X52.214 Y51.499 E0.04855
G1 X51.473 Y51.072 E0.05257
G1 X51.126 Y50.972 E0.05427
G1 X50.566 Y50.946 E0.05691
G1 X50.522 Y50.853 E0.05739
G1 X50.61 Y50.785 E0.05791
G1 X51.04 Y50.763 E0.05994
G1 X51.741 Y50.901 E0.0633
G1 X52.348 Y51.157 E0.06639
G1 X53.464 Y51.849 E0.07257
G1 X54.033 Y51.998 E0.07534
G1 X54.544 Y51.926 E0.07776
G1 X54.689 Y51.854 E0.07852
G1 X55.08 Y51.854 E0.08036
G1 X55.653 Y51.83 E0.08306
G1 X56.258 Y51.854 E0.08591
G1 X56.607 Y51.972 E0.08764
G1 X57.124 Y51.975 E0.09007
G1 X57.6 Y51.779 E0.09249
G1 X58.626 Y51.139 E0.09818
G1 X59.394 Y50.853 E0.10203
G1 X59.903 Y50.763 E0.10446
G1 X60.337 Y50.786 E0.10651
G1 X60.422 Y50.852 E0.10701
G1 X60.422 Y50.944 E0.10745
G1 X59.847 Y50.97 E0.11015
G1 X59.437 Y51.092 E0.11216
G1 X59.046 Y51.268 E0.11418
G1 X58.004 Y52.07 E0.12036
G1 X57.389 Y52.414 E0.12368
G1 X57.4 Y52.555 E0.12434
G1 X57.497 Y52.629 E0.12492
G1 X57.729 Y52.701 E0.12606
G1 X57.778 Y52.835 E0.12673
G1 X57.665 Y52.948 E0.12748
G1 X57.197 Y53.057 E0.12974
G1 X56.711 Y52.918 E0.13212
G0 F3600 X56.566 Y52.954
G0 X56.557 Y53.003
G0 X56.711 Y52.838
;TYPE:SKIN
G1 F1800 X56.504 Y52.898 E0.13313
G1 X56.388 Y53.427 E0.13568
G1 X55.995 Y54.217 E0.13983
G1 X55.95 Y54.632 E0.14179
G1 X56.064 Y55.188 E0.14446
G1 X55.967 Y55.458 E0.14581
G1 X55.875 Y55.568 E0.14648
G1 X55.739 Y55.642 E0.14721
G1 X55.271 Y55.642 E0.14941
G1 X55.116 Y55.602 E0.15017
G1 X55.026 Y55.525 E0.15072
G1 X54.885 Y55.18 E0.15248
G1 X54.999 Y54.707 E0.15476
G1 X54.993 Y54.445 E0.156
G1 X54.874 Y54.046 E0.15795
G1 X54.564 Y53.391 E0.16136
G1 X54.449 Y52.921 E0.16364
G1 X54.229 Y52.838 E0.16474
G1 X53.657 Y52.976 E0.16751
G1 X53.447 Y52.917 E0.16854
G1 X53.284 Y52.801 E0.16948
G1 X53.569 Y52.633 E0.17103
G1 X53.642 Y52.511 E0.1717
G1 X53.592 Y52.352 E0.17248
G1 X53.223 Y52.137 E0.17449
G1 X52.262 Y51.431 E0.1801
G1 F1894.7 X51.584 Y51.026 E0.18363
G1 F2368.4 X51.145 Y50.91 E0.18525
G1 F3103.4 X50.622 Y50.889 E0.18668
G1 F3333.3 X50.631 Y50.838 E0.18681
G1 F2903.2 X51.026 Y50.828 E0.18796
G1 F1956.5 X51.719 Y50.983 E0.19104
G1 F1698.1 X52.3 Y51.221 E0.19416
G1 F1800 X53.424 Y51.917 E0.20038
G1 X54.03 Y52.078 E0.20333
G1 X54.566 Y52.002 E0.20588
G1 X54.708 Y51.934 E0.20662
G1 X55.076 Y51.934 E0.20835
G1 X55.653 Y51.911 E0.21106
G1 X56.238 Y51.934 E0.21382
G1 X56.599 Y52.051 E0.2156
G1 X57.16 Y52.051 E0.21824
G1 X57.647 Y51.843 E0.22073
G1 X58.659 Y51.213 E0.22634
G1 F1914.9 X59.412 Y50.926 E0.2299
G1 F2250 X59.899 Y50.829 E0.23177
G1 F2903.2 X60.314 Y50.838 E0.23298
G1 F3396.2 X60.331 Y50.89 E0.23311
G1 F3000 X59.83 Y50.907 E0.23453
G1 F2307.7 X59.407 Y51.021 E0.23613
G1 F1875 X59 Y51.198 E0.23814
G1 F1764.7 X57.956 Y52.002 E0.24446
G1 F1800 X57.321 Y52.358 E0.24788
G1 X57.314 Y52.542 E0.24875
G1 X57.438 Y52.682 E0.24963
G1 X57.668 Y52.764 E0.25077
G1 X57.683 Y52.81 E0.251
G1 X57.622 Y52.874 E0.25142
G1 X57.202 Y52.972 E0.25345
G1 X56.711 Y52.838 E0.25584
G0 F3600 X56.667 Y52.613
G0 X55.212 Y55.388
G0 X55.107 Y55.458
G1 F1800 X55.234 Y55.517 E0.2565
G1 X55.06 Y55.342 E0.25766
G1 X54.998 Y55.139 E0.25866
G1 X55.4 Y55.542 E0.26133
G1 X55.542 Y55.542 E0.262
G1 X55.024 Y55.024 E0.26545
G1 X55.051 Y54.91 E0.266
G1 X55.683 Y55.542 E0.2702
G1 X55.772 Y55.489 E0.27069
G1 X55.078 Y54.795 E0.2753
G1 X55.098 Y54.673 E0.27588
G1 X55.851 Y55.427 E0.2809
G1 X55.905 Y55.339 E0.28138
G1 X55.096 Y54.53 E0.28676
G1 X55.069 Y54.362 E0.28756
G1 X55.941 Y55.234 E0.29336
G1 X55.943 Y55.095 E0.29401
G1 X55.011 Y54.162 E0.30022
G1 X54.938 Y53.948 E0.30128
G1 X55.907 Y54.917 E0.30772
G1 X55.87 Y54.739 E0.30858
G1 X54.811 Y53.68 E0.31562
G1 X54.684 Y53.411 E0.31702
G1 X55.856 Y54.584 E0.32482
G1 X55.869 Y54.454 E0.32543
G1 X54.619 Y53.205 E0.33374
G1 X54.57 Y53.014 E0.33467
G1 X55.881 Y54.326 E0.34339
G1 X55.898 Y54.201 E0.34399
G1 X53.826 Y52.129 E0.35777
G1 X54.02 Y52.182 E0.35871
G1 X55.945 Y54.106 E0.37151
G1 X55.992 Y54.012 E0.372
G1 X54.145 Y52.165 E0.38429
G1 X54.269 Y52.148 E0.38488
G1 X56.038 Y53.916 E0.39664
G1 X56.084 Y53.821 E0.39713
G1 X54.393 Y52.131 E0.40838
G1 X54.517 Y52.113 E0.40897
G1 X56.13 Y53.726 E0.41969
G1 X56.177 Y53.631 E0.42019
G1 X54.627 Y52.081 E0.4305
G1 X54.724 Y52.037 E0.431
G1 X56.223 Y53.536 E0.44097
G1 X56.269 Y53.441 E0.44147
G1 X54.863 Y52.035 E0.45082
G1 X55.004 Y52.035 E0.45148
G1 X56.305 Y53.336 E0.46013
G1 X56.331 Y53.22 E0.46069
G1 X55.143 Y52.032 E0.46859
G1 X55.279 Y52.026 E0.46923
G1 X56.356 Y53.104 E0.4764
G1 X56.382 Y52.988 E0.47696
G1 X55.415 Y52.021 E0.48339
G1 X55.551 Y52.015 E0.48403
G1 X56.407 Y52.872 E0.48973
G1 X56.417 Y52.825 E0.48995
G1 X56.482 Y52.805 E0.49027
G1 X55.69 Y52.013 E0.49554
G1 X55.837 Y52.019 E0.49623
G1 X56.59 Y52.771 E0.50123
G1 X56.697 Y52.737 E0.50176
G1 X55.984 Y52.025 E0.5065
G1 X56.132 Y52.03 E0.5072
G1 X56.887 Y52.786 E0.51222
G1 X57.078 Y52.836 E0.51315
G1 X56.304 Y52.061 E0.5183
G1 X56.516 Y52.132 E0.51935
G1 X57.242 Y52.858 E0.52418
G1 X57.352 Y52.827 E0.52472
G1 X57.367 Y52.757 E0.52506
G1 X57.199 Y52.509 E0.52646
G1 X57.216 Y52.408 E0.52695
G1 X56.96 Y52.152 E0.52865
G1 X57.103 Y52.153 E0.52932
G1 X57.24 Y52.29 E0.53023
G1 X57.33 Y52.239 E0.53072
G1 X57.224 Y52.133 E0.53142
G1 X57.323 Y52.09 E0.53193
G1 X57.421 Y52.188 E0.53258
G1 X57.511 Y52.137 E0.53307
G1 X57.422 Y52.048 E0.53366
G1 X57.522 Y52.006 E0.53417
G1 X57.602 Y52.086 E0.5347
G1 X57.692 Y52.035 E0.53519
G1 X57.621 Y51.964 E0.53566
G1 X57.715 Y51.917 E0.53616
G1 X57.783 Y51.984 E0.5366
G1 X57.873 Y51.933 E0.53709
G1 X57.802 Y51.863 E0.53756
G1 X57.89 Y51.809 E0.53805
G1 X57.956 Y51.875 E0.53848
G1 X58.036 Y51.813 E0.53896
G1 X57.977 Y51.755 E0.53935
G1 X58.064 Y51.7 E0.53983
G1 X58.116 Y51.752 E0.54018
G1 X58.196 Y51.69 E0.54066
G1 X58.152 Y51.646 E0.54095
G1 X58.239 Y51.592 E0.54143
G1 X58.275 Y51.629 E0.54167
G1 X58.355 Y51.567 E0.54215
G1 X58.326 Y51.537 E0.54234
G1 X58.413 Y51.484 E0.54282
G1 X58.435 Y51.505 E0.54297
G1 X58.678 Y51.318 E0.54441
G1 F1500 E-5.95559
G0 F3600 X57.247 Y52.58
G1 F1500 E0.54441
G1 F1800 X56.817 Y52.15 E0.54727
G1 X56.674 Y52.148 E0.54794
G1 X57.352 Y52.827 E0.55245
G0 F3600 X57.284 Y52.791
G0 X54.712 Y52.985
G0 X54.57 Y53.014
G1 F1800 X54.526 Y52.848 E0.55326
G0 F3600 X54.677 Y52.817
G0 X54.331 Y52.775
G1 F1800 X53.631 Y52.075 E0.55792
G1 X53.435 Y52.021 E0.55887
G1 X54.164 Y52.75 E0.56372
G1 X54.05 Y52.777 E0.56427
G1 X53.721 Y52.448 E0.56646
G1 X53.748 Y52.509 E0.56677
G1 X53.708 Y52.577 E0.56714
G1 X53.936 Y52.805 E0.56866
G1 X53.821 Y52.831 E0.56922
G1 X53.657 Y52.667 E0.57031
G1 X53.587 Y52.739 E0.57078
G1 X53.708 Y52.859 E0.57158
G1 X53.498 Y52.791 E0.57262
G0 F3600 X53.622 Y52.795
G0 X53.721 Y52.448
G1 F1800 X53.631 Y52.244 E0.57367
G0 F3600 X53.69 Y52.133
G0 X53.382 Y52.11
G1 F1800 X53.119 Y51.846 E0.57542
G1 X52.749 Y51.617 E0.57746
G1 X52.929 Y51.798 E0.57867
G1 X52.378 Y51.388 E0.58189
G1 F1500 E-5.91811
;MESH:NONMESH
G0 F600 X52.378 Y51.388 Z0.7
G0 F3600 X52.853 Y50.632
G0 X59.863 Y50.046
G0 X61.136 Y50.513
G0 X58.056 Y53.572
G0 X56.711 Y52.918
;TIME_ELAPSED:9.164791
;LAYER:1
;note -- min layer time used
M106 S255
;TYPE:WALL-OUTER
;MESH:stl/ut_0.023753x.stl
G1 F1500 E0.58189
G1 F1584.6 X56.566 Y52.954 E0.58283
G1 X56.468 Y53.452 E0.58601
G1 X56.067 Y54.257 E0.59165
G1 X56.03 Y54.617 E0.59392
G1 X56.148 Y55.196 E0.59763
G1 X56.04 Y55.502 E0.59966
G1 X55.924 Y55.636 E0.60077
G1 X55.759 Y55.722 E0.60194
G1 X55.259 Y55.722 E0.60508
G1 X55.08 Y55.678 E0.60623
G1 X54.958 Y55.573 E0.60724
G1 X54.8 Y55.192 E0.60983
G1 X54.916 Y54.721 E0.61287
G1 X54.917 Y54.474 E0.61442
G1 X54.801 Y54.074 E0.61703
G1 X54.488 Y53.419 E0.62158
G1 X54.39 Y52.971 E0.62446
G1 X54.244 Y52.918 E0.62543
G1 X53.658 Y53.06 E0.62921
G1 X53.414 Y52.994 E0.63079
G1 X53.182 Y52.826 E0.63259
G1 X53.214 Y52.724 E0.63326
G1 X53.537 Y52.56 E0.63553
G1 X53.561 Y52.434 E0.63634
G1 X53.183 Y52.209 E0.63909
G1 X52.214 Y51.499 E0.64663
G1 X51.473 Y51.072 E0.65199
G1 X51.126 Y50.972 E0.65425
G1 X50.566 Y50.946 E0.65777
G1 X50.522 Y50.853 E0.65841
G1 X50.61 Y50.785 E0.65911
G1 X51.04 Y50.763 E0.66181
G1 X51.741 Y50.901 E0.66629
G1 X52.348 Y51.157 E0.67042
G1 X53.464 Y51.849 E0.67866
G1 X54.033 Y51.998 E0.68234
G1 X54.544 Y51.926 E0.68558
G1 X54.689 Y51.854 E0.68659
G1 X55.08 Y51.854 E0.68905
G1 X55.653 Y51.83 E0.69264
G1 X56.258 Y51.854 E0.69644
G1 X56.607 Y51.972 E0.69875
G1 X57.124 Y51.975 E0.70199
G1 X57.6 Y51.779 E0.70522
G1 X58.626 Y51.139 E0.7128
G1 X59.394 Y50.853 E0.71794
G1 X59.903 Y50.763 E0.72118
G1 X60.337 Y50.786 E0.7239
G1 X60.422 Y50.852 E0.72458
G1 X60.422 Y50.944 E0.72516
G1 X59.847 Y50.97 E0.72877
G1 X59.437 Y51.092 E0.73145
G1 X59.046 Y51.268 E0.73414
G1 X58.004 Y52.07 E0.74238
G1 X57.389 Y52.414 E0.7468
G1 X57.4 Y52.555 E0.74769
G1 X57.497 Y52.629 E0.74845
G1 X57.729 Y52.701 E0.74997
G1 X57.778 Y52.835 E0.75087
G1 X57.665 Y52.948 E0.75187
G1 X57.197 Y53.057 E0.75488
G1 X56.711 Y52.918 E0.75805
M204 S4000
M205 X25 Y25
G0 F5400 X56.566 Y52.954
G0 X56.557 Y53.003
G0 X56.902 Y52.479
M204 S3000
M205 X20 Y20
;TYPE:SKIN
G1 F1617 X56.907 Y52.448 E0.75825
M204 S4000
M205 X25 Y25
G0 F5400 X57.04 Y52.618
M204 S3000
M205 X20 Y20
G1 F1584.6 X57.002 Y52.483 E0.75913
G1 X57.024 Y52.35 E0.75997
G1 X56.829 Y52.349 E0.76119
G1 X56.784 Y52.551 E0.76249
G1 X57.04 Y52.618 E0.76415
M204 S4000
M205 X25 Y25
G0 F5400 X57.245 Y52.751
M204 S3000
M205 X20 Y20
G1 F1584.6 X57.102 Y52.488 E0.76603
G1 F2112.9 X57.21 Y52.22 E0.76739
G1 X56.749 Y52.248 E0.76956
G1 F1584.6 X56.662 Y52.644 E0.7721
G1 X57.202 Y52.764 E0.77557
G1 X57.245 Y52.751 E0.77585
M204 S4000
M205 X25 Y25
G0 F5400 X57.21 Y52.798
G0 X55.479 Y55.012
G0 X55.479 Y55.089
M204 S3000
M205 X20 Y20
G1 F26410.8 X55.473 Y55.089 E0.77585
M204 S4000
M205 X25 Y25
G0 F5400 X55.473 Y55.012
G0 X55.523 Y55.04
M204 S3000
M205 X20 Y20
G1 F1584.6 X55.433 Y55.033 E0.77642
G1 X55.41 Y55.142 E0.77712
G1 X55.543 Y55.142 E0.77795
G1 X55.523 Y55.04 E0.7786
M204 S4000
M205 X25 Y25
G0 F5400 X55.486 Y55.095
G0 X55.648 Y55.156
M204 S3000
M205 X20 Y20
G1 F1584.6 X55.606 Y54.947 E0.77994
G1 X55.355 Y54.926 E0.78152
G1 X55.303 Y55.144 E0.78292
G1 X55.341 Y55.236 E0.78355
G1 X55.598 Y55.242 E0.78516
G1 X55.648 Y55.156 E0.78578
M204 S4000
M205 X25 Y25
G0 F5400 X55.494 Y55.071
G0 X55.752 Y55.164
M204 S3000
M205 X20 Y20
G1 F1584.6 X55.689 Y54.854 E0.78777
G1 X55.278 Y54.819 E0.79035
G1 X55.199 Y55.152 E0.7925
G1 X55.263 Y55.31 E0.79357
G1 X55.331 Y55.342 E0.79404
G1 X55.634 Y55.342 E0.79594
G1 X55.709 Y55.281 E0.79655
G1 X55.752 Y55.164 E0.79733
M204 S4000
M205 X25 Y25
G0 F5400 X55.793 Y55.341
M204 S3000
M205 X20 Y20
G1 F1584.6 X55.856 Y55.172 E0.79846
G1 X55.771 Y54.761 E0.80109
G1 X55.197 Y54.711 E0.8047
G1 X55.094 Y55.16 E0.80759
G1 X55.185 Y55.384 E0.80911
G1 X55.309 Y55.442 E0.80997
G1 X55.67 Y55.442 E0.81223
G1 X55.793 Y55.341 E0.81323
M204 S4000
M205 X25 Y25
G0 F5400 X55.771 Y55.333
G0 X54.596 Y52.754
G0 X54.092 Y52.372
M204 S3000
M205 X20 Y20
G1 F1584.6 X53.898 Y52.353 E0.81445
G1 X53.942 Y52.517 E0.81551
G1 X53.916 Y52.603 E0.81608
G1 X54.056 Y52.569 E0.81698
G1 X54.092 Y52.372 E0.81824
M204 S4000
M205 X25 Y25
G0 F5400 X54.143 Y52.651
M204 S3000
M205 X20 Y20
G1 F1584.6 X54.215 Y52.254 E0.82077
G1 X54.016 Y52.278 E0.82202
G1 X53.71 Y52.198 E0.82401
G1 X53.84 Y52.477 E0.82594
G1 X53.723 Y52.752 E0.82781
G1 X54.143 Y52.651 E0.83052
M204 S4000
M205 X25 Y25
G0 F5400 X54.132 Y52.626
G0 X53.742 Y52.495
M204 S3000
M205 X20 Y20
G1 F1584.6 X53.636 Y52.702 E0.83198
G1 X53.485 Y52.796 E0.83309
G1 X53.657 Y52.871 E0.83427
G1 X54.229 Y52.74 E0.83795
G1 X54.338 Y52.136 E0.8418
G1 X54.004 Y52.176 E0.84391
G1 F1617 X53.315 Y51.985 E0.8483
G1 F1650.7 X53.271 Y52.049 E0.84877
G1 F1617 X53.638 Y52.259 E0.85136
G1 F1584.6 X53.742 Y52.495 E0.85298
M204 S4000
M205 X25 Y25
G0 F5400 X53.875 Y52.495
G0 X56.667 Y52.613
G0 X56.711 Y52.838
M204 S3000
M205 X20 Y20
G1 F1584.6 X57.202 Y52.972 E0.85617
G1 X57.622 Y52.874 E0.85888
G1 X57.683 Y52.81 E0.85943
G1 X57.668 Y52.764 E0.85973
G1 X57.438 Y52.682 E0.86127
G1 X57.314 Y52.542 E0.86244
G1 X57.321 Y52.358 E0.86359
G1 X57.956 Y52.002 E0.86816
G1 F1553.6 X59 Y51.198 E0.87658
G1 F1650.7 X59.407 Y51.021 E0.87926
G1 F2031.6 X59.83 Y50.907 E0.8814
G1 F2641.1 X60.331 Y50.89 E0.88328
G1 F2989.9 X60.314 Y50.838 E0.88347
G1 F2555.9 X59.899 Y50.829 E0.88508
G1 F1980.8 X59.412 Y50.926 E0.88757
G1 F1685.8 X58.659 Y51.213 E0.89232
G1 F1584.6 X57.647 Y51.843 E0.8998
G1 X57.16 Y52.051 E0.90312
G1 X56.599 Y52.051 E0.90663
G1 X56.238 Y51.934 E0.90901
G1 X55.653 Y51.911 E0.91268
G1 X55.076 Y51.934 E0.9163
G1 X54.708 Y51.934 E0.91861
G1 X54.566 Y52.002 E0.9196
G1 X54.03 Y52.078 E0.92299
G1 X53.424 Y51.917 E0.92693
G1 X52.3 Y51.221 E0.93521
G1 F1495 X51.719 Y50.983 E0.93939
G1 F1722.4 X51.026 Y50.828 E0.94348
G1 F2555.9 X50.631 Y50.838 E0.94502
G1 F2934.5 X50.622 Y50.889 E0.9452
G1 F2732.2 X51.145 Y50.91 E0.9471
G1 F2085.1 X51.584 Y51.026 E0.94926
G1 F1668.1 X52.262 Y51.431 E0.95397
G1 F1584.6 X53.223 Y52.137 E0.96144
G1 X53.592 Y52.352 E0.96412
G1 X53.642 Y52.511 E0.96517
G1 X53.569 Y52.633 E0.96606
G1 X53.284 Y52.801 E0.96813
G1 X53.447 Y52.917 E0.96939
G1 X53.657 Y52.976 E0.97075
G1 X54.229 Y52.838 E0.97444
G1 X54.449 Y52.921 E0.97592
G1 X54.564 Y53.391 E0.97895
G1 X54.874 Y54.046 E0.9835
G1 X54.993 Y54.445 E0.98611
G1 X54.999 Y54.707 E0.98775
G1 X54.885 Y55.18 E0.9908
G1 X55.026 Y55.525 E0.99314
G1 X55.116 Y55.602 E0.99388
G1 X55.271 Y55.642 E0.99488
G1 X55.739 Y55.642 E0.99782
G1 X55.875 Y55.568 E0.99879
G1 X55.967 Y55.458 E0.99969
G1 X56.064 Y55.188 E1.00149
G1 X55.95 Y54.632 E1.00505
G1 X55.995 Y54.217 E1.00766
G1 X56.388 Y53.427 E1.0132
G1 X56.504 Y52.898 E1.01659
G1 X56.711 Y52.838 E1.01794
M204 S4000
M205 X25 Y25
G0 F5400 X56.667 Y52.613
G0 X57.237 Y52.297
M204 S3000
M205 X20 Y20
G1 F1617 X58.021 Y51.846 E1.0235
G1 F1685.8 X57.961 Y51.756 E1.02414
G1 F1668.1 X57.679 Y51.933 E1.02612
G1 F1617 X57.18 Y52.151 E1.02947
G1 F1584.6 X56.669 Y52.147 E1.03267
G1 X56.528 Y52.787 E1.03678
G1 X56.713 Y52.739 E1.03798
G1 X57.203 Y52.868 E1.04116
G1 X57.463 Y52.793 E1.04285
G1 X57.359 Y52.741 E1.04358
G1 X57.21 Y52.525 E1.04523
G1 X57.237 Y52.297 E1.04667
M204 S4000
M205 X25 Y25
G0 F5400 X57.174 Y52.234
G0 X55.822 Y54.197
G0 X55.761 Y55.36
G0 X55.877 Y55.401
M204 S3000
M205 X20 Y20
G1 F1584.6 X55.96 Y55.18 E1.04815
